P2
320 200
255
109 109 109 109 109 109 109 108 108 108 108 108 108 108 108 108
108 108 107 107 107 108 108 108 109 109 109 109 109 110 110 110
110 110 111 111 111 110 110 110 110 110 109 109 109 108 108 108
109 109 109 108 108 108 108 108 109 109 109 109 109 109 109 109
109 109 109 109 109 109 109 109 109 109 109 109 109 109 110 110
109 109 109 108 108 108 109 109 110 110 110 109 109 109 108 108
108 109 109 109 109 109 108 108 108 108 108 108 108 108 109 109
109 110 110 110 110 110 110 110 110 111 111 111 110 110 110 110
110 109 109 109 109 109 108 108 108 107 107 107 108 108 109 109
109 109 109 109 109 109 109 108 108 109 109 109 109 109 109 109
109 110 110 110 109 109 109 110 110 109 109 109 109 109 109 109
109 109 109 109 108 108 108 108 108 108 108 108 108 108 108 107
107 107 108 108 109 109 109 109 109 109 110 110 110 110 110 111
111 111 110 110 110 110 110 109 109 109 108 108 108 109 109 109
108 108 108 108 108 109 109 109 109 109 109 109 109 109 109 109
109 109 109 109 109 109 109 109 109 109 109 110 110 109 109 109
108 108 108 109 109 110 110 110 109 109 109 108 108 109 109 109
109 109 109 108 108 108 108 108 108 108 108 109 109 109 110 110
110 110 110 110 110 110 111 111 110 110 110 110 110 110 109 109
109 109 109 108 108 108 107 107 107 108 108 109 109 109 109 109
108 109 109 109 109 109 109 109 109 109 109 109 109 109 109 109
109 108 108 108 108 108 108 109 109 109 109 109 108 108 108 110
110 110 110 110 111 111 111 110 110 110 110 110 108 108 108 109
109 108 108 108 109 109 109 109 109 109 109 109 109 109 109 109
109 109 109 109 109 109 109 109 109 109 109 109 108 108 108 109
109 108 108 108 109 109 109 108 108 109 109 109 108 108 108 109
109 109 109 109 109 109 109 109 109 109 109 109 108 108 108 109
109 110 110 110 111 111 111 110 110 111 111 111 110 110 110 110
110 109 109 109 109 109 109 109 109 108 108 108 108 108 108 109
109 109 109 109 109 109 109 109 109 108 108 108 108 108 108 109
109 109 109 109 108 108 108 109 109 108 108 108 109 109 109 109
109 109 109 109 109 109 109 109 109 109 109 109 108 108 108 108
108 109 109 109 109 109 109 108 108 110 110 110 110 110 110 111
111 110 110 110 110 110 110 108 108 109 109 109 108 108 108 109
109 109 109 109 109 109 109 109 109 109 109 109 109 109 109 109
109 109 109 109 109 109 109 108 108 109 109 109 108 108 108 109
109 108 108 108 109 109 109 108 108 109 109 109 109 109 109 109
109 109 109 109 109 109 109 108 108 109 109 109 110 110 110 111
111 110 110 110 111 111 111 110 110 110 110 110 109 109 109 109
109 109 109 109 108 108 108 108 108 109 109 109 109 109 109 109
108 108 108 109 109 109 109 109 109 109 109 109 109 109 109 109
109 109 109 108 108 108 108 108 109 109 109 109 109 109 108 108
110 110 110 110 110 111 111 111 110 110 110 110 110 108 108 108
109 109 109 108 108 109 109 109 109 109 109 109 109 109 109 109
109 109 109 109 109 109 109 109 109 109 109 109 109 108 108 108
109 109 108 108 108 109 109 109 108 108 109 109 109 108 108 108
109 109 109 109 109 109 109 109 109 109 109 109 109 108 108 109
109 109 110 110 110 111 111 110 110 110 111 111 111 110 110 110
110 110 109 109 109 109 109 109 109 109 108 108 108 108 108 109
109 109 109 109 109 109 109 109 109 109 108 108 108 108 108 109
109 109 109 109 108 108 108 109 109 108 108 108 109 109 109 109
109 109 109 109 109 109 109 109 109 109 109 109 108 108 108 108
108 109 109 109 109 109 108 108 108 110 110 110 110 110 111 111
111 110 110 110 110 110 108 108 108 109 109 109 108 108 109 109
109 109 109 109 109 109 109 109 109 109 109 109 109 109 109 109
109 109 109 109 109 109 108 108 108 109 109 108 108 108 109 109
108 108 108 109 109 109 108 108 109 109 109 109 109 109 109 109
109 109 109 109 109 109 108 108 109 109 109 110 110 110 111 111
110 110 110 111 111 110 110 110 110 110 110 109 109 109 109 109
109 109 109 108 108 108 108 108 109 109 109 109 109 109 109 109
108 108 109 109 109 109 109 109 109 109 109 109 109 109 109 109
109 109 109 109 109 109 109 109 109 109 109 109 109 108 108 109
109 109 110 110 110 110 110 111 111 111 110 110 110 110 110 109
109 110 110 110 109 109 109 108 108 109 109 109 109 109 108 108
108 109 109 109 109 109 108 108 108 109 109 109 109 109 109 109
109 108 108 109 109 109 108 108 109 109 109 110 110 110 109 109
108 108 108 109 109 109 109 109 109 109 109 108 108 109 109 109
110 110 110 111 111 110 110 110 110 110 111 111 111 110 110 110
110 110 109 109 109 109 109 109 109 109 109 109 109 109 109 109
109 109 109 109 109 109 109 110 110 110 109 109 108 108 108 110
110 109 109 109 108 108 108 108 108 109 109 109 109 109 109 109
109 109 109 109 109 109 109 109 109 109 109 109 109 109 109 109
109 109 109 108 108 108 109 109 110 110 110 110 110 110 111 111
110 110 110 110 110 110 109 109 110 110 110 109 109 108 108 108
109 109 109 109 109 108 108 108 109 109 109 109 109 108 108 108
109 109 109 109 109 109 109 108 108 108 109 109 109 108 108 109
109 109 110 110 109 109 109 108 108 108 109 109 109 109 109 109
109 108 108 108 109 109 109 110 110 111 111 111 110 110 110 110
110 111 111 111 110 110 110 110 110 109 109 109 109 109 109 109
109 109 109 109 109 109 109 109 109 109 109 109 109 109 110 110
108 108 109 109 109 109 109 109 109 109 109 109 109 109 109 109
109 109 109 109 109 109 109 109 109 109 109 109 108 108 109 109
109 110 110 111 111 111 110 110 111 111 111 110 110 110 110 110
110 110 110 109 109 108 108 108 109 109 109 109 109 108 108 108
109 109 110 110 110 110 110 109 109 109 108 108 109 109 109 109
109 109 109 109 109 109 109 109 109 108 108 108 109 109 109 109
109 108 108 108 109 109 109 109 109 109 109 108 108 108 109 109
109 110 110 110 110 110 111 111 110 110 110 111 111 110 110 110
110 110 110 109 109 109 109 109 109 109 109 109 109 109 109 109
109 109 109 109 109 108 108 109 109 109 109 109 108 108 108 110
110 110 110 110 108 108 108 109 109 109 109 109 109 109 109 109
109 109 109 109 109 109 109 109 109 109 109 109 109 109 109 109
108 108 108 109 109 110 110 110 111 111 111 110 110 111 111 111
110 110 110 110 110 110 110 109 109 109 108 108 108 109 109 109
109 109 108 108 109 109 109 110 110 110 110 110 109 109 109 108
108 109 109 109 109 109 109 109 109 109 109 109 109 109 108 108
108 109 109 109 109 109 108 108 109 109 109 109 109 109 109 109
108 108 108 109 109 110 110 110 110 110 111 111 111 110 110 111
111 111 110 110 110 110 110 109 109 109 109 109 109 109 109 109
109 109 109 109 109 109 109 109 109 108 108 108 109 109 109 109
109 108 108 108 109 109 109 109 109 109 109 109 109 109 109 109
109 109 109 109 109 109 109 109 109 109 109 109 109 108 108 108
109 109 110 110 110 110 110 110 110 110 111 111 111 110 110 110
110 110 110 110 109 109 109 108 108 109 109 109 109 109 108 108
108 108 108 110 110 110 110 110 109 109 109 108 108 108 109 109
109 109 109 109 109 109 109 109 109 109 108 108 108 109 109 110
110 110 109 109 108 108 108 109 109 109 109 109 109 109 109 108
108 109 109 109 110 110 110 110 110 110 110 111 111 111 110 110
110 110 110 109 109 109 109 109 109 109 109 109 109 109 109 109
109 109 109 109 109 109 109 108 108 108 109 109 108 108 108 110
110 109 109 109 108 108 109 109 109 109 109 109 109 109 109 109
109 109 109 109 109 109 109 109 109 109 109 109 109 109 109 109
108 108 109 109 109 110 110 110 110 110 110 110 110 111 111 110
110 110 110 110 110 110 110 109 109 108 108 108 109 109 109 109
109 108 108 108 108 108 110 110 110 110 110 109 109 109 108 108
109 109 109 109 109 109 109 109 109 109 109 109 109 108 108 109
109 109 110 110 110 109 109 108 108 108 109 109 109 109 109 109
109 108 108 108 109 109 110 110 110 110 110 110 110 110 111 111
110 110 110 110 110 110 109 109 109 109 109 109 109 109 109 109
109 109 109 109 109 109 109 109 109 109 108 108 109 109 109 108
110 109 109 108 108 108 109 109 109 109 109 109 109 109 109 109
109 109 109 109 109 109 109 109 109 109 109 109 109 109 109 108
108 109 109 109 110 110 110 110 110 110 110 110 111 111 110 110
110 110 110 110 110 110 109 109 108 108 108 109 109 109 109 109
108 108 108 108 108 110 110 110 110 110 109 109 108 108 108 109
109 109 109 109 109 109 109 109 109 109 109 108 108 108 109 109
110 110 110 109 109 108 108 108 109 109 109 109 109 109 109 108
108 108 109 109 110 110 110 110 110 110 110 110 111 111 110 110
110 110 110 109 109 109 109 109 109 109 109 109 109 109 109 109
109 109 109 109 109 109 109 108 108 108 109 109 108 108 108 110
110 109 109 109 108 108 108 109 109 109 109 109 109 109 109 109
109 109 109 109 109 109 109 109 109 109 109 109 109 109 109 109
108 108 109 109 109 110 110 110 110 110 110 110 111 111 111 110
110 110 110 110 110 110 109 109 109 108 108 109 109 109 109 109
108 108 108 108 108 110 110 110 110 110 109 109 109 108 108 109
109 109 109 109 109 109 109 109 109 109 109 109 108 108 109 109
109 110 110 109 109 109 108 108 109 109 109 109 109 109 109 109
108 108 109 109 109 110 110 110 110 110 110 110 111 111 111 110
110 110 110 110 109 109 109 109 109 109 109 109 109 109 109 109
109 109 109 109 109 109 109 109 108 108 108 109 109 108 108 108
110 110 110 109 109 110 110 110 110 110 110 110 110 110 110 109
109 109 109 109 110 110 110 110 110 110 110 110 110 110 110 110
110 110 110 109 109 109 110 110 111 111 111 111 111 5 5 111
111 111 111 111 110 110 110 109 109 110 110 110 110 110 110 110
110 110 110 109 109 109 109 109 109 109 109 110 110 110 110 110
110 110 110 110 110 110 110 110 110 110 110 110 110 110 109 109
109 110 110 109 109 109 110 110 110 110 110 110 110 110 110 110
110 110 109 109 109 110 110 111 111 111 111 111 5 5 5 111
111 111 111 111 110 110 110 110 110 110 110 110 110 110 110 110
110 110 110 110 110 110 110 110 110 110 110 110 110 110 110 110
110 109 109 109 110 110 110 110 110 110 110 110 110 110 109 109
109 109 109 110 110 110 110 110 110 110 110 110 110 110 110 110
110 109 109 109 110 110 111 111 111 111 111 5 5 5 111 111
111 111 111 110 110 109 109 109 110 110 110 110 110 110 110 110
110 110 109 109 109 109 109 109 109 110 110 110 110 110 110 110
110 110 110 110 110 110 110 110 110 110 110 110 110 109 109 110
110 110 109 109 110 110 110 110 110 110 110 110 110 110 110 110
110 109 109 110 110 111 111 111 111 111 5 5 5 111 111 111
111 111 110 110 110 110 110 110 110 110 110 110 110 110 110 110
110 110 110 110 110 110 110 110 110 110 110 110 110 110 110 110
110 110 110 110 110 110 110 110 110 110 110 110 110 110 110 109
109 110 110 110 110 110 109 109 109 110 110 110 110 110 110 110
110 110 110 110 110 109 109 110 110 110 111 111 111 111 111 5
5 111 111 111 111 111 110 110 109 109 109 111 111 109 109 109
110 110 110 110 110 110 110 110 110 110 110 110 110 110 109 109
109 109 109 109 109 109 110 110 110 110 110 110 110 110 110 110
110 110 109 109 110 110 110 110 110 110 110 110 110 110 109 109
109 111 111 110 110 109 109 109 111 111 111 111 111 5 5 111
111 111 111 111 110 110 110 110 110 110 110 110 110 110 110 110
110 110 110 110 110 110 110 110 110 110 110 110 110 110 110 110
110 110 110 110 110 110 110 110 110 110 110 109 109 109 110 110
110 110 110 109 109 110 110 110 110 110 110 110 110 110 110 110
110 109 109 109 110 110 111 111 111 111 111 5 5 111 111 111
111 111 110 110 110 109 109 111 111 111 109 109 110 110 110 110
110 110 110 110 110 110 110 110 110 110 110 109 109 109 109 109
109 109 110 110 110 110 110 110 110 110 110 110 110 110 109 109
109 110 110 110 110 110 110 110 110 110 110 109 109 111 111 110
110 110 109 109 111 111 111 111 111 5 5 5 111 111 111 111
111 110 110 110 110 110 110 110 110 110 110 110 110 110 110 110
110 110 110 110 110 110 110 110 110 110 110 110 110 110 110 110
110 110 110 110 110 110 110 110 110 110 110 110 110 110 110 110
110 110 110 111 111 111 110 110 109 109 110 110 110 110 110 110
110 110 109 109 111 111 110 110 110 111 111 111 111 111 111 111
5 5 111 111 111 111 111 110 110 110 110 110 109 109 109 109
109 109 109 110 110 110 110 110 110 110 110 110 110 109 109 110
110 110 111 111 110 110 110 109 109 110 110 110 110 110 110 110
110 110 110 110 110 110 110 110 110 110 110 110 109 109 109 109
109 109 109 109 110 110 109 109 111 111 111 111 111 5 5 5
111 111 111 111 110 110 110 110 110 111 111 111 109 109 110 110
110 110 110 110 110 110 110 110 110 110 110 110 110 110 110 110
110 110 110 110 110 110 110 110 110 110 110 110 110 111 111 111
110 110 109 109 109 110 110 110 110 110 110 110 109 109 111 111
111 110 110 111 111 111 111 111 111 111 5 5 5 111 111 111
111 110 110 110 110 110 109 109 109 109 109 109 109 109 110 110
110 110 110 110 110 110 110 109 109 109 110 110 111 111 110 110
110 109 109 110 110 110 110 110 110 110 110 110 110 110 110 110
110 110 110 110 110 110 109 109 109 109 109 109 109 109 110 110
109 109 109 111 111 111 111 5 5 5 111 111 111 111 111 110
110 110 110 111 111 111 109 109 110 110 110 110 110 110 110 110
110 110 110 110 110 110 110 110 110 110 110 110 110 110 110 110
110 110 110 110 110 110 110 110 110 110 110 110 110 110 110 110
110 110 110 110 110 110 110 110 110 110 110 110 110 110 110 110
110 109 109 109 109 109 109 109 110 110 111 111 111 111 111 111
111 111 5 5 111 111 111 111 111 110 110 110 110 109 109 109
109 109 109 109 109 110 110 110 110 110 110 110 110 110 110 110
109 109 109 109 109 109 109 109 110 110 110 110 110 110 110 110
110 110 110 110 110 110 110 110 110 110 110 110 110 109 109 109
109 109 110 110 109 109 110 110 110 111 111 111 111 111 5 5
111 111 111 111 111 110 110 110 110 109 109 109 109 109 109 109
109 110 110 110 110 110 110 110 110 110 110 110 110 110 110 110
110 110 110 110 110 110 110 110 110 110 110 110 110 110 110 110
110 110 110 110 110 110 110 110 110 109 109 109 109 109 109 109
110 110 111 111 111 111 111 111 111 111 5 5 111 111 111 111
111 110 110 110 110 109 109 109 109 109 109 109 109 110 110 110
110 110 110 110 110 110 110 110 109 109 109 109 109 109 109 109
110 110 110 110 110 110 110 110 110 110 110 110 110 110 110 110
110 110 110 110 110 109 109 109 109 109 110 110 109 109 110 110
110 111 111 111 111 111 5 5 111 111 111 111 111 110 110 110
110 109 109 109 109 109 109 109 109 110 110 110 110 110 110 110
110 110 110 110 110 110 110 110 110 110 110 110 110 110 110 110
110 110 110 110 110 110 110 110 110 110 110 110 110 110 110 110
110 110 110 110 110 110 110 110 110 110 110 110 110 110 110 110
110 110 110 109 109 109 109 110 110 110 110 110 111 111 5 5
5 111 111 5 5 111 111 111 111 111 110 110 110 110 110 110
110 110 110 110 110 110 110 110 110 110 110 110 110 110 110 110
110 110 110 110 110 110 110 110 110 110 110 110 110 110 110 110
110 110 110 110 110 110 110 110 110 110 110 110 110 110 110 110
110 110 109 109 109 110 110 111 111 111 111 111 111 111 5 5
111 111 111 111 111 110 110 110 110 110 110 110 109 109 109 109
109 109 109 109 109 110 110 110 110 110 110 110 110 110 110 110
110 110 110 110 110 110 110 110 110 110 110 110 110 110 110 110
110 110 110 110 110 110 110 110 110 109 109 109 109 110 110 110
110 110 111 111 5 5 5 111 111 5 5 111 111 111 111 111
110 110 110 110 110 110 110 110 110 110 110 110 110 110 110 110
110 110 110 110 110 110 110 110 110 110 110 110 110 110 110 110
110 110 110 110 110 110 110 110 110 110 110 110 110 110 110 110
110 110 110 110 110 110 110 110 109 109 109 110 110 111 111 111
111 111 111 111 5 5 111 111 111 111 111 110 110 110 110 110
110 110 109 109 109 109 109 109 109 109 109 110 110 110 110 110
110 110 110 110 110 110 110 110 110 110 110 110 110 110 110 110
110 110 109 109 110 110 110 110 110 110 110 110 110 110 110 110
110 110 110 110 110 110 110 110 110 110 110 110 110 110 110 110
110 110 110 110 110 110 110 110 110 109 109 110 110 110 111 111
111 111 5 5 5 5 5 111 111 111 111 111 110 110 110 110
110 110 110 110 110 110 110 110 110 110 110 110 110 110 110 110
109 109 109 110 110 110 110 110 110 110 110 110 110 110 110 110
110 110 110 110 110 110 110 110 110 110 110 110 110 110 110 110
110 110 110 110 110 109 109 109 110 110 111 111 111 111 111 5
5 111 111 111 111 110 110 110 109 109 110 110 109 109 109 110
110 111 111 110 110 110 109 109 110 110 110 110 110 110 110 110
110 110 110 110 110 110 110 110 110 110 110 110 110 110 110 110
110 110 110 110 110 110 110 110 110 110 110 110 110 109 109 110
110 110 111 111 111 111 5 5 5 5 5 111 111 111 111 110
110 110 110 110 110 110 110 110 110 110 110 110 110 110 110 110
110 110 110 110 109 109 109 110 110 110 110 110 110 110 110 110
110 110 110 110 110 110 110 110 110 110 110 110 110 110 110 110
110 110 110 110 110 110 110 110 110 109 109 109 110 110 111 111
111 111 5 5 5 111 111 111 111 110 110 110 109 109 110 110
109 109 109 110 110 111 111 110 110 110 109 109 110 110 110 110
110 110 110 110 110 110 110 110 110 110 110 110 110 110 110 110
111 111 110 110 109 109 110 110 110 110 110 110 110 110 110 110
110 110 110 110 110 110 110 110 110 110 110 110 110 110 110 110
110 110 110 110 110 110 110 110 109 109 109 109 109 110 110 111
111 111 5 5 5 5 5 5 111 111 111 111 111 110 110 110
110 110 110 110 110 110 110 110 110 110 110 110 110 110 110 109
109 110 110 110 109 109 110 110 110 110 110 110 110 110 110 110
110 110 110 110 110 110 110 110 110 110 110 110 110 110 110 110
110 110 110 110 110 110 110 110 109 109 109 111 111 111 111 5
5 111 111 111 111 111 109 109 110 110 110 111 111 110 110 111
111 111 111 111 110 110 109 109 110 110 110 110 110 110 110 110
110 110 110 110 110 110 110 110 110 110 110 110 110 110 110 110
110 110 110 110 110 110 110 110 110 110 109 109 109 109 109 110
110 111 111 111 5 5 5 5 5 5 111 111 111 111 111 110
110 110 110 110 110 110 110 110 110 110 110 110 110 110 110 110
110 109 109 110 110 110 109 109 110 110 110 110 110 110 110 110
110 110 110 110 110 110 110 110 110 110 110 110 110 110 110 110
110 110 110 110 110 110 110 110 110 110 109 109 109 111 111 111
111 5 5 111 111 111 111 111 109 109 110 110 111 111 111 110
110 111 111 111 111 111 110 110 109 109 110 110 110 110 110 110
110 110 110 110 110 110 110 110 110 110 110 110 110 110 110 110
110 110 110 110 109 109 110 110 110 110 110 110 110 110 110 110
110 110 110 110 110 110 110 110 110 110 110 110 110 110 110 110
110 110 110 110 110 110 110 110 109 109 109 109 110 110 110 111
111 111 111 5 5 5 5 5 5 5 111 111 111 111 110 110
110 110 110 110 110 110 110 110 110 110 110 110 110 110 109 109
110 110 110 111 111 110 110 110 110 110 110 110 110 110 110 110
110 110 110 110 110 110 110 110 110 110 110 110 110 110 110 110
110 110 110 110 110 110 110 110 110 110 110 111 111 111 111 5
5 5 111 111 111 111 110 110 109 109 109 110 110 111 111 110
110 110 110 110 109 109 110 110 110 110 110 110 110 110 110 110
110 110 110 110 110 110 110 110 110 110 110 110 110 110 110 110
110 110 110 110 110 110 110 110 109 109 109 109 110 110 111 111
111 111 111 5 5 5 5 5 5 5 111 111 111 111 110 110
110 110 110 110 110 110 110 110 110 110 110 110 110 110 109 109
110 110 111 111 110 110 110 110 110 110 110 110 110 110 110 110
110 110 110 110 110 110 110 110 110 110 110 110 110 110 110 110
110 110 110 110 110 110 110 110 110 110 110 111 111 111 111 5
5 111 111 111 111 111 110 110 109 109 110 110 110 111 111 110
110 110 110 109 109 109 110 110 110 110 110 110 110 110 110 110
110 110 110 110 110 110 110 110 110 110 110 110 110 110 110 110
110 110 109 109 109 109 110 110 110 110 110 110 110 110 110 110
110 110 110 110 110 110 110 110 110 110 110 110 110 110 110 110
110 110 110 110 110 110 110 110 110 110 110 110 110 110 109 109
110 110 110 111 111 111 111 5 5 5 5 111 111 111 111 111
110 110 110 110 111 111 109 109 109 110 110 110 110 110 110 109
109 109 111 111 110 110 109 109 110 110 110 110 110 110 110 110
110 110 110 110 110 110 110 110 110 110 110 110 110 110 110 110
110 110 110 109 109 111 111 110 110 110 110 110 111 111 111 111
5 5 111 111 111 111 111 110 110 110 110 109 109 110 110 110
109 109 109 109 110 110 110 110 110 110 110 110 110 110 110 110
110 110 110 110 110 110 110 110 110 110 110 110 110 110 110 110
110 110 110 110 110 110 110 110 110 110 110 110 109 109 110 110
111 111 111 111 111 5 5 5 5 111 111 111 111 111 110 110
110 110 111 111 109 109 109 110 110 110 110 110 110 109 109 111
111 111 110 110 109 109 110 110 110 110 110 110 110 110 110 110
110 110 110 110 110 110 110 110 110 110 110 110 110 110 110 110
110 109 109 111 111 110 110 110 110 110 111 111 111 111 5 5
111 111 111 111 111 110 110 110 110 109 109 110 110 109 109 109
109 109 110 110 110 110 110 110 110 110 110 110 110 110 110 110
110 110 110 110 110 110 110 110 110 110 110 110 110 110 110 110
110 110 110 110 110 110 110 110 110 110 110 110 110 110 110 110
110 110 110 110 110 110 109 109 110 110 110 110 110 110 110 110
110 110 110 110 110 109 109 110 110 110 110 110 110 110 110 110
110 110 109 109 110 110 111 111 111 111 111 5 5 111 111 111
111 110 110 110 110 110 109 109 109 109 109 109 110 110 109 109
109 109 109 110 110 109 109 110 110 110 110 110 110 110 110 110
110 110 110 110 110 110 110 110 110 110 110 110 110 110 110 110
110 109 109 109 109 109 109 109 110 110 110 110 111 111 111 111
111 5 5 111 111 111 111 110 110 110 110 110 110 110 110 110
110 110 110 110 110 110 110 110 110 110 110 110 110 110 110 110
110 109 109 110 110 110 110 110 110 110 110 110 110 110 110 110
110 109 109 110 110 110 110 110 110 110 110 110 110 110 109 109
110 110 111 111 111 111 5 5 5 111 111 111 111 110 110 110
110 109 109 109 109 109 109 109 110 110 109 109 109 109 110 110
110 109 109 110 110 110 110 110 110 110 110 110 110 110 110 110
110 110 110 110 110 110 110 110 110 110 110 110 110 109 109 109
109 109 109 109 110 110 110 110 111 111 111 111 5 5 111 111
111 111 111 110 110 110 110 110 110 110 110 110 110 110 110 110
110 110 110 110 110 110 110 110 110 110 110 110 110 109 109 110
110 110 110 110 110 110 110 110 110 110 110 110 109 109 109 110
110 110 111 111 109 109 110 110 110 110 110 110 110 110 110 110
110 110 110 110 110 109 109 109 110 110 110 110 110 110 110 110
110 110 110 110 110 109 109 110 110 109 109 110 110 110 110 109
109 111 111 111 110 110 110 110 111 111 111 111 5 5 111 111
111 111 111 110 110 110 110 110 110 109 109 109 109 110 110 110
110 110 110 110 111 111 110 110 109 109 110 110 110 110 110 110
110 110 110 110 110 110 110 110 110 110 110 110 110 110 110 110
110 110 109 109 109 109 110 110 110 110 110 110 110 111 111 111
111 5 5 111 111 111 111 111 110 110 110 110 111 111 109 109
110 110 110 110 110 110 110 110 110 110 110 110 110 110 110 109
109 110 110 110 110 110 110 110 110 110 110 110 110 110 109 109
110 110 110 109 109 110 110 110 110 109 109 111 111 110 110 110
110 110 111 111 111 111 5 5 111 111 111 111 110 110 110 110
110 110 110 109 109 109 109 110 110 110 110 110 110 110 111 111
110 110 109 109 110 110 110 110 110 110 110 110 110 110 110 110
110 110 110 110 110 110 110 110 110 110 110 110 109 109 109 109
110 110 110 110 110 110 111 111 111 111 111 5 5 111 111 111
111 110 110 110 110 111 111 111 109 109 110 110 110 110 110 110
110 110 110 110 110 110 110 110 110 109 109 110 110 110 110 110
110 110 110 110 110 110 110 110 109 109 110 110 109 109 110 110
110 110 110 110 110 109 109 109 109 109 109 110 110 110 110 109
109 110 110 110 110 110 110 110 110 110 111 111 110 110 110 110
110 110 110 110 109 109 109 109 109 111 111 110 110 110 110 109
109 109 109 109 109 109 109 110 110 110 111 111 111 111 5 5
111 111 111 111 110 110 110 110 110 110 110 110 110 110 110 110
110 111 111 111 111 110 110 109 109 110 110 110 110 110 110 110
110 110 110 110 110 110 110 110 110 110 110 110 109 109 109 110
110 110 110 110 110 110 110 110 110 110 110 110 110 111 111 111
111 111 5 5 111 111 111 111 110 110 110 110 109 109 109 109
109 109 109 110 110 110 110 109 109 110 110 110 110 110 110 110
110 111 111 111 110 110 110 110 110 110 110 110 109 109 109 109
111 111 110 110 110 110 110 109 109 109 109 109 109 109 109 110
110 111 111 111 111 5 5 5 111 111 111 111 110 110 110 110
110 110 110 110 110 110 110 110 110 111 111 111 111 110 110 109
109 110 110 110 110 110 110 110 110 110 110 110 110 110 110 110
110 110 110 110 109 109 110 110 110 110 110 110 110 110 110 110
110 110 110 110 110 111 111 111 111 5 5 111 111 111 111 111
110 110 110 110 109 109 109 109 109 109 110 110 110 110 109 109
109 110 110 110 110 110 110 110 110 111 111 110 110 110 110 110
110 110 110 110 109 109 109 109 111 111 110 110 110 110 109 109
111 111 111 110 110 110 110 110 110 109 109 109 109 110 110 110
110 110 110 110 110 110 110 110 110 110 109 109 110 110 109 109
110 110 110 110 109 109 110 110 110 110 110 110 109 109 109 110
110 109 109 109 109 109 109 110 110 110 110 111 111 5 5 5
5 111 111 111 111 110 110 110 110 110 110 110 110 110 110 110
109 109 111 111 111 111 110 110 109 109 110 110 110 110 110 110
110 110 110 110 110 110 110 110 110 110 110 109 109 110 110 109
109 110 110 110 110 110 110 110 110 110 110 110 110 110 111 111
111 111 5 5 111 111 111 111 110 110 110 110 110 110 109 109
109 109 109 110 110 110 110 110 110 110 110 110 110 110 110 109
109 110 110 109 109 110 110 110 110 110 109 109 110 110 110 110
110 110 109 109 110 110 109 109 109 109 109 109 110 110 110 110
110 111 111 5 5 5 5 111 111 111 111 110 110 110 110 110
110 110 110 110 110 109 109 111 111 111 111 111 110 110 109 109
110 110 110 110 110 110 110 110 110 110 110 110 110 110 110 110
109 109 109 110 110 109 109 110 110 110 110 110 110 110 110 110
110 110 110 111 111 111 111 5 5 5 111 111 111 111 110 110
110 110 110 110 109 109 109 109 110 110 110 110 110 110 110 110
110 110 110 110 110 109 109 110 110 109 109 110 110 110 110 109
109 110 110 110 110 110 110 109 109 110 110 110 109 109 109 109
5 111 111 111 111 110 110 110 110 110 110 110 110 110 110 110
110 110 110 110 109 109 109 109 110 110 109 109 110 110 110 110
110 110 110 110 109 109 110 110 111 111 111 111 110 110 109 109
110 110 110 110 110 110 110 110 110 110 110 110 110 111 111 5
5 5 5 111 111 111 111 110 110 110 110 111 111 109 109 110
110 110 110 109 109 109 109 110 110 110 110 110 110 110 110 109
109 109 111 111 110 110 110 110 109 109 110 110 111 111 110 110
109 109 110 110 110 110 109 109 111 111 110 110 110 110 111 111
111 111 5 5 111 111 111 111 111 110 110 110 110 110 110 110
110 110 110 110 110 110 110 109 109 109 109 110 110 109 109 110
110 110 110 110 110 110 110 109 109 110 110 111 111 111 111 111
110 110 109 109 110 110 110 110 110 110 110 110 110 110 110 110
111 111 5 5 5 5 111 111 111 111 110 110 110 110 111 111
109 109 110 110 110 110 110 109 109 109 109 110 110 110 110 110
110 110 110 109 109 111 111 110 110 110 110 109 109 110 110 111
111 110 110 109 109 110 110 110 110 109 109 111 111 111 110 110
110 110 111 111 111 111 5 5 111 111 111 111 110 110 110 110
110 110 110 110 110 110 110 110 110 110 109 109 109 109 110 110
109 109 110 110 110 110 110 110 110 110 110 109 109 110 110 111
111 111 111 110 110 109 109 110 110 110 110 110 110 110 110 110
111 111 5 5 111 111 111 111 110 110 110 110 110 110 110 110
110 110 110 110 110 110 109 109 110 110 111 111 110 110 109 109
110 110 109 109 109 109 109 109 109 109 110 110 111 111 110 110
109 109 110 110 110 110 110 110 110 110 110 110 110 110 111 111
5 5 5 5 111 111 111 111 111 111 110 110 109 109 109 109
109 109 110 110 110 110 109 109 109 109 110 110 110 110 110 109
109 109 109 109 109 109 109 110 110 110 110 109 109 110 110 111
111 110 110 109 109 109 109 109 109 109 109 110 110 110 110 111
111 111 111 5 5 111 111 111 111 110 110 110 110 110 110 110
110 110 110 110 110 110 110 109 109 110 110 111 111 110 110 109
109 110 110 109 109 109 109 109 109 109 109 110 110 111 111 110
110 109 109 110 110 110 110 110 110 110 110 110 110 110 110 111
111 5 5 5 5 5 111 111 111 111 111 111 110 110 109 109
109 109 109 109 110 110 110 110 109 109 109 109 110 110 110 110
109 109 109 109 109 109 109 109 110 110 110 110 109 109 110 110
111 111 110 110 109 109 109 109 109 109 109 109 110 110 110 110
111 111 111 111 5 5 111 111 111 111 110 110 110 110 110 110
110 110 110 110 110 110 110 110 109 109 110 110 111 111 110 110
109 109 110 110 109 109 109 109 109 109 109 109 109 110 110 111
111 110 110 109 109 110 110 110 110 110 110 110 110 110 110 110
5 5 5 5 5 5 5 5 5 5 111 111 111 111 111 111
111 111 111 111 111 111 111 111 111 111 110 110 111 111 5 5
111 111 110 110 110 110 111 111 110 110 110 110 110 110 111 111
110 110 111 111 111 111 111 111 111 111 111 111 111 111 111 111
5 5 5 5 5 5 5 5 5 5 111 111 111 111 111 111
110 110 110 110 111 111 110 110 111 111 111 111 110 110 111 111
111 111 110 110 110 110 111 111 111 111 111 111 110 110 111 111
5 5 111 110 110 110 110 110 110 111 111 111 111 111 111 5
5 5 5 5 5 5 5 5 5 111 111 111 111 111 111 111
111 111 111 111 111 111 111 111 111 110 110 111 111 5 5 111
111 110 110 110 110 111 111 110 110 110 110 110 110 111 111 110
110 111 111 111 111 111 111 111 111 111 111 111 111 111 111 5
5 5 5 5 5 5 5 5 5 111 111 111 111 111 111 110
110 110 110 111 111 110 110 111 111 111 111 110 110 111 111 111
111 110 110 110 110 111 111 111 111 111 111 110 110 111 111 5
5 111 111 110 110 110 110 110 110 111 111 111 111 111 111 5
5 5 5 5 5 5 5 5 5 111 111 111 111 111 111 111
111 111 111 111 111 111 111 111 111 110 110 111 111 5 111 111
110 110 110 110 111 111 110 110 110 110 110 110 111 111 110 110
111 111 111 111 111 111 111 111 111 111 111 111 111 111 5 5
111 5 5 5 5 5 5 5 5 5 5 5 5 111 111 111
111 111 111 111 111 111 111 111 111 111 111 111 111 111 110 110
111 111 110 110 111 111 5 5 5 5 111 111 110 110 111 111
110 110 111 111 111 111 111 111 111 111 111 111 111 111 111 111
111 5 5 5 5 5 5 5 5 5 5 5 5 111 111 111
111 111 111 111 111 111 111 111 111 5 5 5 5 111 111 110
110 111 111 111 111 111 111 111 111 111 111 110 110 5 5 5
5 5 5 5 111 111 110 110 111 111 111 111 111 111 5 5
5 5 5 5 5 5 5 5 5 5 111 111 111 111 111 111
111 111 111 111 111 111 111 111 111 111 111 111 110 111 111 110
110 111 111 5 5 5 5 111 111 110 110 111 111 110 110 111
111 111 111 111 111 111 111 111 111 111 111 111 111 111 111 5
5 5 5 5 5 5 5 5 5 5 5 111 111 111 111 111
111 111 111 111 111 111 5 5 5 5 111 111 110 110 111 111
111 111 111 111 111 111 111 111 110 110 5 5 5 5 5 5
5 5 111 111 110 110 111 111 111 111 111 5 5 5 5 5
5 5 5 5 5 5 5 111 111 111 111 111 111 111 111 111
111 111 111 111 111 111 111 111 111 110 110 111 111 110 110 111
111 5 5 5 5 111 111 110 111 111 110 110 111 111 111 111
111 111 111 111 111 111 111 111 111 111 111 111 5 5 5 5
5 5 5 5 5 5 5 5 5 5 5 5 5 5 5 111
111 111 111 110 110 109 109 110 110 111 111 111 111 111 111 111
111 111 111 111 111 111 110 110 110 110 111 111 110 110 111 111
111 111 111 111 110 110 111 111 111 110 110 109 109 110 110 111
111 111 111 5 5 5 5 5 5 5 5 5 5 5 5 5
5 5 5 5 5 5 5 5 5 5 5 5 5 5 5 5
5 5 5 5 5 5 5 5 5 5 5 5 5 5 5 5
5 5 5 5 5 5 5 5 5 5 5 5 5 5 5 5
5 5 5 5 5 5 5 5 5 5 111 111 111 111 110 110
109 109 110 110 111 111 111 111 111 111 111 111 111 111 111 111
111 110 110 110 110 111 111 110 110 111 111 111 111 111 111 110
110 111 111 111 111 110 109 109 110 110 111 111 111 111 5 5
5 5 5 5 5 5 5 5 5 5 5 5 5 5 5 5
5 5 5 5 5 5 5 5 5 5 5 5 5 5 5 5
5 5 5 5 5 5 5 5 5 5 5 5 5 5 5 5
5 5 5 5 5 5 5 5 5 5 5 5 5 5 5 5
5 5 5 5 5 111 111 111 111 110 110 109 109 110 110 111
111 111 111 111 111 111 111 111 111 111 111 111 111 110 110 110
111 111 110 110 111 111 111 111 111 111 110 110 111 111 111 111
110 110 109 109 110 110 111 111 111 5 5 5 5 5 5 5
5 5 5 5 5 5 5 5 5 5 5 5 5 5 5 5
5 110 110 110 110 111 111 110 110 110 110 111 111 111 111 111
111 111 111 111 111 111 111 111 111 111 111 111 110 110 111 111
111 111 111 111 110 110 110 111 111 111 111 110 110 110 110 111
111 111 111 111 111 5 5 5 5 5 5 5 5 5 5 5
5 5 5 5 5 5 5 5 5 5 5 5 5 5 5 5
5 5 5 5 5 5 5 5 5 5 5 5 5 5 5 5
5 5 5 5 5 5 5 5 5 5 5 5 5 5 5 5
5 5 5 5 5 5 5 5 5 5 5 110 110 110 111 111
110 110 110 110 111 111 111 111 111 111 111 111 111 111 111 111
111 111 111 111 111 110 110 111 111 111 111 111 111 110 110 110
111 111 111 111 110 110 110 110 111 111 111 111 111 111 5 5
5 5 5 5 5 5 5 5 5 5 5 5 5 5 5 5
5 5 5 5 5 5 5 5 5 5 5 5 5 5 5 5
5 5 5 5 5 5 5 5 5 5 5 5 5 5 5 5
5 5 5 5 5 5 5 5 5 5 5 5 5 5 5 5
5 5 5 5 110 110 110 110 111 110 110 110 110 111 111 111
111 111 111 111 111 111 111 111 111 111 111 111 111 111 110 110
111 111 111 111 111 111 110 110 110 110 111 111 111 110 110 110
110 111 111 111 111 111 111 5 5 5 5 5 5 5 5 5
5 5 5 5 5 5 5 5 5 5 5 5 5 5 5 5
5 5 5 5 5 5 111 111 110 110 111 111 111 111 111 111
111 111 111 111 111 111 111 111 111 111 111 111 111 111 111 111
111 111 111 111 110 111 111 111 111 111 111 111 111 111 111 111
111 111 110 110 111 111 5 5 5 5 5 5 5 5 5 5
5 5 5 5 5 5 5 5 5 5 5 5 5 5 5 5
5 5 5 5 5 5 5 5 5 5 5 5 5 5 5 5
5 5 5 5 5 5 5 5 5 5 5 5 5 5 5 5
5 5 5 5 5 5 5 5 5 5 5 5 5 111 111 110
111 111 111 111 111 111 111 111 111 111 111 111 111 111 111 111
111 111 111 111 111 111 111 111 111 111 110 110 111 111 111 111
111 111 111 111 111 111 111 111 111 110 110 111 111 5 5 5
5 5 5 5 5 5 5 5 5 5 5 5 5 5 5 5
5 5 5 5 5 5 5 5 5 5 5 5 5 5 5 5
5 5 5 5 5 5 5 5 5 5 5 5 5 5 5 5
5 5 5 5 5 5 5 5 5 5 5 5 5 5 5 5
5 5 5 5 111 111 110 111 111 111 111 111 111 111 111 111
111 111 111 111 111 111 111 111 111 111 111 111 111 111 111 111
111 110 110 111 111 111 111 111 111 111 111 111 111 111 111 111
110 110 111 111 5 5 5 5 5 5 5 5 5 5 5 5
111 111 111 111 111 111 111 111 111 111 111 5 5 5 5 5
5 5 5 5 5 5 5 5 111 111 110 110 111 111 111 111
111 111 111 111 111 111 111 111 111 111 111 111 111 111 111 111
111 111 110 110 111 111 111 111 111 111 111 111 111 111 111 111
111 111 111 111 111 111 111 111 5 5 5 5 5 5 5 5
5 5 5 111 111 111 111 111 110 110 111 111 5 5 5 111
111 110 110 111 111 111 111 111 111 111 111 111 111 111 5 5
111 111 5 111 111 111 111 111 111 111 111 111 111 111 111 111
5 5 5 5 5 5 5 5 5 5 5 5 5 111 111 110
110 111 111 111 111 111 111 111 111 111 111 111 111 111 111 111
111 111 111 111 111 111 111 110 111 111 111 111 111 111 111 111
111 111 111 111 111 111 111 111 111 111 111 111 5 5 5 5
5 5 5 5 5 5 5 111 111 111 111 111 111 110 110 111
111 5 5 5 111 111 110 110 111 111 111 111 111 111 111 111
111 111 111 5 5 111 5 5 111 111 111 111 111 111 111 111
111 111 111 111 111 5 5 5 5 5 5 5 5 5 5 5
5 5 111 111 110 110 111 111 111 111 111 111 111 111 111 111
111 111 111 111 111 111 111 111 111 111 111 110 110 111 111 111
111 111 111 111 111 111 111 111 111 111 111 111 111 111 111 111
111 5 5 5 5 5 5 5 5 5 5 5 111 111 111 111
110 110 111 111 111 111 111 111 111 110 5 5 111 111 111 111
5 5 5 5 5 5 5 5 5 5 5 5 5 5 110 110
111 111 111 111 111 111 111 111 111 111 111 111 111 111 111 111
111 111 111 111 111 111 111 110 110 111 111 110 110 111 111 111
111 111 110 110 5 5 111 111 111 5 5 5 5 5 5 5
5 5 111 111 111 111 5 5 110 111 111 111 111 110 110 110
110 111 110 110 111 111 111 111 110 110 5 111 111 111 111 110
110 111 111 110 111 111 111 111 111 111 111 110 110 5 5 111
111 111 111 5 5 5 5 5 5 5 5 5 5 5 5 5
5 110 110 111 111 111 111 111 111 111 111 111 111 111 111 111
111 111 111 111 111 111 111 111 111 111 110 110 111 111 110 111
111 111 111 111 111 110 110 5 111 111 111 111 5 5 5 5
5 5 5 5 5 111 111 111 111 5 110 110 111 111 111 111
110 110 110 111 111 110 110 111 111 111 111 110 5 5 111 111
111 111 110 111 111 110 110 111 111 111 111 111 111 111 110 110
5 5 111 111 111 5 5 5 5 5 5 5 5 5 5 5
5 5 5 5 110 110 111 111 111 111 111 111 111 111 111 111
111 111 111 111 111 111 111 111 111 111 111 111 111 110 110 111
110 110 111 111 111 111 111 111 110 5 5 111 111 111 111 5
5 5 5 5 5 5 5 5 111 111 111 5 5 110 110 111
110 111 111 110 111 111 111 111 111 111 110 110 110 111 111 111
111 111 111 5 5 5 5 5 5 5 5 5 5 111 111 110
110 110 110 110 111 111 111 111 111 111 111 111 111 111 111 111
111 111 111 111 111 111 111 111 111 111 111 111 111 5 5 110
111 111 110 110 110 110 111 110 110 111 111 5 5 5 5 5
5 5 5 5 111 110 110 111 111 110 110 110 110 111 111 111
111 111 111 111 111 111 111 111 111 110 110 110 111 111 111 111
110 110 111 110 110 111 111 111 111 111 110 110 110 110 111 111
111 111 111 5 5 5 5 5 5 5 5 5 5 5 111 111
110 110 110 110 110 111 111 111 111 111 111 111 111 111 111 111
111 111 111 111 111 111 111 111 111 111 111 111 111 111 5 110
110 111 111 110 110 110 111 111 110 110 111 111 5 5 5 5
5 5 5 5 5 111 110 110 111 111 110 110 110 111 111 111
111 111 111 111 111 111 111 111 111 111 110 110 110 111 111 111
111 110 111 111 110 110 111 111 111 111 111 110 110 110 110 111
111 111 111 111 5 5 5 5 5 5 5 5 5 5 5 111
110 110 110 110 110 110 111 111 111 111 111 111 111 111 111 111
111 111 111 111 111 111 111 111 111 111 111 111 111 111 5 5
110 110 111 111 110 110 110 111 111 110 110 111 111 5 5 5
5 5 5 5 5 111 111 110 110 111 111 110 110 110 111 111
110 110 110 110 5 5 111 110 110 111 111 111 111 111 111 111
111 111 111 111 111 5 5 5 5 5 5 5 5 5 111 111
110 111 111 111 111 111 111 111 110 110 111 111 110 111 111 111
111 111 111 111 111 111 111 111 111 111 111 110 110 111 111 110
111 111 111 111 111 111 111 111 111 111 111 5 5 5 5 5
5 5 5 5 5 5 5 111 111 110 111 111 111 111 110 110
110 110 110 111 111 111 111 111 111 111 111 111 111 111 111 110
110 110 110 5 111 111 110 110 111 111 111 111 111 111 111 111
111 111 111 111 5 5 5 5 5 5 5 5 111 111 110 110
111 111 111 111 111 111 111 110 110 111 110 110 111 111 111 111
111 111 111 111 111 111 111 111 111 111 110 110 111 110 110 111
111 111 111 111 111 111 111 111 111 5 5 5 5 5 5 5
5 5 5 5 5 5 111 110 110 111 111 111 110 110 110 110
110 110 111 111 111 111 111 111 111 111 111 111 111 111 110 110
110 5 5 111 111 110 111 111 111 111 111 111 111 111 111 111
111 111 111 5 5 5 5 5 5 5 5 111 111 110 110 111
111 111 111 111 111 111 110 111 111 110 110 111 111 111 111 111
111 111 111 111 111 111 111 111 111 110 111 111 110 110 111 111
111 111 111 111 111 111 111 111 5 5 5 5 5 5 5 5
5 5 5 5 111 111 110 110 111 111 111 110 110 110 110 110
110 110 111 5 5 5 5 111 110 110 111 111 111 111 111 111
111 111 111 111 111 111 111 111 5 5 5 5 5 5 5 5
111 111 111 111 111 111 111 111 111 111 110 110 111 111 110 110
111 111 111 111 111 111 111 111 111 111 111 111 111 110 110 111
111 5 111 111 111 111 111 111 111 111 111 5 5 5 5 5
5 5 5 5 5 5 5 111 110 110 111 111 111 111 111 5
5 111 110 110 111 111 111 111 111 111 111 111 111 110 111 111
5 5 5 111 111 110 110 111 111 111 111 111 111 111 111 111
111 111 111 111 5 5 5 5 5 5 5 5 5 111 111 111
111 111 111 111 111 111 111 110 110 111 111 110 111 111 111 111
111 111 111 111 111 111 111 111 111 111 110 111 111 5 5 111
111 111 111 111 111 111 111 5 5 5 5 5 5 5 5 5
5 5 5 111 111 110 110 111 111 111 111 111 5 111 111 110
110 111 111 111 111 111 111 111 111 110 110 111 111 5 5 5
111 111 110 110 111 111 111 111 111 111 111 111 111 111 111 111
111 5 5 5 5 5 5 5 5 5 111 111 111 111 111 111
111 111 111 111 110 111 111 110 110 111 111 111 111 111 111 111
111 111 111 111 111 111 110 110 111 111 5 5 111 111 111 111
111 111 111 111 5 5 5 5 5 5 5 5 5 5 5 5
111 111 110 111 111 111 111 111 5 5 111 111 110 110 111 111
111 111 111 111 111 111 111 111 111 111 111 111 111 111 111 111
111 111 111 111 111 111 111 111 111 111 5 5 5 5 5 5
5 5 5 111 111 111 111 111 110 111 111 111 111 111 5 5
111 111 111 111 111 111 111 110 111 111 111 111 111 111 111 111
111 111 111 111 111 111 111 111 111 110 110 111 111 111 111 111
5 5 5 5 5 5 5 5 111 111 111 111 111 111 111 111
111 111 111 111 5 111 111 111 111 111 111 111 111 111 111 111
111 111 111 111 111 111 111 111 111 111 111 111 111 111 111 111
111 111 111 111 111 5 5 5 5 5 5 5 5 111 111 111
111 111 110 110 111 111 111 111 111 5 5 111 111 111 111 111
111 110 110 111 111 111 111 111 111 111 111 111 111 111 111 111
111 111 111 111 110 111 111 111 111 111 5 5 5 5 5 5
5 5 5 111 111 111 111 111 111 111 111 111 111 111 5 5
111 111 111 111 111 111 111 111 111 111 111 111 111 111 111 111
111 111 111 111 111 111 111 111 111 111 111 111 111 111 111 5
5 5 5 5 5 5 5 5 111 111 111 111 111 110 111 111
111 111 111 5 5 111 111 111 111 111 111 111 110 111 111 111
111 111 111 111 111 111 111 111 111 111 111 111 111 111 110 110
111 111 111 111 111 5 5 5 5 5 5 5 5 111 111 111
111 111 111 111 111 111 111 111 111 5 111 111 111 111 111 111
111 111 111 111 111 111 111 111 111 111 111 111 111 111 111 111
111 111 111 111 111 111 110 110 111 111 111 111 111 5 5 5
5 5 5 5 5 5 5 111 111 111 111 111 111 5 5 5
5 5 5 5 111 111 111 111 111 111 111 111 111 111 111 111
111 111 111 111 111 111 111 111 111 111 111 111 111 111 111 111
5 5 5 5 5 5 5 5 5 111 111 111 111 111 110 110
111 111 111 111 111 111 111 111 111 111 111 111 111 111 111 111
111 111 111 111 111 111 111 111 111 111 111 111 111 111 111 110
110 111 111 111 111 111 5 5 5 5 5 5 5 5 5 111
111 111 111 111 111 111 5 5 5 5 5 5 111 111 111 111
111 111 111 111 111 111 111 111 111 111 111 111 111 111 111 111
111 111 111 111 111 111 111 111 5 5 5 5 5 5 5 5
5 5 111 111 111 111 111 110 111 111 111 111 111 111 111 111
111 111 111 111 111 111 111 111 111 111 111 111 111 111 111 111
111 111 111 111 111 111 111 111 110 111 111 111 111 111 5 5
5 5 5 5 5 5 5 5 111 111 111 111 111 111 5 5
5 5 5 5 5 111 111 111 111 111 111 111 111 111 111 111
111 111 111 111 111 111 111 111 111 111 111 111 111 111 111 111
111 5 5 5 5 5 5 5 5 5 111 111 111 111 111 110
110 111 111 111 111 111 111 111 111 111 111 111 111 111 111 111
111 111 111 111 111 111 111 111 111 111 111 111 111 111 111 111
111 111 111 111 111 111 111 111 111 111 111 111 111 111 111 111
5 5 5 5 5 5 5 5 5 5 5 5 5 5 5 5
5 5 5 5 5 5 5 5 5 5 5 5 5 5 5 5
5 5 5 5 5 5 5 5 5 5 5 5 5 5 5 5
5 5 5 5 5 5 5 5 5 5 5 111 111 111 111 111
111 111 111 111 111 111 111 111 111 111 111 111 111 111 111 111
111 111 111 111 111 111 111 111 111 111 111 111 111 111 111 111
111 111 111 111 111 111 5 5 5 5 5 5 5 5 5 5
5 5 5 5 5 5 5 5 5 5 5 5 5 5 5 5
5 5 5 5 5 5 5 5 5 5 5 5 5 5 5 5
5 5 5 5 5 5 5 5 5 5 5 5 5 5 5 5
5 111 111 111 111 111 111 111 111 111 111 111 111 111 111 111
111 111 111 111 111 111 111 111 111 111 111 111 111 111 111 111
111 111 111 111 111 111 111 111 111 111 111 111 5 5 5 5
5 5 5 5 5 5 5 5 5 5 5 5 5 5 5 5
5 5 5 5 5 5 5 5 5 5 5 5 5 5 5 5
5 5 5 5 5 5 5 5 5 5 5 5 5 5 5 5
5 5 5 5 5 5 5 5 111 111 111 111 111 111 111 111
111 111 111 111 111 111 111 111 111 111 111 111 111 111 111 111
111 111 111 111 111 111 5 5 111 111 111 111 111 111 111 111
111 111 111 111 5 5 5 111 111 111 111 111 111 111 111 111
111 5 5 5 5 5 5 5 5 5 5 5 5 5 5 5
5 5 5 5 5 5 5 5 5 5 5 5 5 5 5 5
5 5 5 5 5 5 5 5 5 5 5 5 5 5 5 5
5 5 5 5 5 5 5 5 5 5 5 5 111 111 111 111
111 111 111 111 111 111 111 111 111 111 5 5 111 111 111 111
111 111 111 111 111 111 111 111 5 5 5 5 111 111 111 111
111 111 111 111 111 5 5 5 5 5 5 5 5 5 5 5
5 5 5 5 5 5 5 5 5 5 5 5 5 5 5 5
5 5 5 5 5 5 5 5 5 5 5 5 5 5 5 5
5 5 5 5 5 5 5 5 5 5 5 5 5 5 5 5
5 111 111 111 111 111 111 111 111 111 111 111 111 111 111 5
111 111 111 111 111 111 111 111 111 111 111 111 111 5 5 5
111 111 111 111 111 111 111 111 111 5 5 5 5 5 5 5
5 5 5 5 5 5 5 5 5 5 5 5 5 5 5 5
5 5 5 5 5 5 5 5 5 5 5 5 5 5 5 5
5 5 5 5 5 5 5 5 5 5 5 5 5 5 5 5
5 5 5 5 5 111 111 111 111 111 111 111 111 111 111 111
111 111 111 5 5 111 111 111 111 111 111 111 111 111 111 111
111 111 111 111 111 111 111 111 5 111 111 111 111 111 111 111
111 111 111 111 111 5 5 5 5 5 111 111 111 111 111 111
111 111 111 111 111 5 5 5 5 5 5 5 5 5 111 111
111 111 111 111 5 5 5 5 5 5 5 5 5 5 5 111
111 111 111 111 5 5 5 5 5 5 5 111 111 111 111 111
111 111 111 111 5 5 5 5 5 5 5 5 5 5 111 111
111 111 111 111 111 111 111 111 111 111 5 111 111 111 111 111
111 111 111 111 111 111 111 111 5 5 5 5 111 111 111 111
111 111 111 111 111 111 111 5 5 5 5 5 5 5 5 5
111 111 111 111 111 111 5 5 5 5 5 5 5 5 5 5
5 111 111 111 111 111 5 5 5 5 5 5 5 111 111 111
111 111 111 111 111 111 111 5 5 5 5 5 5 5 5 5
111 111 111 111 111 111 111 111 111 111 111 111 5 5 111 111
111 111 111 111 111 111 111 111 111 111 5 5 5 5 5 111
111 111 111 111 111 111 111 111 111 5 5 5 5 5 5 5
5 5 5 111 111 111 111 111 111 5 5 5 5 5 5 5
5 5 5 111 111 111 111 111 5 5 5 5 5 5 5 5
111 111 111 111 111 111 111 111 111 5 5 5 5 5 5 5
5 5 111 111 111 111 111 111 111 111 111 111 111 111 5 5
111 111 111 111 111 111 111 111 111 111 111 111 5 5 5 5
111 111 111 110 110 111 111 111 111 111 111 111 111 111 111 111
111 111 111 111 111 5 5 111 111 111 111 111 111 111 111 111
111 110 110 111 111 111 111 5 5 5 5 5 5 5 5 111
111 111 5 111 111 111 111 111 111 111 111 111 111 111 111 111
111 111 111 5 111 111 111 111 111 111 111 111 111 111 111 111
111 111 111 5 5 111 111 111 5 5 5 5 5 5 5 111
111 111 111 111 110 111 111 111 111 111 111 111 111 111 111 111
111 111 111 111 111 111 5 111 111 111 111 111 111 111 111 111
111 111 110 111 111 111 111 111 5 5 5 5 5 5 5 111
111 111 5 5 111 111 111 111 111 111 111 111 111 111 111 111
111 111 111 5 111 111 111 111 111 111 111 111 111 111 111 111
111 111 111 5 5 111 111 111 5 5 5 5 5 5 5 111
111 111 111 111 110 111 111 111 111 111 111 111 111 111 111 111
111 111 111 111 111 111 5 111 111 111 111 111 111 111 111 111
111 111 110 111 111 111 111 111 5 5 5 5 5 5 5 111
111 111 5 5 111 111 111 111 111 111 111 111 111 111 111 111
111 111 111 5 5 111 111 111 111 111 111 111 111 111 111 111
111 111 111 111 5 111 111 111 5 5 5 5 5 5 5 5
111 111 111 111 110 110 111 111 111 111 111 111 111 111 111 111
111 111 111 111 111 111 5 5 111 111 111 111 111 111 111 111
5 5 111 111 111 111 111 111 111 111 111 111 111 111 111 111
111 111 111 111 111 111 111 111 111 111 111 111 111 111 111 111
111 111 111 111 111 111 5 111 111 5 5 5 5 5 5 5
5 111 111 111 111 111 111 111 111 111 111 111 111 111 111 111
111 111 111 111 111 111 111 111 111 111 111 111 111 111 111 111
111 111 111 111 111 111 111 111 111 5 5 5 5 5 5 5
5 111 111 111 111 111 111 111 111 111 111 111 111 111 111 111
111 111 111 111 111 111 111 111 111 111 111 111 111 111 111 111
111 111 111 111 5 111 111 5 5 5 5 5 5 5 5 5
111 111 111 111 111 111 111 111 111 111 111 111 111 111 111 111
111 111 111 111 111 111 111 111 111 111 111 111 111 111 111 111
111 111 111 111 111 111 111 5 5 5 5 5 5 5 5 111
111 111 111 111 111 111 111 111 111 111 111 111 111 111 111 111
111 111 111 111 111 111 111 111 111 111 111 111 111 111 111 111
111 111 5 111 111 5 5 5 5 5 5 5 5 5 111 111
111 111 111 111 111 111 111 111 111 111 111 111 111 111 111 111
111 111 111 111 111 111 111 111 111 111 111 111 111 111 111 111
111 111 111 111 111 5 5 5 5 5 5 5 5 111 111 111
111 111 111 111 111 111 111 111 111 111 111 111 111 111 111 111
111 111 111 111 111 111 111 111 111 111 111 111 111 111 111 111
5 5 5 5 5 5 111 111 111 111 111 111 111 111 111 111
111 111 111 5 111 111 111 111 111 111 111 111 111 111 111 111
111 111 111 111 111 111 111 111 111 111 111 111 111 5 5 5
5 5 5 5 111 111 111 111 111 111 111 111 111 111 111 111
111 111 111 111 111 111 111 111 111 111 111 111 111 111 111 111
111 111 111 111 111 111 111 111 111 111 111 5 5 5 5 5
5 5 111 111 111 111 111 111 111 111 111 111 111 111 111 5
111 111 111 111 111 111 111 111 111 111 111 111 111 111 111 111
111 111 111 111 111 111 111 111 111 5 5 5 5 5 5 5
111 111 111 111 111 111 111 111 111 111 111 111 111 111 111 111
111 111 111 111 111 111 111 111 111 111 111 111 111 111 111 111
111 111 111 111 111 111 111 5 5 5 5 5 5 5 111 111
111 111 111 111 111 111 111 111 111 111 111 5 111 111 111 111
111 111 111 111 111 111 111 111 111 111 111 111 111 111 111 111
111 111 111 111 111 5 5 5 5 5 5 5 111 111 111 111
111 111 111 111 111 111 111 111 111 111 111 111 111 111 111 111
111 111 111 111 111 111 111 111 111 111 111 111 111 111 111 111
111 111 111 5 5 5 5 5 5 5 111 111 111 111 111 111
111 111 111 111 111 111 111 5 111 111 111 111 111 111 111 111
111 111 111 111 111 111 111 111 111 111 111 111 111 111 111 111
5 5 5 5 5 6 6 5 5 111 111 5 111 111 110 111
5 5 111 5 5 5 5 111 111 5 5 5 5 5 111 111
111 5 5 5 5 111 111 5 111 111 110 111 111 5 5 5
5 5 6 6 5 5 5 5 5 5 5 111 5 5 5 5
5 5 5 5 5 5 5 5 5 5 5 5 5 5 5 5
5 5 5 5 5 5 5 111 5 5 5 5 5 5 5 6
6 5 5 111 111 5 111 111 110 111 5 5 111 5 5 5
5 111 111 5 5 5 5 5 111 111 111 5 5 5 5 111
111 5 111 111 110 111 111 5 5 5 5 5 6 6 5 5
5 5 5 5 5 111 5 5 5 5 5 5 5 5 5 5
5 5 5 5 5 5 5 5 5 5 5 5 5 5 5 5
5 111 5 5 5 5 5 5 5 6 6 5 5 111 111 5
111 111 110 111 5 5 111 5 5 5 5 111 111 5 5 5
5 5 111 111 111 5 5 5 5 5 111 5 111 111 110 111
111 5 5 5 5 5 6 6 5 5 5 5 5 5 5 111
5 5 5 5 5 5 5 5 5 5 5 5 5 5 5 5
5 5 5 5 5 5 5 5 5 5 5 111 5 5 5 5
5 5 5 6 6 5 5 111 111 5 111 111 110 111 5 5
111 5 5 5 5 111 111 5 5 5 5 5 5 111 111 5
5 5 5 5 111 5 111 111 110 111 111 5 5 5 5 5
111 111 5 5 5 111 5 5 5 6 5 5 5 5 111 111
111 5 5 5 5 5 5 5 5 5 5 111 5 5 5 5
111 5 5 5 111 111 5 5 5 5 111 5 5 5 5 5
5 5 5 5 5 6 5 5 5 5 5 5 5 111 111 111
5 5 5 5 5 5 5 5 5 5 5 5 5 5 5 5
5 5 5 5 5 5 5 111 111 111 5 5 5 111 5 5
5 6 5 5 5 5 111 111 111 5 5 5 5 5 5 5
5 5 5 111 5 5 5 5 111 5 5 5 111 111 5 5
5 5 111 5 5 5 5 5 5 5 5 5 5 6 5 5
5 5 5 5 5 111 111 111 5 5 5 5 5 5 5 5
5 5 5 5 5 5 5 5 5 5 5 5 5 5 5 111
111 111 5 5 5 111 5 5 5 6 5 5 5 5 111 111
111 5 5 5 5 5 5 5 5 5 5 111 5 5 5 5
111 5 5 5 111 111 5 5 5 5 111 5 5 5 5 5
5 5 5 5 5 6 5 5 5 5 5 5 5 111 111 111
5 5 5 5 5 5 5 5 5 5 5 5 5 5 5 5
5 5 5 5 5 5 5 111 111 111 5 5 111 111 5 5
5 6 5 5 5 5 111 111 111 5 5 5 5 5 5 5
5 5 111 111 5 5 5 5 111 5 5 5 111 5 5 5
5 5 111 5 5 5 5 5 5 5 5 5 5 6 5 5
5 5 5 111 5 5 111 5 5 5 5 5 6 6 5 5
5 5 5 111 5 5 5 5 5 5 5 5 5 5 5 111
5 5 5 111 5 5 5 5 5 5 111 5 5 5 5 5
5 5 5 111 111 5 5 6 6 5 5 5 5 5 5 5
5 5 5 5 5 5 5 5 5 5 5 5 5 5 5 5
5 5 5 5 5 5 5 5 5 111 5 111 111 5 5 5
5 5 6 6 5 5 5 5 5 111 5 5 5 5 5 5
5 5 5 5 5 111 5 5 5 111 5 5 5 5 5 5
111 5 5 5 5 5 5 5 5 111 5 5 5 6 5 5
5 5 5 5 5 5 5 5 5 5 5 5 5 5 5 5
5 5 5 5 5 5 5 5 5 5 5 5 5 5 5 111
5 111 111 5 5 5 5 5 6 5 5 5 5 5 5 111
5 5 5 5 5 5 5 5 5 5 5 111 5 5 5 111
5 5 5 5 5 5 111 5 5 5 5 5 5 5 5 111
5 5 5 6 5 5 5 5 5 5 5 5 5 5 5 5
5 5 5 5 5 5 5 5 5 5 5 5 5 5 5 5
5 5 5 5 5 111 5 111 111 5 5 5 5 5 6 5
5 5 5 5 5 111 5 5 5 5 5 5 5 5 5 5
5 111 5 5 5 111 5 5 5 5 5 5 111 5 5 5
5 5 5 5 5 111 5 5 5 6 5 5 5 5 5 5
5 5 5 111 5 5 5 111 111 5 5 5 5 5 5 5
6 5 5 5 5 5 111 111 110 111 5 5 5 5 5 5
5 5 5 5 111 5 111 111 111 5 5 5 5 5 111 5
5 111 110 111 111 111 5 5 5 5 6 5 5 5 5 5
5 5 111 5 5 5 5 5 5 5 5 5 111 5 5 111
5 111 111 5 5 5 5 111 5 5 5 111 111 5 5 5
5 5 5 5 6 5 5 5 5 5 111 111 110 111 5 5
5 5 5 5 5 5 5 111 111 5 111 111 111 5 5 5
5 5 111 5 111 111 110 111 111 111 5 5 5 5 6 5
5 5 5 5 5 111 111 5 5 5 5 5 5 5 5 5
111 5 5 111 5 111 5 5 5 5 111 111 5 5 111 111
111 5 5 5 5 5 5 6 6 5 5 5 5 5 111 110
110 111 5 5 5 5 5 5 5 5 5 111 5 5 111 111
5 5 5 5 5 5 111 5 111 111 110 111 111 5 5 5
5 6 6 5 5 5 5 5 5 111 111 5 5 5 5 5
5 5 5 5 111 5 111 111 5 111 5 5 5 5 111 111
5 5 111 111 111 5 5 5 5 5 5 6 6 5 5 5
5 5 111 110 111 111 5 5 5 5 5 5 5 5 5 111
5 5 111 111 5 5 5 5 5 111 111 5 111 110 110 111
111 5 5 5 5 6 6 5 5 5 5 5 5 111 5 5
111 111 5 5 5 5 5 5 5 5 5 5 5 5 111 111
5 5 5 6 6 5 5 5 5 5 5 111 5 5 5 111
5 5 5 111 5 5 5 5 111 5 111 111 5 5 5 5
111 5 5 5 5 111 5 5 6 6 5 5 6 6 5 5
5 5 5 5 5 5 5 5 5 5 5 5 5 111 5 5
5 111 111 5 5 5 5 5 5 5 5 5 5 5 5 5
111 5 5 5 5 6 5 5 5 5 5 5 5 111 5 5
5 111 5 5 5 111 5 5 5 5 111 5 111 5 5 5
5 111 111 5 5 5 111 111 5 5 6 5 5 5 6 5
5 5 5 5 5 5 5 5 5 5 5 5 5 5 5 111
5 5 111 111 111 5 5 5 5 5 5 5 5 5 5 5
5 5 111 5 5 5 5 6 5 5 5 5 5 5 5 111
5 5 111 111 5 5 111 111 5 5 5 111 111 5 111 5
5 5 5 111 5 5 5 5 111 5 5 5 6 5 5 5
6 5 5 5 5 5 5 5 5 5 5 5 5 5 5 5
111 111 5 5 111 111 111 5 5 5 5 5 5 5 5 5
5 5 5 5 111 5 5 5 5 6 5 5 5 5 5 5
111 111 5 5 111 5 5 5 111 5 5 5 5 111 5 5
111 5 5 5 5 111 5 5 5 5 111 5 5 5 6 5
5 6 6 5 5 5 5 5 5 5 5 5 5 5 5 5
5 5 5 5 5 5 5 5 5 5 5 5 5 5 5 5
5 5 5 5 5 5 5 6 5 5 5 5 5 5 5 5
5 5 5 5 5 5 5 5 5 5 5 5 5 5 5 5
5 5 5 5 5 5 5 5 5 5 5 5 5 5 5 6
5 5 5 5 5 5 5 5 5 5 5 5 5 5 5 5
5 5 5 5 5 5 5 5 5 5 5 5 5 5 5 5
5 5 5 5 5 5 5 6 5 5 5 5 5 5 5 5
5 5 5 5 5 5 5 5 5 5 5 5 5 5 5 5
5 5 5 5 5 5 5 5 5 5 5 5 5 5 5 6
5 5 5 5 5 5 5 5 5 5 5 5 5 5 5 5
5 5 5 5 5 5 5 5 5 5 5 5 5 5 5 5
5 5 5 5 5 5 6 6 5 5 5 5 5 5 5 5
5 5 5 5 5 5 5 5 5 5 5 5 5 5 5 5
5 5 5 5 5 5 5 5 5 5 5 5 5 5 6 5
5 5 5 5 5 5 5 5 5 5 5 5 5 5 5 5
5 5 5 5 5 5 5 5 5 5 5 5 5 5 5 5
5 5 5 5 5 5 6 5 5 5 5 5 5 5 5 5
5 5 5 5 5 5 5 5 5 5 5 5 5 5 5 5
5 5 5 5 5 5 5 5 5 5 5 5 5 5 6 5
5 5 5 5 5 5 5 5 5 5 5 5 5 5 5 5
5 5 5 5 5 5 5 5 5 5 5 5 5 5 5 5
5 5 5 5 5 5 5 5 6 5 5 6 5 5 5 5
5 5 5 5 5 5 5 5 5 5 5 5 5 5 5 5
5 5 5 5 5 5 5 5 5 5 5 5 5 5 5 5
5 6 6 5 5 5 5 5 5 5 5 5 5 5 5 5
5 5 5 5 5 5 5 5 5 5 5 5 5 5 5 5
5 5 5 5 5 5 6 5 6 5 5 5 5 5 5 5
5 5 5 5 5 5 5 5 5 5 5 5 5 5 5 5
5 5 5 5 5 5 5 5 5 5 5 5 5 5 5 6
5 5 5 5 5 5 5 5 5 5 5 5 5 5 5 5
5 5 5 5 5 5 5 5 5 5 5 5 5 5 5 5
5 5 5 6 6 5 6 5 5 5 5 5 5 5 5 5
5 5 5 5 5 5 5 5 5 5 5 5 5 5 5 5
5 5 5 5 5 5 5 5 5 5 5 5 5 6 5 5
5 5 5 5 5 5 5 5 5 5 5 5 5 5 5 5
5 5 5 5 5 5 5 5 5 5 5 5 5 5 5 5
5 6 5 6 6 5 5 5 5 5 5 5 5 5 5 5
5 5 5 5 5 5 5 5 5 5 5 5 5 5 5 5
5 5 5 5 5 5 5 5 5 5 6 5 5 5 5 5
5 5 5 5 5 5 5 5 5 5 5 5 5 5 5 5
5 5 5 5 5 5 5 5 5 5 5 5 5 5 5 5
5 5 5 5 5 5 5 5 5 5 5 5 6 6 6 5
5 5 5 5 5 5 5 5 5 5 5 5 5 5 5 5
5 5 5 5 5 5 5 5 5 5 5 5 5 5 5 5
5 5 5 5 6 5 5 5 5 5 5 5 5 5 5 5
5 5 5 5 5 5 5 5 5 5 5 5 5 5 5 5
5 5 5 5 5 5 5 6 6 6 6 5 5 5 5 5
5 5 5 5 5 5 5 5 5 5 5 5 5 5 5 5
5 5 5 5 5 5 5 5 5 5 5 5 5 5 5 6
6 5 5 5 5 5 5 5 5 5 5 5 5 5 5 5
5 5 5 5 5 5 5 5 5 5 5 5 5 5 5 5
5 5 5 6 6 6 5 5 5 5 5 5 5 5 5 5
5 5 5 5 5 5 5 5 5 5 5 5 5 5 5 5
5 5 5 5 5 5 5 5 5 5 5 6 5 5 5 5
5 5 5 5 5 5 5 5 5 5 5 5 5 5 5 5
5 5 5 5 5 5 5 5 5 5 5 5 5 5 6 6
6 6 5 5 5 5 5 5 5 5 5 5 5 5 5 5
5 5 5 5 5 5 5 5 5 5 5 5 5 5 5 5
5 5 5 5 5 5 6 6 5 5 5 5 5 5 5 5
5 5 5 5 5 5 5 5 5 5 5 5 5 5 5 5
5 5 5 5 111 5 5 5 5 5 5 5 5 5 5 5
5 5 5 5 5 5 5 5 5 5 5 111 5 5 5 5
5 5 6 5 5 5 5 5 5 5 5 5 5 5 5 5
5 5 5 5 5 5 5 5 5 5 5 5 5 5 5 5
5 5 5 5 5 5 5 6 5 5 5 5 5 111 111 5
5 5 5 5 5 5 5 5 5 5 5 5 5 5 5 5
5 5 5 5 111 111 5 5 5 5 5 6 5 5 5 5
5 5 5 5 5 5 5 5 5 5 5 5 5 5 5 5
5 5 5 5 5 5 5 5 5 5 5 5 5 5 5 5
6 5 5 5 5 5 5 111 5 5 5 5 5 5 5 5
5 5 5 5 5 5 5 5 5 5 5 5 5 5 111 5
5 5 5 5 5 6 5 5 5 5 5 5 5 5 5 5
5 5 5 5 5 5 5 5 5 5 5 5 5 5 5 5
5 5 5 5 5 5 5 5 5 5 6 5 5 5 5 5
111 111 5 5 5 5 5 5 5 5 5 5 5 5 5 5
5 5 5 5 5 5 5 111 111 5 5 5 5 5 6 5
5 5 5 5 5 5 5 5 5 5 5 5 5 5 5 5
5 5 5 5 5 5 5 5 5 5 5 5 5 5 5 5
5 5 5 6 5 5 5 5 5 5 111 5 5 5 5 5
5 5 5 5 5 5 5 5 5 5 5 5 5 5 5 5
5 5 6 5 5 5 5 5 5 5 5 5 5 5 5 5
5 5 5 5 5 5 5 5 5 5 5 5 5 5 5 5
5 5 5 5 6 6 6 5 5 5 5 5 111 5 5 5
5 5 5 5 5 5 111 5 5 5 5 5 5 5 5 5
5 5 111 111 5 5 5 5 5 6 5 5 5 5 5 5
5 5 5 5 5 5 5 5 5 5 5 5 5 5 5 5
5 5 5 5 5 5 5 5 5 5 5 5 6 6 5 5
5 5 5 5 111 5 5 5 5 5 5 5 5 5 111 5
5 5 5 5 5 5 5 5 5 5 111 5 5 5 5 5
5 6 5 5 5 5 5 5 5 5 5 5 5 5 5 5
5 5 5 5 5 5 5 5 5 5 5 5 5 5 5 5
5 5 5 6 6 5 5 5 5 5 5 111 5 5 5 5
5 5 5 5 5 111 5 5 5 5 5 5 5 5 5 5
5 111 5 5 5 5 5 5 6 5 5 5 5 5 5 5
5 5 5 5 5 5 5 5 5 5 5 5 5 5 5 5
5 5 5 5 5 5 5 5 5 5 6 6 6 5 5 5
5 5 111 5 5 5 5 5 5 5 5 5 111 5 5 5
5 5 5 5 5 5 5 5 5 111 5 5 5 5 5 6
5 5 5 5 5 5 5 5 5 5 5 5 5 5 5 5
5 5 5 5 5 5 5 5 5 5 5 5 5 5 5 5
6 6 6 6 6 6 6 5 5 5 5 5 5 5 5 5
5 5 5 5 5 5 5 5 5 5 5 5 5 5 5 5
5 5 5 5 5 5 5 5 5 6 6 6 6 6 6 6
6 6 6 6 6 6 6 6 6 6 6 6 6 6 6 6
6 6 6 6 6 6 6 6 6 6 6 6 6 5 5 5
5 5 5 5 5 5 5 5 5 5 5 5 5 5 5 5
5 5 5 5 5 5 5 5 5 5 5 5 5 5 6 6
6 6 6 6 6 6 6 6 6 6 6 6 6 6 6 6
6 6 6 6 6 6 6 6 6 6 6 6 6 6 6 6
6 6 5 5 5 5 5 5 5 5 5 5 5 5 5 5
5 5 5 5 5 5 5 5 5 5 5 5 5 5 5 5
5 5 5 5 6 6 6 6 6 6 6 6 6 6 6 6
6 6 6 6 6 6 6 6 6 6 6 6 6 6 6 6
6 6 6 6 6 6 6 5 5 5 5 5 5 5 5 5
5 5 5 5 5 5 5 5 5 5 5 5 5 5 5 5
5 5 5 5 5 5 5 5 5 6 6 6 6 6 6 6
6 6 6 6 6 6 6 6 6 6 6 6 6 6 6 6
6 6 6 6 6 6 6 6 6 6 6 6 6 5 5 5
5 5 5 5 5 5 5 5 5 5 5 5 5 5 5 5
5 5 5 5 5 5 5 5 5 5 5 5 5 5 6 6
5 5 5 5 5 5 5 5 5 5 5 6 5 5 6 5
5 5 5 5 5 5 5 5 5 5 5 5 5 5 5 5
5 5 5 5 5 5 5 5 5 5 5 5 5 6 5 5
5 5 5 5 5 5 5 5 5 5 5 5 5 5 5 5
5 5 5 5 5 5 5 5 5 5 5 5 5 5 6 5
5 6 5 5 5 5 5 5 5 5 5 5 5 5 5 5
5 5 5 5 5 5 5 5 5 5 5 5 5 5 5 5
6 5 5 5 5 5 5 5 5 5 5 5 5 5 5 5
5 5 5 5 5 5 5 5 5 5 5 5 5 5 5 5
5 6 5 5 5 6 5 5 5 5 5 5 5 5 5 5
5 5 5 5 5 5 5 5 5 5 5 5 5 5 5 5
5 5 5 6 5 5 5 5 5 5 5 5 5 5 5 5
5 5 5 5 5 5 5 5 5 5 5 5 5 5 5 5
5 5 5 5 5 6 5 5 6 5 5 5 5 5 5 5
5 5 5 5 5 5 5 5 5 5 5 5 5 5 5 5
5 5 5 5 5 5 6 5 5 5 5 5 5 5 5 5
5 5 5 5 5 5 5 5 5 5 5 5 5 5 5 5
5 5 5 5 5 5 5 5 6 5 5 6 5 5 5 5
5 5 5 5 5 5 5 5 5 5 5 5 5 5 5 5
5 5 5 5 5 5 5 5 5 6 5 5 5 5 5 5
5 5 5 5 5 5 5 5 5 5 5 5 5 5 5 5
6 5 5 5 5 5 5 5 5 5 5 5 5 5 5 5
5 5 5 5 5 5 5 5 5 5 5 5 5 6 5 5
6 6 6 5 5 5 5 5 5 5 5 5 5 5 5 5
5 5 5 5 5 5 5 5 5 5 5 5 5 5 5 5
5 6 5 5 5 5 5 5 5 5 5 5 5 5 5 5
5 5 5 5 5 5 5 5 5 5 5 5 5 5 6 5
5 6 6 6 5 5 5 5 5 5 5 5 5 5 5 5
5 5 5 5 5 5 5 5 5 5 5 5 5 5 5 5
5 5 6 5 5 5 5 5 5 5 5 5 5 5 5 5
5 5 5 5 5 5 5 5 5 5 5 5 5 5 5 6
5 5 6 6 6 6 5 5 5 5 5 5 5 5 5 5
5 5 5 5 5 5 5 5 5 5 5 5 5 5 5 5
5 5 5 6 5 5 5 5 5 5 5 5 5 5 5 5
5 5 5 5 5 5 5 5 5 5 5 5 5 5 5 5
5 6 5 5 6 6 6 5 5 5 5 5 5 5 5 5
5 5 5 5 5 5 5 5 5 5 5 5 5 5 5 5
5 5 5 5 6 5 5 5 5 5 5 5 5 5 5 5
5 5 5 5 5 5 5 5 5 5 5 5 5 5 5 5
5 5 6 5 5 6 6 6 5 5 5 5 5 5 5 5
5 5 5 5 5 5 5 5 5 5 5 5 5 5 5 5
5 5 6 6 6 6 6 6 5 5 5 5 6 6 6 6
5 5 5 5 5 5 5 5 5 5 5 5 5 5 5 5
5 6 6 6 6 6 6 5 5 5 5 5 5 5 5 5
5 5 5 5 5 5 5 5 5 5 5 5 5 5 5 5
5 6 6 6 6 6 6 5 5 5 5 6 6 6 6 5
5 5 5 5 5 5 5 5 5 5 5 5 5 5 5 5
6 6 6 6 6 6 5 5 5 5 5 5 5 5 5 5
5 5 5 5 5 5 5 5 5 5 5 5 5 5 5 5
6 6 6 6 6 6 5 5 5 5 6 6 6 6 5 5
5 5 5 5 5 5 5 5 5 5 5 5 5 5 5 6
6 6 6 6 6 5 5 5 5 5 5 5 5 5 5 5
5 5 5 5 5 5 5 5 5 5 5 5 5 5 5 6
6 6 6 6 6 5 5 5 5 6 6 6 6 5 5 5
5 5 5 5 5 5 5 5 5 5 5 5 5 5 6 6
6 6 6 6 5 5 5 5 5 5 5 5 5 5 5 5
5 5 5 5 5 5 5 5 5 5 5 5 5 5 5 6
6 6 6 6 5 5 5 5 6 6 6 6 5 5 5 5
5 5 5 5 5 5 5 5 5 5 5 5 5 6 6 6
6 6 6 5 5 5 5 5 5 5 5 5 5 5 5 5
5 5 5 5 5 6 5 5 5 5 5 5 5 6 6 6
5 5 5 5 5 5 5 6 6 6 6 6 6 5 5 5
6 6 6 6 6 6 6 5 5 5 6 6 6 6 6 5
5 5 5 5 6 6 6 6 6 6 5 5 5 5 5 5
5 5 6 5 5 5 5 5 5 5 6 6 6 5 5 5
5 5 5 5 6 6 6 6 6 6 5 5 5 6 6 6
6 6 6 6 5 5 5 6 6 6 6 6 5 5 5 5
5 5 6 6 6 6 6 5 5 5 5 5 5 5 5 6
5 5 5 5 5 5 5 6 6 6 5 5 5 5 5 5
5 6 6 6 6 6 6 5 5 5 5 6 6 6 6 6
6 5 5 5 6 6 6 6 6 5 5 5 5 5 5 6
6 6 6 6 5 5 5 5 5 5 5 5 6 5 5 5
5 5 5 5 6 6 6 5 5 5 5 5 5 5 6 6
6 6 6 6 5 5 5 5 6 6 6 6 6 6 5 5
5 6 6 6 6 6 5 5 5 5 5 5 6 6 6 6
6 5 5 5 5 5 5 5 5 6 5 5 5 5 5 5
5 6 6 6 5 5 5 5 5 5 5 6 6 6 6 6
6 5 5 5 5 6 6 6 6 6 6 5 5 5 6 6
6 6 6 5 5 5 5 5 5 6 6 6 6 6 5 5
5 5 5 5 5 5 6 5 5 5 5 5 5 5 6 6
6 6 6 5 5 5 5 5 5 5 5 5 5 5 5 5
5 5 5 5 5 5 5 5 5 5 5 6 6 6 6 6
5 5 5 5 5 5 5 5 5 5 5 5 5 5 5 5
5 5 5 5 5 5 5 5 5 6 6 6 6 6 5 5
5 5 5 5 5 5 5 5 5 5 5 5 5 5 5 5
5 5 5 5 5 5 6 6 6 6 6 5 5 5 5 5
5 5 5 5 5 5 5 5 5 5 5 5 5 5 5 5
5 5 5 5 6 6 6 6 6 5 5 5 5 5 5 5
5 5 5 5 5 5 5 5 5 5 5 5 5 5 5 5
5 6 6 6 6 6 5 5 5 5 5 5 5 5 5 5
5 5 5 5 5 5 5 5 5 5 5 5 5 5 5 6
6 6 6 6 5 5 5 5 5 5 5 5 5 5 5 5
5 5 5 5 5 5 5 5 5 5 5 6 6 6 6 6
6 5 5 5 5 5 5 5 5 5 5 5 5 5 5 5
5 5 5 5 5 5 5 5 5 5 6 6 6 6 5 5
5 5 5 5 5 5 5 5 5 5 5 5 5 5 5 5
5 5 5 5 5 5 6 6 6 6 6 6 5 5 5 5
5 5 5 5 5 5 5 5 5 5 5 5 5 5 5 5
5 5 5 5 5 6 6 6 6 5 5 5 5 5 5 5
5 5 5 5 5 5 5 5 5 5 5 5 5 5 5 5
5 5 5 5 6 6 6 6 6 5 5 5 5 5 5 5
5 5 5 5 5 5 5 5 5 6 5 5 5 5 5 5
6 6 6 6 6 5 5 5 5 5 5 5 5 5 5 5
5 5 5 5 5 5 5 5 5 5 5 5 5 6 6 6
6 6 5 5 5 5 5 5 5 5 5 5 5 5 5 6
5 5 6 5 5 5 5 5 5 6 6 6 6 6 5 5
5 5 5 5 5 5 5 5 5 5 5 5 5 5 5 5
5 5 5 5 5 5 6 6 6 6 6 5 5 5 5 5
5 5 5 5 5 5 5 5 6 5 5 6 5 5 5 5
5 5 6 6 6 6 6 5 5 5 5 5 5 5 5 5
5 5 5 5 5 5 5 5 5 5 5 5 5 5 5 6
6 6 6 6 5 5 5 5 5 5 5 5 5 5 5 5
5 6 5 5 6 5 5 5 5 5 5 6 6 6 6 5
5 5 5 5 5 5 5 5 5 5 5 5 5 5 5 5
5 5 5 5 5 5 5 6 6 6 6 6 6 5 5 5
5 5 5 5 5 5 5 5 5 5 6 5 5 6 5 5
5 5 5 5 6 6 6 6 5 5 5 5 5 5 5 5
5 5 5 5 5 5 5 5 5 5 5 5 5 5 5 5
6 6 6 6 6 6 5 5 5 5 5 5 5 5 5 5
5 5 5 6 5 5 6 5 5 5 5 5 5 6 6 6
5 5 5 5 5 5 5 5 5 5 6 6 6 6 5 5
5 5 5 5 5 5 5 5 5 6 5 5 6 5 5 5
5 5 5 5 6 6 6 6 6 5 5 5 5 5 5 5
5 5 5 5 5 6 5 5 5 5 5 5 5 5 5 5
6 6 6 6 6 5 5 5 5 5 5 5 5 5 5 5
6 5 5 6 5 5 5 5 5 5 5 6 6 6 6 6
5 5 5 5 5 5 5 5 5 5 6 5 6 5 5 5
5 5 5 5 5 5 5 6 6 6 6 5 5 5 5 5
5 5 5 5 5 5 5 5 5 5 6 5 5 5 5 5
5 5 6 6 6 6 6 5 5 5 5 5 5 5 5 5
5 6 5 6 5 5 5 5 5 5 5 5 5 5 6 6
6 6 5 5 5 5 5 5 5 5 5 5 5 6 5 5
5 6 5 5 5 5 5 5 5 6 6 6 6 6 5 5
5 5 5 5 5 5 5 5 6 5 5 5 5 5 5 5
5 5 5 5 5 6 6 6 6 5 5 5 5 5 5 5
5 5 5 5 6 5 5 5 5 5 5 5 5 5 5 6
6 6 6 6 5 5 5 5 5 5 5 5 5 5 5 6
6 5 5 5 5 5 5 5 5 5 5 5 6 6 6 6
5 5 5 5 5 5 5 5 5 5 5 6 5 5 6 5
5 5 5 5 5 5 6 6 6 6 6 5 5 5 5 5
5 5 5 5 5 5 5 6 5 5 5 5 5 6 6 6
6 6 6 5 5 5 5 5 5 5 5 5 6 5 5 5
5 5 5 5 5 5 5 5 5 5 6 6 6 6 5 6
5 5 5 5 5 5 5 5 5 5 5 5 6 5 5 5
5 5 5 6 6 6 6 6 5 5 5 5 5 5 5 5
5 6 5 5 5 5 5 5 5 5 5 5 5 5 6 6
6 6 5 5 6 5 5 5 5 5 5 5 5 5 5 5
5 5 5 5 5 5 6 5 6 6 6 6 6 5 5 5
5 5 5 5 5 5 6 5 5 5 5 5 5 5 5 5
5 5 5 6 6 6 6 5 5 6 5 5 5 5 5 5
5 5 5 5 5 6 5 5 5 5 5 6 5 6 6 6
6 6 5 5 5 5 5 5 5 5 5 5 5 5 5 5
5 5 5 5 5 5 5 5 6 6 6 6 5 5 5 5
5 5 5 5 5 5 5 5 5 5 6 5 5 5 5 5
6 6 6 6 6 6 5 5 5 5 5 5 5 5 5 6
5 5 5 5 5 5 5 5 5 5 5 5 5 6 6 6
6 5 6 5 5 5 5 5 5 5 5 5 5 5 5 5
5 5 5 5 6 5 6 6 6 6 6 5 5 5 5 5
5 5 5 5 6 5 5 5 5 5 5 5 5 5 5 5
5 6 6 6 6 5 5 6 5 5 5 5 5 5 5 5
5 6 5 5 5 5 5 5 5 5 5 5 5 5 5 5
5 5 5 5 5 6 6 6 6 5 5 5 5 5 5 6
5 5 5 5 5 5 5 5 5 5 5 5 5 5 6 6
6 6 5 5 6 5 5 5 5 5 5 5 5 5 5 5
5 5 5 5 5 6 5 5 6 6 6 6 5 5 5 5
5 5 6 5 5 5 5 5 5 5 5 5 5 5 5 5
5 6 6 6 6 5 5 5 5 5 5 5 5 5 5 5
5 5 5 5 5 5 5 5 6 5 6 6 6 6 5 5
5 5 5 5 5 5 5 5 5 5 5 5 5 5 5 5
5 5 5 5 6 6 6 6 5 6 5 5 5 5 5 5
5 5 5 5 5 5 5 5 5 5 5 5 5 6 6 6
6 5 5 5 5 5 5 6 5 5 5 5 5 5 5 5
5 5 5 5 5 5 6 6 6 6 5 5 6 5 5 5
5 5 5 5 5 5 5 5 5 5 5 5 5 6 5 5
6 6 6 6 5 5 5 5 5 5 6 5 5 5 5 5
5 5 5 5 5 5 5 5 5 6 6 6 6 5 5 5
5 5 5 5 5 5 5 5 5 5 5 5 5 5 5 5
6 5 6 6 6 6 5 5 5 5 5 5 5 6 5 5
5 5 5 5 5 5 5 5 5 5 5 5 6 6 6 6
5 6 5 5 5 5 5 5 5 5 5 5 5 5 5 5
6 6 6 6 7 6 6 6 5 5 6 6 6 6 6 5
5 6 6 6 6 6 6 5 5 6 6 6 7 6 6 6
6 6 6 6 6 6 6 6 6 6 6 6 6 6 6 6
6 6 6 6 6 6 6 6 5 5 5 6 6 6 6 6
5 6 5 6 6 5 6 6 5 5 6 6 6 7 6 6
6 6 6 6 6 6 6 6 6 6 6 6 6 6 6 6
6 6 6 6 6 7 6 6 6 5 5 6 6 6 6 6
6 5 6 5 6 6 5 6 5 5 6 6 6 7 6 6
6 6 6 6 6 6 6 6 6 6 6 6 6 6 6 6
6 6 6 6 6 6 7 6 6 6 5 5 6 6 6 6
6 5 5 5 6 6 6 6 6 5 5 6 6 6 7 6
6 6 6 6 6 6 6 6 6 6 6 6 6 6 6 6
6 6 6 6 6 6 7 6 6 6 5 5 5 6 6 6
6 6 5 6 5 6 6 5 6 5 5 5 6 6 6 6
6 6 6 6 6 6 6 6 6 6 6 6 6 6 6 6
6 6 6 6 6 6 6 7 6 6 6 5 5 6 6 6
6 6 5 5 6 6 6 6 5 6 5 5 6 6 6 7
6 6 6 6 6 6 6 6 6 6 6 6 6 6 6 6
6 6 6 6 6 6 6 6 6 6 6 5 5 5 6 6
6 6 6 5 5 5 6 6 5 6 6 5 5 6 6 6
5 5 6 5 6 6 6 6 6 6 6 6 6 6 6 6
6 5 6 6 6 6 6 6 6 5 6 6 6 6 6 6
6 6 6 6 6 6 6 6 5 5 6 6 6 6 6 5
6 6 5 6 6 6 6 6 6 6 6 6 5 6 6 6
6 5 6 6 6 6 6 6 6 5 6 6 6 6 6 6
6 6 6 6 5 6 5 5 6 6 6 6 6 6 5 6
5 6 6 6 6 6 6 6 6 6 6 6 6 6 5 6
6 6 6 6 6 6 5 6 6 6 6 6 6 6 6 6
6 6 6 6 6 5 5 6 6 6 6 6 5 5 6 5
6 6 6 6 6 6 6 6 6 5 6 6 6 5 5 6
6 6 6 6 6 5 5 6 6 6 6 6 6 6 6 6
6 5 6 5 5 5 6 6 6 6 6 5 6 6 6 6
6 6 6 6 6 6 6 6 6 6 6 5 6 5 6 6
6 6 6 5 6 5 6 6 6 6 6 6 6 6 6 6
6 6 5 5 6 6 6 6 6 5 5 6 5 6 6 6
6 6 6 6 6 6 5 6 6 6 5 5 6 6 6 6
6 6 5 5 6 6 6 6 6 6 6 6 6 6 5 6
5 5 5 6 6 6 6 6 5 6 6 6 6 6 6 6
6 6 6 6 6 5 6 6 5 6 5 6 6 6 6 6
5 6 5 6 6 6 6 6 6 6 6 6 6 5 6 5
6 6 5 6 5 6 6 6 5 6 6 6 6 6 5 6
6 6 6 6 6 6 6 6 6 6 6 6 6 6 6 6
6 6 6 6 6 6 6 6 6 6 6 6 6 6 1 1
5 5 5 5 1 1 5 5 5 5 5 111 1 1 5 5
5 111 5 79 5 73 140 147 139 137 137 140 140 139 139 139
147 111 0 0 5 5 110 5 111 5 110 110 2 111 5 5
5 110 124 124 123 0 5 5 122 122 6 5 110 2 5 14
14 143 15 14 15 14 15 15 15 143 142 127 6 6 6 6
127 0 7 8 8 8 7 8 0 6 6 6 6 6 127 127
6 6 6 243 245 242 243 242 243 0 79 0 6 6 127 127
6 127 127 6 6 6 7 8 127 7 0 0 0 0 7 6
6 6 6 6 6 79 76 6 6 7 8 7 8 0 0 7
7 7 6 6 6 6 141 141 143 142 142 142 140 142 139 143
140 141 141 73 137 137 137 136 100 3 102 138 99 98 100 99
98 98 100 103 100 98 98 99 138 100 137 99 138 102 141 100
151 76 13 13 13 13 13 13 13 142 142 141 1 1 1 1
1 1 1 1 1 1 1 1 1 1 5 1 1 1 1 1
1 1 1 137 137 136 6 6 6 6 6 6 6 6 6 6
6 6 6 6 6 6 6 6 6 6 6 6 6 6 6 6
6 6 6 6 6 6 6 6 5 6 6 6 6 6 6 6
6 6 6 6 6 5 6 6 6 5 6 6 6 6 6 5
5 5 6 6 5 6 6 6 6 6 6 6 6 6 6 6
6 5 6 6 6 6 6 6 6 6 6 6 6 6 1 1
5 1 79 5 1 1 79 5 5 5 5 111 5 1 5 5
79 79 1 5 5 149 139 139 140 139 147 140 140 139 139 140
140 111 5 5 6 0 0 6 111 111 111 5 5 110 110 2
5 5 5 110 110 1 5 5 126 5 124 122 125 6 110 15
14 13 15 14 15 13 15 15 15 143 142 6 6 6 6 6
0 7 0 0 0 0 0 0 0 6 6 5 5 6 6 6
6 6 6 6 6 6 6 6 5 5 6 111 6 6 6 6
6 6 6 6 6 6 8 8 0 0 0 0 0 0 0 6
6 6 6 6 6 5 5 6 6 7 8 0 0 0 0 0
7 0 6 6 6 6 141 140 74 142 139 142 140 142 140 142
141 138 141 73 137 137 137 137 100 3 102 138 99 99 100 99
98 98 100 103 100 98 98 100 138 100 137 99 138 102 142 100
151 76 13 13 13 13 13 139 140 141 149 141 1 1 1 1
5 1 1 1 1 1 1 1 1 1 1 1 1 1 1 1
1 1 1 137 137 138 98 102 107 106 142 104 105 106 106 109
109 107 107 105 101 98 103 101 98 103 105 101 98 103 6 6
6 5 6 6 6 6 6 5 5 5 6 6 5 6 6 6
5 6 6 6 6 6 6 5 6 6 6 6 6 6 6 6
6 6 6 6 6 6 6 6 5 6 6 5 6 6 6 6
6 6 6 6 6 5 6 5 6 6 6 6 6 6 1 1
5 1 5 79 1 1 5 5 5 5 5 111 5 1 5 79
5 79 1 1 1 140 139 139 140 139 137 139 140 139 137 139
140 111 5 0 0 0 5 103 109 6 0 5 111 110 111 5
5 110 2 5 111 5 5 5 124 123 124 111 126 124 5 15
79 79 78 14 238 79 15 15 238 14 142 7 7 7 7 7
8 8 8 8 8 7 8 8 8 8 8 7 8 8 8 8
8 8 8 8 8 8 8 8 8 8 8 8 8 8 8 8
8 8 8 8 8 8 8 8 8 8 8 8 8 8 8 8
8 8 8 8 8 8 8 8 8 8 8 8 8 8 8 8
8 8 8 8 7 8 138 140 157 141 140 142 139 140 138 142
140 140 141 73 99 137 137 137 100 106 102 138 100 99 100 100
99 99 100 104 100 98 98 100 138 100 137 99 138 102 142 100
151 151 13 140 140 140 140 140 140 141 141 149 1 1 1 1
5 1 1 1 1 1 1 1 1 1 1 1 1 1 1 1
1 1 1 140 142 143 107 106 109 107 110 107 107 108 106 106
105 104 106 105 103 100 3 103 100 103 106 103 100 3 105 103
103 106 76 73 141 73 137 137 137 105 139 100 139 100 98 100
6 6 6 6 6 6 6 6 6 6 6 6 6 6 6 6
6 6 6 6 6 6 6 6 6 6 6 6 6 6 6 6
6 6 6 6 6 6 6 6 6 6 6 6 6 6 1 1
1 1 79 79 1 1 5 5 5 5 5 79 5 1 5 79
5 5 5 5 1 141 140 147 140 137 137 139 139 139 147 140
139 111 5 110 111 5 6 111 110 106 109 0 0 111 107 111
5 111 111 5 110 2 5 5 5 110 126 126 124 126 5 15
78 238 238 15 238 238 238 238 238 14 142 6 5 109 5 6
6 8 8 5 6 6 0 2 5 5 8 8 2 6 6 6
6 6 6 0 0 6 5 0 6 0 7 0 6 6 1 6
6 6 2 5 6 5 5 5 125 127 125 125 127 125 2 2
0 6 6 6 6 127 127 127 125 127 6 127 125 126 127 126
126 127 127 126 127 6 140 141 141 141 140 142 139 140 138 140
141 141 141 73 99 137 137 137 100 3 102 138 100 99 100 99
99 98 100 104 100 98 99 100 138 100 137 99 138 102 143 100
140 140 139 140 140 140 140 140 140 140 141 140 1 1 5 1
1 5 5 1 1 1 1 1 1 1 5 5 1 1 1 1
1 1 1 109 109 108 108 107 107 106 142 104 104 101 101 101
136 100 100 106 103 100 3 103 100 3 106 103 100 3 106 103
3 106 76 73 141 73 139 137 137 106 139 100 101 100 98 100
6 6 6 6 6 6 6 6 6 6 6 6 6 6 6 6
6 6 6 6 6 6 6 6 6 6 6 6 6 6 6 6
6 6 6 6 6 6 6 6 6 6 6 6 6 6 1 1
5 1 79 5 1 1 5 5 5 5 5 111 1 5 5 79
1 79 1 1 1 149 139 147 140 137 136 140 139 139 139 140
147 5 5 111 1 1 5 111 111 5 6 5 0 110 79 5
5 0 6 5 5 111 5 110 2 5 111 5 111 124 5 14
14 15 13 14 13 15 15 143 15 140 13 6 109 109 5 6
6 107 1 2 2 79 2 2 1 6 2 2 1 6 2 1
7 2 6 8 7 7 0 6 0 0 7 0 6 6 7 6
6 6 2 1 6 15 74 75 127 124 127 127 125 127 0 0
0 6 6 6 6 127 126 125 127 125 6 124 127 127 125 127
127 126 125 127 125 6 140 141 143 141 141 142 139 140 138 141
141 141 141 73 100 138 137 98 100 106 102 138 100 99 100 100
99 98 100 3 100 98 99 100 138 100 137 99 138 102 143 100
140 140 139 147 140 140 149 139 140 141 140 140 1 1 1 1
5 5 79 1 1 1 5 1 1 1 1 1 1 1 1 5
1 1 1 107 142 142 101 101 141 136 136 136 136 136 98 99
97 99 100 106 3 101 3 103 100 3 107 3 101 3 106 3
3 107 76 141 141 73 139 137 137 106 139 101 101 101 98 100
6 6 6 6 6 6 6 6 6 6 6 6 6 6 6 6
6 6 6 6 6 6 6 6 6 6 6 6 6 6 6 6
6 6 6 6 6 6 6 6 6 6 6 6 6 6 1 1
1 1 79 1 5 1 79 5 5 5 5 5 1 1 5 79
5 5 5 1 5 149 139 147 139 137 137 140 140 139 139 139
147 110 110 6 6 5 5 5 111 5 5 1 1 111 159 5
5 6 2 5 106 6 6 5 108 5 110 2 5 111 5 14
14 78 13 15 13 78 15 13 15 140 143 6 5 109 5 6
6 8 5 0 6 77 77 6 5 5 2 2 111 6 6 6
6 6 6 0 0 0 0 0 0 0 7 0 6 6 7 2
6 6 6 5 6 15 75 74 127 125 127 127 124 127 79 79
0 6 6 6 6 127 125 125 127 124 6 125 127 127 126 127
127 125 125 127 124 6 140 142 74 141 140 142 139 141 137 141
141 140 141 73 100 138 137 99 100 106 102 138 100 99 100 99
99 98 100 3 100 99 99 99 138 100 137 99 138 102 143 100
140 140 140 139 140 139 141 140 149 141 141 141 1 5 1 1
1 5 79 5 1 5 1 5 1 1 5 1 1 1 1 1
1 1 1 138 136 135 136 137 140 137 99 98 98 99 101 99
97 99 101 107 3 103 3 3 101 3 107 3 103 3 107 3
3 107 149 141 141 73 139 137 137 105 139 101 101 101 100 100
6 6 6 6 6 6 6 6 6 6 6 6 6 6 6 6
6 6 6 6 6 6 6 6 6 6 6 6 6 6 6 6
6 6 6 6 6 6 6 6 6 6 6 6 6 6 1 1
1 1 79 1 5 1 79 79 5 5 5 5 1 79 5 111
5 5 79 1 1 73 139 147 139 147 147 140 140 139 139 140
140 5 5 5 5 5 110 6 6 5 5 1 1 111 5 111
5 111 5 2 2 8 79 5 100 5 6 5 5 110 2 14
14 15 13 15 13 78 15 14 14 141 14 6 5 5 5 6
6 6 6 6 6 6 6 1 5 6 6 1 1 6 5 2
1 7 6 6 6 6 6 6 6 6 6 6 6 2 2 6
6 6 6 6 6 6 6 6 6 6 6 6 6 6 6 6
6 6 6 6 6 6 6 6 6 6 6 6 6 6 6 6
6 6 6 6 6 6 140 140 140 141 140 142 139 141 137 140
140 141 141 73 99 138 137 99 100 106 102 138 100 99 100 100
99 99 100 3 102 99 99 100 100 100 137 98 138 102 143 100
140 140 140 147 140 140 149 139 149 141 149 141 1 1 1 1
1 79 111 5 1 1 1 5 1 1 1 5 1 1 1 1
1 1 1 138 137 136 100 101 140 137 100 98 99 101 100 99
98 100 100 107 3 103 105 3 103 3 107 3 103 105 107 3
3 107 76 140 141 73 139 139 139 107 139 101 101 100 100 101
6 6 6 6 7 6 6 6 6 6 6 6 6 6 6 6
6 6 6 7 6 6 6 6 6 6 6 6 6 6 6 6
6 6 7 6 6 6 6 6 6 6 6 6 6 6 1 1
1 1 79 5 5 1 79 5 5 5 1 5 1 5 5 79
5 5 79 1 5 73 139 147 139 139 147 149 140 139 137 139
140 6 6 5 5 5 5 5 5 5 110 110 6 6 5 5
1 1 5 110 110 6 5 111 106 5 78 14 0 107 5 14
14 14 13 14 13 15 14 14 14 141 141 0 8 8 7 8
8 8 7 7 7 7 7 7 8 8 8 8 8 8 8 8
8 8 8 8 8 8 8 8 8 8 8 8 8 8 8 8
8 8 8 8 8 8 8 8 8 8 8 8 8 8 8 8
8 8 8 8 8 8 8 8 8 8 8 8 8 8 8 8
8 8 8 8 8 8 140 141 143 142 141 142 140 141 139 141
139 140 141 74 102 141 141 102 103 106 3 141 102 3 3 3
3 106 3 106 3 106 103 3 3 104 141 103 108 106 109 106
140 139 140 147 141 149 149 140 141 141 149 141 1 1 1 1
1 79 79 5 1 1 1 1 1 1 5 79 1 1 1 1
1 1 1 140 138 136 101 101 140 138 100 99 98 101 100 99
98 101 102 107 105 3 106 3 103 105 108 105 3 106 107 105
105 108 76 139 141 73 139 139 139 107 139 101 101 101 100 101
5 6 6 6 6 6 6 6 6 6 6 6 6 6 6 6
6 6 6 6 6 6 6 6 6 6 6 6 6 6 6 6
6 6 6 6 6 6 6 6 6 6 6 6 6 6 1 1
1 1 5 1 5 1 5 1 1 1 1 5 1 1 5 5
5 5 1 1 1 149 140 147 139 139 139 149 149 139 137 147
140 6 6 6 7 6 6 6 1 5 5 5 5 5 5 110
110 6 5 5 5 5 5 5 100 5 105 78 78 165 5 14
13 14 13 14 13 15 13 13 14 140 141 6 5 109 5 6
6 6 6 5 6 6 6 6 6 6 6 6 6 6 6 6
6 6 6 6 6 5 6 6 6 6 6 6 6 6 6 6
6 6 6 10 6 6 6 6 6 6 6 6 6 6 6 6
6 6 6 6 6 5 5 110 6 6 6 6 6 6 6 6
6 6 6 6 6 6 140 143 74 142 140 142 141 142 141 140
140 140 110 1 108 108 110 109 108 108 106 109 108 108 108 108
108 108 108 108 108 108 108 106 106 106 13 106 108 106 108 108
142 140 140 147 140 140 149 140 142 141 149 142 1 1 1 1
1 79 79 1 1 1 1 1 1 1 1 79 1 1 1 1
1 1 1 140 138 136 101 101 140 138 100 99 98 101 100 103
102 103 104 108 105 3 106 3 103 106 108 105 3 106 108 105
106 108 79 77 77 78 109 109 109 108 108 107 105 107 105 108
6 6 6 6 6 6 6 5 6 6 6 6 6 6 6 6
6 6 6 6 6 6 6 6 6 6 6 6 6 6 6 6
6 6 6 6 6 6 7 6 6 6 6 6 6 6 2 1
1 5 1 1 5 1 5 1 1 1 1 1 1 1 5 1
1 5 1 1 1 76 149 140 139 139 147 140 141 139 139 139
139 6 6 6 6 6 6 6 6 6 6 6 6 5 5 5
5 5 5 110 5 6 6 6 110 5 110 2 0 5 5 14
13 14 13 14 13 15 13 13 13 140 141 6 109 109 5 6
6 109 6 6 6 2 47 127 0 8 127 6 6 6 6 7
0 8 7 6 109 0 5 111 109 108 106 7 7 2 0 6
6 6 6 6 6 7 0 6 6 6 7 10 6 6 10 7
1 1 1 6 6 110 109 110 6 108 6 5 6 79 0 2
0 8 8 0 6 6 141 143 14 13 141 142 142 142 141 140
142 141 106 74 155 155 141 102 102 102 102 141 102 102 102 102
102 102 102 101 101 101 137 137 138 137 136 137 137 101 139 101
142 140 140 147 149 140 149 140 142 141 142 142 1 1 1 1
1 79 79 1 1 1 1 5 1 1 1 79 1 1 1 1
1 1 1 140 140 136 103 103 142 105 105 105 105 3 3 3
104 104 103 107 3 103 106 3 103 105 108 3 103 106 107 3
105 108 75 141 141 74 139 141 141 102 141 102 102 102 102 102
7 7 7 7 7 7 7 7 6 6 6 2 6 7 7 7
7 7 7 7 7 6 7 7 7 6 6 6 6 6 6 6
6 6 6 6 7 6 6 6 6 6 6 6 6 6 2 1
1 1 1 5 1 1 5 1 1 1 1 1 1 1 1 1
1 1 1 1 1 13 149 140 140 140 149 140 149 139 140 140
139 6 6 6 6 6 6 6 6 6 6 6 6 6 6 6
6 6 6 5 5 5 5 6 110 110 6 6 6 5 5 14
13 14 13 14 142 15 14 13 13 140 140 6 5 109 5 6
6 79 6 6 6 8 5 0 1 0 6 6 6 6 6 6
6 6 6 6 2 6 6 6 6 6 2 6 2 2 2 6
6 6 110 110 6 7 6 6 5 6 6 0 0 7 8 7
6 6 6 6 6 5 5 5 6 109 1 6 6 8 8 5
109 0 5 6 6 6 141 13 77 14 142 14 141 142 14 142
142 141 142 70 101 138 137 100 100 101 138 100 99 99 100 101
100 101 101 102 101 100 98 99 102 137 99 137 139 102 141 102
142 142 140 147 149 140 149 142 142 141 149 159 1 1 1 1
2 2 2 2 1 1 1 1 1 2 2 2 2 1 1 1
1 1 6 105 104 104 104 104 104 103 138 100 97 95 94 95
94 89 96 107 3 103 105 3 103 3 107 3 103 105 107 3
3 107 149 142 142 73 139 137 141 101 141 100 137 101 98 102
6 6 7 7 7 7 6 6 7 6 7 7 7 7 7 7
7 7 7 7 7 7 7 8 7 8 8 8 8 8 8 2
7 7 7 7 7 6 6 6 6 6 6 6 6 6 2 2
1 1 1 5 1 1 1 1 1 1 1 1 1 1 5 1
1 1 5 1 1 13 142 140 140 140 149 149 142 140 140 140
140 6 6 6 6 6 6 6 6 6 7 6 6 6 6 6
6 6 6 6 6 7 6 6 1 5 5 5 110 110 6 14
13 14 13 14 142 14 13 14 13 140 140 6 5 5 5 6
6 6 6 6 6 6 6 6 6 6 6 6 6 6 6 6
2 6 2 2 2 2 6 6 2 2 6 2 2 6 2 2
6 6 6 2 6 2 2 2 2 2 6 2 2 6 6 6
6 6 6 6 6 5 5 5 6 6 6 6 6 6 6 6
6 6 6 6 6 6 142 13 77 14 13 14 143 14 13 13
14 141 142 73 102 141 138 102 102 102 139 101 100 100 102 101
100 102 102 102 102 101 99 100 102 138 99 137 138 103 141 102
142 142 142 78 142 140 149 151 13 141 149 13 1 1 1 1
2 2 2 2 6 1 1 1 1 2 2 2 2 1 1 1
1 1 2 134 135 134 129 94 140 97 131 129 129 129 129 95
95 95 95 107 3 103 3 3 101 3 107 3 103 3 107 3
3 107 149 13 13 74 139 139 141 102 139 101 139 101 101 102
6 5 6 6 6 6 5 6 6 6 6 6 6 6 6 6
6 1 6 1 1 6 1 1 2 2 2 2 2 2 2 1
1 6 1 1 6 1 6 6 6 6 6 8 8 8 2 2
6 1 1 1 1 6 1 1 1 1 1 2 1 1 1 1
1 1 1 1 1 151 142 140 141 140 149 142 142 156 140 139
140 6 6 6 6 6 6 7 6 6 6 6 6 6 6 6
6 6 6 6 6 6 6 6 6 6 6 6 6 5 6 14
14 14 13 14 13 14 13 13 14 140 140 5 5 5 5 5
5 5 5 5 5 5 5 6 5 5 5 5 5 5 5 5
5 5 5 5 5 5 5 5 5 5 6 5 5 5 5 5
6 5 5 5 5 5 5 5 5 5 5 5 5 5 5 5
5 5 5 6 5 5 5 5 5 6 5 5 5 5 5 5
5 5 5 5 5 5 13 14 77 77 14 14 14 14 14 14
13 13 143 73 102 141 137 102 102 101 139 101 100 99 102 102
100 102 102 102 103 103 99 101 102 139 100 137 138 103 141 103
142 141 76 151 13 140 149 151 13 141 149 13 1 1 1 1
2 2 2 2 6 1 2 1 1 2 2 2 2 1 1 1
1 1 2 132 145 132 94 130 140 94 136 95 95 95 97 98
98 98 99 108 107 107 108 107 107 107 109 107 107 108 108 107
107 109 107 106 106 106 106 106 106 106 106 106 106 106 106 106
6 6 6 6 6 6 6 6 6 6 6 6 6 6 6 6
6 2 6 6 6 6 2 2 2 2 2 2 2 2 2 2
2 6 6 6 6 2 6 6 6 6 6 8 8 8 2 2
6 1 1 1 1 6 1 1 2 2 1 1 1 2 1 1
1 1 1 1 1 151 142 141 141 141 141 142 142 141 140 140
140 6 6 6 6 6 7 6 6 6 6 6 6 6 6 6
6 6 6 6 6 6 6 6 6 6 6 6 6 6 6 14
13 14 13 13 143 14 14 14 13 140 138 6 6 6 6 6
6 6 7 6 6 6 6 6 6 6 6 6 6 6 6 6
6 6 6 7 6 6 6 6 6 6 6 6 6 6 6 6
6 6 6 6 6 7 6 6 6 6 6 6 6 6 6 6
6 6 6 6 6 6 7 6 6 6 6 6 6 6 6 6
6 6 6 6 6 6 142 141 142 141 141 141 142 141 141 141
142 142 6 6 6 6 6 6 6 7 6 6 6 6 6 6
6 6 6 6 6 6 6 6 6 6 6 7 6 6 6 6
142 141 76 78 151 76 78 78 78 13 13 13 1 1 1 1
6 2 2 2 2 2 1 1 2 2 2 2 2 2 1 1
2 1 2 136 138 135 101 101 141 101 138 99 104 104 104 105
104 105 106 108 107 106 107 106 105 107 108 107 106 107 108 107
107 108 105 64 131 67 132 133 131 102 135 131 130 131 93 92
6 6 6 6 6 6 6 6 6 6 6 6 2 2 2 6
2 2 6 6 2 6 2 2 2 7 2 2 2 7 7 2
2 6 2 6 6 2 2 6 6 6 6 8 8 8 2 2
6 1 1 6 1 6 1 1 2 6 1 1 1 2 1 1
6 1 1 1 1 151 142 141 142 13 142 142 142 141 149 140
149 6 6 6 6 6 6 7 7 7 7 7 7 7 7 7
6 6 6 6 6 6 7 7 7 7 7 7 7 7 7 14
14 14 13 13 143 14 14 14 14 140 140 7 7 7 7 6
6 6 6 6 6 7 7 7 7 7 7 7 7 7 6 6
6 6 6 6 6 7 7 7 7 7 7 7 7 7 6 6
6 6 6 6 7 7 7 7 7 7 7 7 7 6 6 6
6 6 6 6 7 7 7 7 7 7 7 7 7 6 6 6
6 6 6 7 7 7 141 142 142 141 140 140 142 141 141 141
142 142 6 7 7 7 7 7 7 7 7 7 6 6 6 6
6 6 7 7 7 7 7 7 7 7 7 5 5 5 5 110
149 149 13 13 13 149 137 139 139 139 139 141 5 5 5 5
5 5 5 5 111 111 5 79 5 5 5 5 5 5 5 5
5 1 1 143 76 108 106 105 141 106 107 106 106 106 106 107
106 103 104 108 106 105 107 106 3 106 108 106 105 107 108 106
106 108 109 76 13 78 13 13 13 104 142 104 13 105 105 105
6 6 7 6 6 7 6 6 6 6 6 6 6 2 2 6
6 6 6 2 2 7 7 7 7 7 2 7 7 7 7 7
7 7 7 7 7 7 7 7 7 7 7 8 8 8 2 2
2 2 1 6 2 2 6 2 2 6 6 6 2 2 2 1
2 1 1 1 1 151 13 141 142 13 13 141 13 142 13 140
142 7 7 7 7 7 7 7 7 7 7 7 7 7 7 7
7 7 7 7 7 7 7 7 7 7 7 6 6 6 6 14
13 14 13 13 13 13 13 13 14 140 139 6 6 6 6 6
6 6 7 6 6 6 6 6 6 7 6 6 6 6 6 7
7 6 6 6 6 6 7 6 6 6 6 6 6 7 6 6
6 6 6 6 7 6 6 6 7 6 7 7 6 6 6 6
6 7 6 6 6 6 6 6 7 6 6 6 6 6 6 7
6 6 6 7 6 7 141 141 13 141 141 138 142 141 142 141
142 143 7 7 6 6 6 6 6 7 6 6 6 6 6 6
7 6 5 5 5 5 109 109 111 106 14 143 78 13 74 143
139 139 140 149 137 149 149 142 142 141 137 142 1 5 5 1
1 6 1 1 5 5 1 1 1 1 6 1 1 6 1 5
111 5 1 104 150 140 103 102 140 102 140 101 101 101 101 96
95 94 99 108 106 3 106 105 3 106 108 106 3 106 108 106
106 108 105 74 141 76 142 141 141 104 141 102 141 102 102 104
111 111 5 6 6 5 111 111 111 111 5 5 5 5 6 6
6 5 5 5 5 1 1 1 1 1 2 2 2 1 1 1
1 1 5 5 5 5 6 6 6 1 5 8 8 8 2 2
2 2 6 2 6 2 2 2 2 6 2 2 2 2 2 6
1 1 1 2 1 151 76 13 13 13 13 141 13 13 13 140
142 5 6 5 7 6 5 5 5 5 5 6 6 5 5 5
5 5 6 6 5 6 5 6 1 1 2 5 238 78 238 15
13 14 14 14 13 15 13 14 13 140 139 110 109 109 109 110
110 5 110 109 110 111 79 1 1 239 79 1 1 7 2 2
2 6 6 5 7 2 5 5 5 5 5 6 5 6 5 5
5 2 7 5 6 2 2 6 2 7 2 6 2 6 6 6
6 6 6 5 5 5 6 6 6 6 5 6 6 6 6 6
6 6 2 109 5 109 143 142 13 13 141 140 143 141 13 141
142 143 110 110 5 6 6 2 1 1 110 5 109 111 110 15
238 143 15 143 106 106 107 106 110 15 15 15 79 15 238 111
140 139 140 149 137 149 140 13 13 141 139 142 1 5 5 1
1 6 6 1 5 5 1 1 1 1 6 6 6 1 1 5
5 1 1 134 130 129 130 94 140 97 133 129 128 129 128 90
90 89 95 107 105 3 106 3 103 105 108 105 3 106 107 105
105 108 75 139 137 72 137 136 137 105 135 98 137 98 97 98
5 5 5 6 6 5 5 5 5 5 5 5 5 6 1 6
6 6 5 1 6 2 2 2 6 2 1 2 1 2 2 2
2 2 6 6 6 6 6 6 1 6 5 8 8 8 2 2
2 2 2 2 6 2 2 6 2 2 2 2 2 2 2 2
1 1 1 1 1 151 76 13 13 13 13 13 13 13 142 142
13 2 7 7 7 6 6 6 6 6 6 6 7 6 6 6
6 6 2 7 6 2 2 7 2 2 2 1 1 1 1 15
14 15 14 15 15 15 14 14 14 140 143 5 5 111 111 111
5 5 5 5 5 5 1 1 1 239 5 1 1 7 2 6
2 2 6 6 7 6 6 6 6 6 6 7 6 6 6 6
6 6 7 6 6 2 2 6 2 7 2 2 2 6 6 5
6 6 6 6 6 6 5 7 6 6 6 6 6 5 7 6
6 2 2 6 5 6 13 77 13 142 151 77 14 142 14 77
142 143 6 6 111 109 111 239 5 5 110 5 5 1 5 238
79 108 79 110 110 111 111 111 110 5 5 1 1 5 1 5
149 139 140 13 137 140 140 13 13 141 139 142 1 5 5 1
1 6 6 1 5 5 1 1 1 1 6 1 6 1 6 5
5 1 1 133 132 131 131 131 140 94 136 97 95 97 97 93
95 95 96 107 3 103 105 3 103 3 107 3 103 105 107 3
3 107 76 140 102 72 137 137 137 105 137 98 139 100 98 98
6 6 6 7 7 6 6 6 6 6 7 6 6 7 7 7
7 7 6 2 2 7 7 7 2 7 2 8 2 7 7 7
8 7 2 7 2 7 7 6 7 7 6 8 0 8 2 2
2 2 2 2 2 2 2 2 2 2 2 2 2 2 2 2
2 2 2 2 2 76 151 78 78 78 76 140 151 151 141 149
13 7 7 7 7 7 6 6 6 6 6 7 7 6 6 6
6 6 7 7 7 7 7 7 7 7 2 1 1 1 2 78
14 78 15 238 15 238 15 14 15 142 143 6 5 6 6 6
6 5 6 6 6 6 6 2 2 2 6 2 2 7 8 7
8 8 7 7 7 7 7 7 7 7 7 6 7 7 7 7
7 7 7 7 7 8 8 7 8 7 8 7 8 7 7 7
7 7 7 7 7 7 7 7 7 7 7 7 7 7 7 7
7 8 8 110 5 110 78 78 143 143 14 14 14 13 14 14
14 14 109 109 111 111 5 1 5 5 111 5 5 1 5 2
2 111 5 111 110 110 110 110 110 14 14 15 79 15 74 142
149 140 140 13 139 149 139 142 13 141 139 142 1 5 5 1
1 6 6 1 5 5 1 1 5 5 1 1 6 1 6 79
5 5 1 136 136 136 134 98 140 98 137 97 97 98 98 95
97 96 99 107 3 103 3 3 101 3 107 3 103 3 107 3
3 107 149 73 141 73 139 137 137 106 137 100 139 100 100 100
6 6 6 6 6 6 6 6 6 6 7 6 6 7 7 6
6 7 6 2 7 7 7 7 2 7 2 2 2 7 7 2
8 7 7 7 7 7 6 6 7 7 6 0 0 0 1 1
1 1 1 2 2 2 2 2 1 1 2 2 2 2 2 2
2 1 2 1 1 149 149 142 13 13 13 149 78 13 13 13
13 6 6 6 7 5 5 5 6 5 5 5 6 5 5 6
5 5 6 7 6 5 6 6 2 2 2 1 111 79 239 79
78 238 238 78 78 238 238 14 15 14 143 109 109 109 109 109
110 5 110 109 110 109 78 110 1 239 79 238 238 7 6 6
1 5 5 5 7 6 5 5 5 5 5 7 5 5 5 5
5 6 7 5 5 1 1 6 2 7 6 6 1 5 5 6
7 6 5 5 5 5 5 6 5 5 5 5 5 6 2 5
5 6 1 111 5 111 141 142 141 141 142 143 139 142 139 13
142 138 111 111 5 111 5 1 5 5 111 5 5 1 5 238
150 143 15 107 106 106 107 107 111 107 15 15 78 15 238 15
142 139 140 142 139 140 139 13 142 141 140 142 1 5 5 1
1 6 1 1 5 5 1 1 5 1 6 1 1 1 1 5
1 5 1 136 136 136 134 98 140 99 137 97 97 98 98 96
97 97 99 106 3 101 3 103 100 3 107 3 101 3 106 3
3 107 76 140 141 73 139 139 139 107 139 101 101 100 100 101
111 111 5 6 6 5 111 111 111 5 5 5 5 5 6 6
6 5 5 5 5 1 1 1 1 1 2 2 2 1 1 1
1 1 5 5 5 5 6 6 6 5 5 0 0 0 79 1
5 5 5 6 1 1 5 5 1 1 1 1 1 1 1 1
1 1 5 5 5 147 137 139 141 141 137 147 139 139 139 139
141 6 6 6 7 6 6 6 6 6 6 6 6 6 6 6
6 6 6 7 6 6 6 2 2 2 2 1 1 1 1 15
79 79 78 79 238 79 15 15 238 14 142 111 111 111 5 5
5 5 111 110 5 5 1 1 1 1 1 1 1 7 2 7
2 6 6 6 7 2 6 6 6 6 6 6 6 6 6 6
6 2 7 6 6 2 2 2 2 7 2 2 2 6 6 6
7 6 6 6 6 6 6 6 6 6 6 6 6 6 7 6
6 2 2 111 5 111 141 141 143 142 142 14 140 143 140 14
142 140 111 111 5 111 5 1 5 5 111 5 5 1 5 79
238 15 110 109 108 109 109 108 111 107 15 15 79 78 238 15
149 139 140 142 139 140 139 141 149 140 139 140 1 5 79 1
1 6 1 1 5 5 5 1 5 5 1 1 1 6 1 5
5 1 1 136 136 136 135 99 140 99 137 98 97 99 98 97
98 97 99 106 103 100 3 103 100 3 106 103 100 3 106 103
3 106 76 139 141 73 139 139 139 107 139 101 101 101 100 101
5 5 5 6 6 5 5 5 5 6 6 5 5 6 5 6
6 1 5 5 6 6 2 2 6 2 2 7 2 2 2 6
2 6 6 5 5 1 6 6 5 6 5 0 0 8 1 1
5 5 1 6 1 1 5 5 1 1 1 5 1 1 1 1
1 1 111 5 5 140 139 140 142 149 137 140 141 142 141 137
142 6 6 6 7 6 6 6 6 6 6 6 6 6 6 6
6 6 2 7 6 6 6 6 2 2 2 1 1 1 1 13
14 14 143 13 13 14 14 14 15 140 141 5 111 111 5 5
5 6 5 111 5 5 1 1 1 1 1 1 1 7 2 7
2 6 6 6 7 2 6 2 6 6 6 6 6 6 6 6
6 2 7 6 6 2 2 7 2 7 2 7 2 6 6 6
7 2 6 2 6 6 6 6 6 6 6 6 6 6 7 6
6 6 2 111 5 111 141 142 143 141 142 13 140 143 140 13
142 141 111 111 5 111 5 1 5 5 111 5 5 1 5 79
238 15 110 109 108 109 109 109 111 108 15 15 79 111 238 15
149 139 140 142 139 139 139 149 149 140 139 140 1 5 79 5
1 6 1 1 5 5 5 1 5 5 1 6 1 1 1 5
5 5 1 136 137 136 135 99 140 99 137 98 97 99 98 98
98 97 99 105 103 100 3 103 100 103 106 103 100 3 105 103
103 106 79 77 77 78 109 109 109 108 108 107 105 107 105 108
5 5 6 6 6 6 5 5 5 6 6 1 5 6 6 6
2 6 1 6 6 6 2 2 2 2 2 7 2 2 2 2
2 6 6 6 5 6 2 6 6 6 5 8 8 8 1 1
5 5 1 6 1 6 5 5 1 1 1 5 1 1 1 6
1 6 5 5 1 149 139 140 142 149 139 149 141 142 141 139
142 2 2 6 7 6 6 6 6 6 6 6 6 6 6 2
6 6 2 7 6 6 6 6 2 7 2 1 1 1 1 13
14 78 13 15 13 15 15 14 15 140 14 5 111 111 5 5
5 6 5 5 5 5 5 1 1 1 1 1 5 7 7 7
2 2 6 6 7 2 6 6 6 6 6 7 6 6 2 6
6 2 7 6 6 2 2 7 2 7 7 2 2 2 2 6
7 2 6 6 6 6 6 6 6 6 2 6 6 6 7 6
2 6 2 111 6 111 141 141 143 141 142 142 140 142 140 13
141 141 111 5 5 5 5 1 5 5 111 5 5 5 5 79
238 108 110 109 108 109 109 109 5 109 15 111 79 111 15 15
149 139 140 140 139 139 139 139 140 140 140 140 1 5 5 5
1 1 1 1 5 111 5 1 5 5 5 1 1 1 1 5
1 5 1 137 137 136 97 99 142 101 137 98 98 99 99 98
98 97 99 105 101 98 103 101 98 103 105 101 98 103 105 101
103 105 72 72 140 68 137 137 137 137 139 137 137 137 100 101
5 5 6 6 6 6 5 5 5 6 6 6 6 6 6 6
2 6 1 6 6 6 2 2 2 2 2 7 2 2 2 2
2 6 6 6 5 6 2 6 6 6 6 8 8 8 1 1
1 5 1 1 1 6 5 5 1 1 1 5 5 6 6 6
1 1 5 5 5 149 139 140 142 149 139 149 139 13 141 139
142 2 2 2 7 6 6 6 6 6 6 6 6 6 6 2
6 6 2 7 6 6 6 6 2 7 2 1 5 1 1 13
14 15 14 15 13 15 15 14 15 141 13 5 111 111 5 5
5 6 5 111 5 5 5 1 1 1 1 1 5 7 2 7
2 2 6 2 7 2 6 6 6 6 6 7 6 6 2 6
6 2 7 2 6 2 2 7 2 7 7 2 2 2 2 6
7 2 6 6 6 6 6 6 6 6 2 6 6 6 7 6
2 6 2 5 6 5 140 140 143 142 140 142 140 142 140 142
140 140 6 6 6 6 6 1 1 5 5 1 5 1 5 79
238 108 110 109 108 109 109 109 5 108 15 111 79 111 15 15
149 140 140 140 139 139 139 139 140 139 139 140 1 1 5 5
1 1 1 5 5 111 5 1 5 1 5 1 1 1 1 1
5 79 1 137 137 136 98 99 142 101 137 99 98 99 98 98
98 98 99 3 101 98 103 101 97 101 105 101 98 103 3 101
101 105 149 142 142 74 139 137 139 102 139 139 101 102 101 102
5 5 6 6 6 6 5 5 6 6 6 6 6 6 6 6
2 6 1 6 6 6 2 2 2 2 2 7 2 2 2 6
2 6 6 6 5 6 2 6 6 6 6 8 8 8 1 1
5 5 1 6 1 6 5 5 1 1 5 5 5 1 1 6
1 6 5 5 5 149 139 140 142 142 139 149 140 13 141 140
142 2 2 2 7 6 6 6 6 6 6 6 7 6 6 6
6 6 2 7 6 6 6 6 2 7 2 1 1 1 1 14
14 15 14 14 14 78 14 14 14 141 141 5 111 5 5 5
5 6 5 5 5 1 1 1 2 1 1 1 1 8 7 7
2 7 7 7 7 7 6 7 6 6 6 7 6 6 6 6
6 7 7 7 7 7 7 7 7 8 7 7 7 7 7 7
7 7 7 7 6 6 7 7 6 6 6 6 6 7 7 6
7 6 7 5 5 5 140 140 143 141 139 142 140 141 140 143
140 140 111 111 5 5 6 2 6 6 6 6 6 2 7 79
79 109 79 109 109 109 109 109 5 109 15 111 79 111 15 15
149 140 139 140 139 139 139 139 140 139 140 140 1 1 5 5
1 1 1 5 5 111 5 5 5 5 5 1 1 5 5 79
1 79 1 137 137 136 97 99 142 101 137 99 98 99 98 98
98 98 99 3 101 97 101 101 97 101 3 101 97 101 3 101
101 3 13 13 13 13 13 142 108 107 142 106 106 106 105 107
5 5 6 6 6 6 5 5 6 6 6 6 6 6 6 6
2 6 6 6 6 6 2 2 2 2 2 7 2 2 2 6
2 6 6 6 6 6 2 6 6 6 6 8 8 8 1 1
5 5 5 6 6 1 5 5 1 1 1 5 1 6 1 1
1 1 5 1 1 149 139 139 13 149 139 149 140 142 141 139
140 7 8 8 8 7 7 8 7 7 8 7 7 8 8 7
7 7 8 7 7 8 7 7 8 8 8 8 7 7 8 14
14 14 13 14 13 15 13 14 14 140 141 6 6 6 6 6
6 6 6 6 7 6 1 2 2 2 2 2 6 8 8 7
7 7 7 7 7 7 7 7 7 7 7 7 7 7 7 7
7 7 7 7 7 7 8 8 8 8 8 7 7 8 8 7
7 7 7 7 5 5 5 109 7 7 7 7 7 7 7 7
7 7 8 111 5 111 140 141 74 141 140 142 139 141 137 141
141 140 5 5 5 5 5 2 5 5 5 5 5 5 111 1
1 6 5 6 6 6 5 6 5 5 5 1 1 1 5 5
73 140 137 140 147 139 147 139 140 139 137 140 1 1 5 111
5 5 1 5 79 5 5 5 79 5 5 1 1 111 5 1
111 5 1 137 137 137 98 99 142 101 137 99 98 99 99 98
98 97 99 3 101 97 101 100 95 101 3 101 97 101 3 101
101 3 149 70 133 64 133 131 94 102 136 133 131 92 92 94
5 6 6 6 6 6 6 5 6 6 6 6 6 6 6 6
2 6 6 6 6 6 2 2 2 2 2 7 2 2 2 6
2 6 6 6 6 6 2 7 6 6 6 8 8 8 1 1
5 5 1 6 6 1 5 5 5 1 5 5 5 1 6 1
1 1 5 1 1 149 147 140 13 149 139 149 139 142 140 139
140 6 6 6 6 6 6 6 6 6 6 6 6 6 6 6
6 6 2 6 2 6 6 6 2 7 2 1 1 1 79 14
13 14 13 14 13 15 14 143 14 140 140 5 5 5 111 5
5 5 5 5 5 1 1 1 1 1 1 1 5 7 7 7
2 2 6 7 7 2 2 6 6 6 6 6 6 6 6 6
6 2 7 7 6 2 7 7 7 7 7 7 2 2 6 6
6 2 6 108 5 6 6 8 6 6 6 6 2 6 2 6
2 6 7 5 5 5 140 141 140 141 140 142 139 141 137 140
140 141 109 109 5 5 5 2 5 5 5 5 1 1 5 239
79 109 110 109 108 109 15 15 15 109 15 111 111 111 111 111
149 139 137 140 147 137 137 139 139 147 139 139 1 5 5 5
5 5 1 5 79 79 5 5 5 5 5 1 5 111 5 5
5 5 5 142 140 140 101 102 107 104 140 101 101 101 100 101
100 98 101 3 100 95 101 100 95 101 3 100 95 101 3 100
101 3 76 75 141 75 140 141 141 104 139 101 139 102 102 102
5 6 6 6 6 6 6 5 6 6 6 6 6 6 6 6
2 6 6 6 6 6 2 2 2 2 2 7 2 2 2 6
2 6 6 6 6 6 2 6 6 6 6 8 8 8 1 1
5 5 5 1 1 1 5 5 5 1 5 5 5 1 1 1
1 5 1 5 5 149 147 139 142 139 137 140 139 142 140 140
140 7 6 2 7 6 6 6 2 6 6 6 6 6 6 6
6 2 2 6 6 6 6 6 7 7 7 1 1 1 1 14
13 14 13 13 143 15 14 13 14 140 140 5 5 5 111 5
5 5 5 5 1 1 1 2 1 1 1 1 1 7 7 7
2 2 2 7 7 7 7 7 7 7 7 7 7 7 7 7
7 7 7 7 2 7 7 7 7 7 7 7 7 7 2 7
7 7 7 110 5 5 6 8 7 7 7 7 7 7 7 7
2 7 7 5 5 5 140 142 13 142 141 142 139 140 138 140
140 141 6 6 110 109 111 239 5 6 6 6 1 2 5 239
79 110 78 109 109 110 110 110 110 109 111 79 79 79 15 15
156 139 137 140 147 137 137 147 140 139 139 139 5 5 5 5
5 5 1 5 79 111 5 5 5 5 79 1 1 79 79 79
5 5 5 109 109 110 109 108 109 107 107 106 105 106 106 105
104 107 106 3 100 95 101 100 95 100 3 100 95 101 3 100
100 3 149 74 141 76 142 141 141 104 141 102 141 102 102 104
5 5 6 6 6 6 5 5 6 6 6 6 6 6 6 6
2 6 5 6 6 6 2 2 2 2 2 7 2 2 2 6
2 6 6 6 6 6 2 7 6 6 6 8 8 8 1 1
5 5 5 1 1 1 5 5 5 1 5 5 5 1 1 1
1 1 1 1 5 149 139 139 142 140 137 140 140 149 139 139
140 7 7 7 7 7 7 7 7 7 7 7 7 7 7 7
7 7 7 7 7 7 7 7 7 7 7 2 2 6 2 14
13 14 13 13 143 14 14 14 13 140 140 6 6 6 6 6
1 6 5 5 1 1 1 1 1 1 1 1 1 7 2 2
7 2 2 6 7 2 6 6 6 6 7 7 7 6 6 6
6 2 7 6 2 2 2 7 2 7 2 7 7 2 6 6
6 2 7 109 110 5 127 0 7 6 6 6 6 6 6 6
7 2 2 7 7 7 140 140 141 141 140 142 139 140 138 140
141 141 6 5 6 6 6 1 5 111 110 5 110 1 111 238
239 111 79 5 5 5 111 5 111 110 111 5 79 79 111 15
73 139 147 140 137 137 137 137 139 139 139 139 5 5 5 5
79 5 1 79 5 111 5 5 5 1 111 1 5 111 79 79
5 5 5 138 104 104 104 104 104 104 106 106 106 106 106 106
105 106 107 103 100 95 100 98 94 100 3 100 95 100 103 100
100 3 149 137 137 69 134 134 135 105 133 96 135 96 96 96
5 6 6 6 6 6 6 5 6 6 6 6 6 6 6 6
2 6 6 6 6 6 2 2 2 2 2 7 2 2 2 6
2 6 6 6 6 6 2 7 6 6 6 8 8 8 1 1
1 5 5 1 1 1 5 5 5 1 5 5 1 1 1 1
5 1 5 5 79 149 139 139 142 139 137 139 139 140 139 147
140 6 5 5 7 6 6 6 5 5 5 6 6 5 5 5
6 6 6 6 5 5 6 6 1 1 2 1 239 78 238 14
14 14 13 13 143 14 14 14 14 141 139 109 109 109 109 109
110 5 110 111 111 111 79 239 5 238 79 1 1 6 5 6
2 2 6 6 7 6 6 6 6 6 6 7 6 6 6 6
6 6 7 6 6 2 2 6 2 7 2 2 2 6 6 5
6 6 6 110 5 5 6 8 6 5 6 6 6 6 7 6
6 2 2 5 111 5 140 141 143 141 141 142 139 140 138 141
141 141 6 7 7 7 5 1 2 6 6 6 1 1 5 15
238 107 15 143 3 107 107 107 110 109 78 79 5 79 79 79
140 139 139 140 137 137 137 147 139 147 139 139 1 5 5 5
79 5 1 5 5 111 5 5 5 1 111 1 5 111 111 111
5 5 5 138 137 136 99 137 154 136 136 136 135 136 136 137
137 101 101 3 100 95 101 100 95 100 3 100 95 101 3 100
100 3 76 140 102 72 137 137 137 105 137 98 139 100 98 98
5 5 6 6 6 6 5 5 6 6 6 6 6 6 6 6
2 6 5 6 6 6 2 2 2 2 2 7 2 2 2 6
2 6 6 6 6 6 2 7 6 6 6 8 8 8 1 1
1 5 79 1 1 1 5 5 5 1 79 79 5 1 1 1
5 5 79 5 5 149 139 147 142 139 147 139 139 140 139 137
140 2 6 6 7 6 6 6 6 6 6 6 7 6 5 6
6 6 2 6 6 6 6 2 2 2 2 1 1 5 1 14
13 14 13 14 142 15 14 13 13 140 140 6 6 5 6 1
6 6 6 1 1 6 6 2 2 8 6 2 7 6 111 7
8 8 7 7 7 7 7 7 7 7 7 7 7 7 7 7
7 7 7 7 110 5 127 7 126 127 8 7 8 7 7 7
7 7 7 108 110 5 127 0 7 7 7 7 7 7 7 7
7 8 8 6 7 8 140 143 74 142 140 142 140 140 140 141
139 140 6 7 7 7 7 7 7 8 7 5 5 2 6 2
1 111 79 110 108 109 108 108 110 13 14 143 15 13 74 142
139 140 147 140 137 137 137 139 147 139 140 147 1 5 5 5
79 79 1 5 5 111 5 5 5 5 5 1 79 111 79 111
1 1 79 140 138 136 101 101 140 101 138 137 98 98 100 99
99 98 99 3 100 95 101 100 95 101 3 100 95 101 3 100
101 3 76 73 141 73 139 137 137 105 137 100 139 100 98 100
5 6 6 6 6 6 6 5 6 6 6 6 6 6 6 6
2 6 6 6 6 6 2 2 2 2 2 7 2 2 2 2
2 6 6 2 6 6 2 7 2 6 6 8 8 7 1 1
1 5 111 5 1 1 79 79 5 1 79 79 5 1 1 1
5 5 111 5 5 73 139 137 141 139 147 139 139 140 139 147
139 6 7 7 7 7 7 7 7 7 7 7 7 7 7 7
7 7 7 7 7 7 7 8 8 8 8 2 2 1 2 14
13 14 13 14 142 14 13 14 13 140 140 5 5 5 1 1
1 5 111 111 111 111 5 239 1 1 7 8 7 0 6 6
6 5 5 5 6 7 7 6 7 8 8 7 7 8 6 6
5 126 125 111 5 110 111 124 127 5 127 127 127 6 6 5
6 5 6 109 1 7 8 8 7 8 7 7 6 6 5 6
5 6 7 7 7 7 141 143 143 142 140 142 141 142 140 140
140 141 6 7 7 8 7 7 8 6 6 5 5 5 6 6
15 110 79 111 111 5 5 5 110 79 5 79 79 15 238 15
149 139 140 140 137 137 139 137 147 147 139 147 5 1 1 79
79 79 1 5 5 111 5 1 5 5 79 1 79 79 79 111
5 1 79 140 138 136 101 101 140 101 137 137 97 98 101 99
99 99 100 3 101 97 101 100 95 101 3 101 97 101 3 101
101 3 76 74 141 73 139 137 137 105 139 100 101 100 98 100
6 7 6 7 7 6 7 6 6 6 6 2 6 7 7 7
7 7 7 7 7 7 8 8 7 8 7 8 7 8 8 7
8 7 7 7 7 7 7 7 7 7 7 8 8 8 1 1
5 1 5 5 1 1 79 79 5 5 5 79 79 1 1 79
5 79 79 1 5 149 139 139 141 139 137 139 139 140 139 139
139 6 6 6 7 7 8 7 7 7 7 6 6 6 5 5
5 5 6 6 7 7 7 7 7 7 7 8 6 6 5 14
14 14 13 13 143 13 13 14 14 140 139 7 6 6 5 5
5 5 5 6 6 7 7 7 7 7 7 7 7 6 6 5
5 5 5 5 6 6 7 7 7 7 7 7 8 6 6 5
5 5 127 2 2 6 127 126 127 238 238 1 127 7 6 6
5 5 5 5 111 5 6 0 7 7 7 7 7 8 6 6
5 5 5 5 5 6 141 13 14 13 142 142 142 142 143 141
141 141 5 5 5 6 6 7 7 8 7 7 7 7 7 6
6 5 5 5 5 6 6 107 110 111 111 79 1 5 1 5
142 140 140 140 137 137 139 147 147 140 140 140 1 5 5 79
1 5 1 5 5 111 5 1 5 1 79 5 79 79 79 111
1 1 1 142 141 141 104 104 141 103 140 140 103 103 100 100
99 100 100 3 101 97 101 101 97 101 3 101 97 101 3 101
101 3 76 141 141 73 139 137 137 105 139 101 101 101 98 100
7 7 7 7 7 7 7 7 7 7 7 7 7 7 7 7
7 7 7 7 7 7 8 8 7 7 7 8 7 7 7 7
8 7 7 7 7 7 7 6 7 7 6 8 8 8 5 5
5 1 5 5 1 1 79 79 5 5 5 111 5 1 1 1
5 79 5 1 5 156 139 139 141 147 137 139 140 140 139 139
139 6 6 7 7 6 7 7 7 6 7 7 7 7 8 7
7 7 7 6 6 7 7 6 7 7 6 6 7 7 7 14
13 14 14 14 14 15 13 13 14 140 140 7 6 6 7 7
7 7 8 8 7 7 7 6 6 7 7 6 7 7 6 6
7 7 7 7 8 8 7 7 7 6 6 7 6 6 7 7
6 6 7 7 7 7 8 8 7 7 7 6 6 7 6 6
7 7 6 6 7 7 7 7 8 8 7 7 7 6 7 7
6 6 7 6 6 6 142 13 77 14 142 14 143 14 142 142
143 141 7 6 8 6 6 6 7 7 7 6 7 8 8 7
6 6 7 7 7 6 8 6 6 6 7 7 7 6 238 14
73 139 147 140 139 137 139 137 147 139 140 140 1 1 5 79
1 5 1 5 5 111 5 1 5 1 5 5 79 79 5 111
1 1 1 139 139 137 103 103 141 104 142 3 3 3 3 104
103 104 104 3 101 98 103 101 97 101 105 101 98 103 3 101
101 105 76 141 141 73 139 139 137 106 139 101 101 101 100 100
6 6 6 6 6 6 6 6 6 6 6 1 6 6 6 6
6 6 6 6 6 6 2 2 2 2 2 2 2 2 2 2
2 6 6 1 6 1 6 6 6 6 6 8 8 8 5 1
5 5 5 5 1 1 5 5 5 5 5 111 1 1 1 5
5 79 5 1 5 156 139 139 140 139 137 139 139 139 147 140
147 6 6 6 5 5 6 6 6 7 7 7 6 6 5 6
6 7 6 7 6 6 6 6 5 5 6 6 7 6 8 15
14 14 14 14 14 78 14 14 14 140 143 5 5 6 6 6
7 8 7 6 6 5 6 6 6 7 7 6 6 6 6 5
5 6 6 6 7 8 6 6 5 6 6 6 8 7 6 6
6 6 6 5 6 6 6 7 8 8 6 6 5 6 6 6
7 7 6 6 6 6 5 5 6 6 6 7 7 6 6 5
6 6 6 8 7 6 14 14 77 151 14 14 14 14 14 14
14 141 6 5 6 6 7 6 7 6 6 6 6 5 5 6
6 6 6 8 6 6 5 6 6 6 8 7 6 6 6 6
140 139 139 140 137 137 137 136 139 139 139 140 1 1 1 79
1 1 1 79 5 79 5 1 5 1 5 1 79 79 5 79
5 5 1 132 131 129 129 94 140 101 134 94 101 101 99 99
101 104 105 105 103 100 103 101 98 103 105 103 100 103 105 103
103 105 76 140 141 73 139 139 139 107 139 101 101 100 100 101
6 6 6 6 6 6 6 6 6 6 6 6 6 6 6 6
6 2 6 6 6 6 2 2 2 2 2 2 2 2 7 2
2 6 6 6 6 2 6 6 6 6 6 8 8 8 1 1
5 1 79 5 1 1 79 5 5 5 5 111 5 1 5 5
79 79 1 5 5 149 139 147 140 137 137 139 139 139 147 139
147 6 7 8 6 6 7 7 7 7 7 7 6 6 5 7
6 6 6 6 5 5 6 7 8 6 6 7 7 7 14 78
15 78 14 15 238 15 14 14 14 142 142 14 143 13 14 14
14 13 15 15 14 13 13 13 14 14 14 15 15 13 14 143
13 14 14 14 15 15 15 14 143 13 13 14 14 13 15 15
13 14 13 13 14 14 14 15 15 15 14 143 13 14 14 14
13 15 15 13 13 13 13 14 14 14 15 15 13 14 143 13
14 14 14 15 15 15 13 78 13 142 151 77 14 151 14 77
142 143 137 13 76 142 141 151 13 13 13 141 13 13 13 142
142 151 13 76 77 76 151 77 77 76 76 77 77 151 77 77
139 140 147 140 137 137 137 139 139 147 140 147 1 5 5 79
5 5 1 5 5 111 5 5 5 5 79 1 5 111 79 111
1 5 79 136 138 135 94 130 140 97 131 129 129 130 89 90
89 89 99 105 103 100 3 103 100 103 106 103 100 3 105 103
103 106 76 139 141 73 139 139 139 107 139 101 101 101 100 101
6 6 6 6 6 6 6 6 6 6 6 6 6 6 6 6
6 6 6 6 2 6 2 2 2 7 2 2 2 7 7 2
2 6 2 6 6 2 2 6 6 6 6 6 7 8 1 1
5 1 5 79 1 1 5 5 5 5 5 111 5 1 5 79
5 79 1 1 1 140 139 147 140 137 137 140 139 139 139 140
140 6 6 6 6 6 6 6 6 7 7 7 7 7 6 7
7 7 7 8 6 7 7 6 6 6 14 78 14 14 140 78
15 78 15 78 15 238 78 14 15 13 143 78 13 15 15 78
15 13 78 15 15 13 15 13 78 15 13 78 15 13 15 13
14 78 78 14 14 78 15 15 13 15 13 15 15 13 78 15
13 15 14 14 78 15 14 15 78 15 78 13 15 15 78 15
13 78 15 13 13 14 13 78 15 13 15 15 13 15 13 14
78 78 14 14 78 15 142 13 140 140 141 141 138 140 139 141
141 141 140 143 142 139 140 143 142 142 138 141 141 143 142 141
138 143 142 138 141 137 140 142 142 141 137 142 143 140 141 138
149 139 139 140 137 137 137 147 147 147 140 147 1 5 5 5
79 79 1 5 5 111 5 5 5 5 5 1 79 111 79 111
1 1 79 157 118 121 153 101 95 98 136 95 95 95 96 92
94 95 95 106 103 100 3 103 100 3 106 103 100 3 106 103
3 106 79 111 111 1 109 111 111 108 109 109 109 109 109 109
6 6 6 6 6 6 6 6 6 6 6 6 6 6 6 6
2 2 6 6 2 6 2 2 7 7 2 2 2 7 7 2
7 6 6 6 8 6 6 6 5 5 5 5 5 5 1 1
1 1 79 79 1 1 5 5 5 5 5 79 5 1 5 79
5 5 5 5 1 141 140 147 140 137 137 140 140 139 139 140
140 7 6 6 6 7 6 6 5 5 5 5 5 5 6 6
7 6 7 7 8 7 14 151 77 151 142 142 142 138 140 79
238 238 238 78 238 238 15 14 15 244 241 242 242 241 244 244
241 244 241 242 241 243 243 241 243 242 244 242 243 243 243 243
243 242 244 243 244 243 243 242 243 244 243 244 242 242 243 241
243 243 207 243 243 242 243 243 241 243 243 243 242 243 242 241
207 243 207 242 241 243 244 243 243 243 241 244 244 243 243 243
243 241 243 243 207 243 242 244 143 141 142 14 139 143 139 13
142 140 142 140 139 141 140 140 140 70 138 140 142 135 146 136
136 136 136 136 135 135 136 135 146 136 137 136 141 141 142 138
142 140 140 140 137 137 139 147 147 139 139 139 1 1 1 79
5 79 1 5 5 111 5 1 5 5 111 1 79 79 5 111
5 1 5 134 154 101 156 101 105 0 142 103 101 101 101 99
97 98 99 106 3 101 3 103 100 3 107 3 101 3 106 3
3 107 72 140 141 70 137 137 137 100 139 137 137 139 137 101
6 7 8 7 8 7 7 8 8 7 8 7 7 7 7 7
8 7 7 7 7 7 7 7 6 7 7 7 6 6 6 6
6 5 5 5 5 5 6 6 7 7 8 8 6 5 1 1
5 1 79 5 1 1 5 5 5 5 5 111 1 5 5 79
1 79 1 1 1 149 139 147 139 137 137 140 140 139 137 139
139 6 6 5 5 5 5 5 5 5 6 6 7 7 8 7
6 5 151 13 78 14 142 140 141 14 14 143 243 241 241 245
244 241 241 244 241 241 245 140 76 14 143 14 14 14 13 142
77 14 13 14 143 14 14 14 13 142 77 14 13 14 143 14
14 14 13 142 77 14 13 14 143 14 14 14 13 142 77 14
13 14 143 14 14 14 13 142 77 14 13 14 143 14 14 14
13 142 77 14 13 14 143 14 14 14 13 142 77 14 13 14
143 14 14 14 13 142 77 14 13 140 142 13 141 143 139 14
142 141 140 140 140 140 140 140 140 141 142 141 140 138 141 141
141 140 140 140 140 142 142 142 142 142 139 138 139 142 139 141
73 140 140 140 139 137 139 137 147 139 140 140 1 5 5 79
1 5 1 5 5 111 5 1 5 1 79 5 79 79 79 111
1 1 1 153 154 156 107 126 6 5 107 106 106 106 106 104
105 105 104 78 70 141 140 141 72 147 138 136 140 141 149 142
142 142 142 148 150 142 142 151 142 139 141 139 137 102 98 102
8 8 8 8 8 8 8 8 8 8 8 8 8 7 7 8
7 6 6 7 7 5 5 5 5 6 5 6 6 6 6 6
7 6 8 7 7 7 7 7 7 7 8 8 7 5 1 1
1 1 79 5 5 1 5 5 5 5 5 111 1 5 5 79
5 5 1 1 1 142 140 147 139 147 137 139 140 139 147 140
147 5 6 6 6 6 127 6 7 7 7 7 7 8 13 149
78 142 14 140 141 142 151 140 143 243 241 242 244 242 243 242
243 243 243 242 141 77 148 138 138 143 143 143 14 13 141 141
14 13 140 143 143 143 14 13 141 141 14 13 140 140 143 143
14 13 143 141 14 13 140 140 143 143 14 13 143 141 14 13
140 143 143 143 14 13 141 141 14 13 140 140 143 143 14 13
141 141 14 13 140 143 143 143 14 13 141 141 14 13 140 140
143 143 14 13 141 141 14 13 143 141 142 13 141 142 141 13
141 141 206 207 241 242 241 241 206 141 140 140 142 140 139 138
139 139 142 140 141 138 141 141 140 139 142 139 139 142 142 140
73 140 147 140 147 137 139 147 147 137 139 140 1 1 5 79
1 5 1 5 5 111 5 1 5 1 5 5 79 79 5 111
1 1 1 155 157 157 159 126 0 111 133 101 101 101 104 103
104 107 106 75 77 151 107 107 77 150 142 142 140 101 140 140
101 101 137 136 95 141 141 142 148 143 140 141 142 108 150 150
8 7 8 7 8 8 7 7 7 7 7 6 6 6 6 7
5 6 6 6 6 5 6 6 7 6 6 6 7 7 7 7
8 8 8 7 7 7 7 7 6 6 6 6 6 5 1 1
5 5 5 5 1 1 5 5 5 5 5 111 1 1 5 5
5 111 5 79 5 73 139 139 140 139 137 139 139 139 147 139
147 6 8 6 6 7 6 7 7 7 77 142 78 77 14 139
140 140 143 140 139 142 243 241 243 243 242 243 242 242 244 241
241 241 75 143 138 141 148 141 242 242 241 242 241 242 207 206
242 241 241 206 241 207 206 243 242 206 206 242 242 242 242 241
206 241 207 206 243 242 241 241 206 241 207 206 132 130 95 241
242 206 206 241 241 206 241 207 206 207 206 242 242 242 207 241
242 207 206 243 241 242 206 243 242 242 242 207 241 242 207 206
242 242 242 242 207 206 242 241 243 242 207 206 243 242 242 242
242 207 206 242 241 241 242 241 242 207 206 242 241 206 242 242
242 242 241 242 241 242 207 206 242 241 241 206 241 207 206 243
149 141 147 140 140 140 140 137 147 137 147 140 1 1 5 79
79 1 1 5 79 79 5 1 5 1 79 79 111 79 5 79
79 1 1 159 110 6 7 6 6 5 131 129 129 129 129 92
94 94 102 148 72 142 141 141 77 151 151 107 107 106 143 107
102 104 142 142 103 138 101 101 100 97 94 97 97 98 139 139
7 8 7 7 6 6 6 6 6 6 5 5 5 5 5 5
5 6 6 7 6 6 7 7 5 109 109 109 109 110 5 7
7 7 6 6 6 6 6 5 6 5 5 5 5 5 1 1
5 1 79 5 1 1 79 5 5 5 5 111 5 1 5 5
79 79 1 5 5 149 139 139 140 137 137 140 139 139 139 139
140 7 6 7 7 110 77 13 78 151 14 140 142 141 140 149
13 141 143 207 243 244 242 243 243 243 244 207 243 244 243 76
77 141 140 136 141 142 242 242 241 242 241 242 207 206 242 241
241 242 242 207 241 242 207 206 243 241 242 206 206 241 37 242
241 242 207 206 242 241 241 242 241 242 241 242 187 136 131 134
242 206 206 241 241 206 241 242 207 206 242 241 241 242 241 242
207 206 242 206 243 241 242 206 206 241 241 206 241 207 206 206
242 241 241 242 241 242 207 206 242 241 243 241 242 206 206 241
241 206 241 207 206 243 242 241 241 242 241 242 207 206 242 241
243 242 207 206 206 241 241 206 241 207 206 243 242 241 241 206
13 142 147 140 140 140 140 137 139 139 139 140 1 1 5 79
79 5 1 1 5 5 5 1 1 1 5 5 79 79 5 79
79 5 1 154 156 159 111 0 0 5 136 97 95 94 94 92
89 89 95 148 68 135 146 138 70 141 141 141 140 103 142 142
102 106 107 107 105 143 106 106 105 104 101 104 103 101 101 103
8 8 8 8 8 8 8 8 8 6 7 8 8 8 6 6
6 6 6 6 6 6 6 6 6 6 8 6 6 6 7 6
8 8 8 8 8 8 8 8 8 6 7 8 8 8 5 1
1 1 79 79 1 1 5 5 5 5 5 111 5 1 5 79
79 79 5 5 1 139 140 147 140 137 136 140 140 139 139 140
140 6 6 77 77 151 77 143 140 141 143 149 13 142 140 243
244 207 243 242 243 243 243 243 207 244 243 207 148 76 143 138
139 148 141 138 242 241 243 243 206 206 207 206 207 241 206 241
241 242 207 206 241 207 204 242 241 206 187 242 241 243 34 31
206 207 206 207 241 206 241 241 242 207 31 27 31 186 123 136
206 241 242 206 243 243 206 206 207 206 207 241 207 241 241 242
207 241 241 207 204 206 241 206 241 242 206 243 243 206 243 207
206 207 242 207 241 241 242 207 241 241 207 243 206 241 206 241
242 206 243 243 241 243 207 206 207 242 207 241 241 206 207 241
241 207 243 206 241 206 243 242 206 243 243 241 243 207 206 243
13 142 141 140 140 140 149 140 140 139 140 139 1 1 1 5
79 1 1 5 1 79 1 1 1 1 5 1 5 79 5 111
1 1 5 154 156 159 111 0 0 6 137 97 97 98 98 96
96 95 96 148 67 135 145 144 62 132 130 130 129 94 134 137
102 102 140 140 104 142 104 104 106 106 106 106 105 106 105 106
5 6 6 6 6 6 6 6 8 7 7 7 7 7 7 7
7 6 7 7 6 6 6 5 5 111 111 111 111 111 111 111
111 5 5 6 6 6 6 6 6 7 7 7 7 7 1 1
1 1 79 79 1 1 5 5 5 5 5 79 5 1 5 79
5 5 5 5 1 141 140 147 140 137 137 140 140 139 137 147
140 78 143 14 140 140 143 138 149 149 13 13 243 243 243 243
243 243 244 243 243 244 207 243 242 207 76 77 143 138 141 141
136 242 242 207 207 241 206 242 207 206 243 207 207 207 241 206
242 207 206 243 207 242 207 242 241 123 186 206 207 241 189 46
189 241 243 207 242 28 242 206 242 241 185 45 189 45 184 184
241 241 206 206 207 242 206 241 241 241 206 206 242 206 242 206
241 241 241 206 206 242 206 206 241 244 206 207 206 242 207 241
241 242 206 206 242 206 242 207 241 242 242 206 242 242 206 242
241 244 242 207 206 242 207 206 242 242 206 242 242 207 242 207
206 242 242 206 242 242 206 242 242 207 242 242 207 242 241 206
151 13 140 142 140 149 149 139 140 140 140 139 2 1 1 1
79 1 1 1 1 5 1 1 1 1 1 1 1 1 5 79
1 1 5 155 157 157 159 126 0 7 137 97 97 98 98 97
96 96 99 148 71 138 147 138 71 138 132 131 132 129 129 134
104 99 136 133 94 133 95 95 101 101 100 101 104 103 104 102
6 7 7 7 7 7 8 7 7 7 6 6 6 6 6 6
5 6 7 6 5 5 5 6 5 6 5 5 6 6 7 6
6 6 6 6 7 7 7 7 7 8 7 7 7 6 1 1
5 1 79 5 1 1 5 5 5 5 5 111 1 5 5 79
1 79 1 1 1 149 139 147 139 147 147 149 140 139 137 147
139 140 141 143 13 138 13 140 149 244 243 207 243 242 243 244
242 207 243 243 207 243 242 75 77 141 141 138 148 141 142 244
207 242 242 207 243 241 207 207 243 242 241 206 206 207 206 242
207 206 206 207 242 241 205 68 183 125 184 28 25 187 189 125
185 185 242 207 33 186 47 34 47 185 35 35 47 47 45 184
241 243 207 242 206 206 207 206 242 207 242 206 207 242 207 207
206 241 206 207 243 242 241 244 243 206 243 244 207 242 242 207
243 241 207 207 243 207 241 207 206 206 206 206 207 206 206 207
242 241 205 206 207 207 242 207 207 206 241 206 207 206 242 207
206 242 207 243 242 207 242 206 207 242 206 205 241 207 207 242
151 13 140 13 140 149 149 141 140 140 140 140 2 1 1 1
1 1 1 1 1 1 1 1 1 1 5 6 1 1 1 79
1 1 1 109 110 6 7 6 6 5 137 98 97 98 98 97
96 97 99 75 72 138 147 147 71 138 136 136 136 132 135 135
104 97 133 133 129 128 128 129 129 129 87 94 95 94 97 102
5 5 6 6 6 6 6 5 8 8 5 6 6 6 6 6
6 6 6 6 6 6 6 6 6 6 5 8 7 5 111 111
111 111 111 5 5 5 6 6 6 6 6 6 5 8 1 1
1 1 79 1 5 1 79 5 5 5 5 5 1 1 5 79
5 5 5 1 5 149 140 147 139 139 139 149 149 139 139 140
139 140 149 13 143 207 207 242 243 243 207 243 245 207 207 242
243 243 242 242 207 76 77 148 138 138 142 142 139 243 206 241
206 207 241 204 242 207 241 206 241 206 242 242 242 242 242 242
241 242 207 241 206 206 185 186 71 185 184 45 36 33 187 181
47 125 187 47 45 186 45 47 47 184 187 47 186 180 185 47
206 241 206 206 241 206 207 241 204 207 207 207 206 241 241 242
207 242 242 242 242 206 242 207 241 206 206 242 243 242 241 241
241 207 243 242 242 241 242 207 206 207 242 206 206 241 242 241
207 207 205 243 207 206 241 206 242 241 206 242 241 243 207 242
207 206 241 241 242 207 242 242 242 242 206 242 207 241 206 206
151 13 140 13 149 142 141 142 149 140 139 140 2 1 1 1
1 5 1 1 1 1 1 1 1 1 1 1 1 1 1 79
5 1 1 154 156 159 111 0 0 5 137 98 97 99 98 97
97 97 99 75 72 138 140 140 71 138 136 136 136 134 136 137
104 99 136 136 97 134 95 94 133 94 92 89 89 89 94 99
8 6 6 6 6 6 6 6 6 5 5 5 5 5 5 5
6 6 5 7 6 6 7 8 8 6 6 6 6 5 5 5
5 5 5 6 6 5 8 7 6 6 6 6 6 6 1 1
1 1 79 1 5 1 79 79 5 5 5 5 1 79 5 111
5 5 79 1 1 73 139 147 139 139 139 140 141 139 140 140
140 140 242 242 243 242 242 242 207 207 243 242 242 242 243 207
242 242 148 77 143 143 138 148 141 138 142 205 242 241 241 207
207 241 243 244 204 243 206 241 207 207 207 242 243 207 207 206
243 207 241 207 241 241 185 41 36 181 187 47 189 45 47 125
126 125 186 185 47 186 40 34 47 47 187 186 186 182 124 47
242 205 205 242 242 241 207 242 241 243 207 204 243 241 241 207
206 207 242 207 207 207 206 243 207 241 207 241 241 244 242 207
241 207 241 207 243 206 244 243 207 206 206 207 207 207 207 243
207 241 206 207 241 207 206 242 205 205 242 242 206 207 242 242
243 207 204 243 241 242 207 206 242 242 207 243 207 206 242 207
151 76 13 13 149 13 141 13 141 141 140 140 2 6 1 1
1 1 6 1 1 1 1 2 1 1 1 1 1 1 1 1
1 1 1 136 154 156 107 126 6 126 137 98 97 99 98 97
97 97 99 75 72 138 140 140 71 136 136 136 136 134 136 137
104 101 137 137 97 135 97 97 136 98 95 95 95 95 92 99
7 6 7 7 7 7 7 7 7 7 7 7 8 6 6 7
8 7 7 6 7 6 6 6 6 6 6 6 6 6 6 6
6 6 8 6 7 6 6 7 7 6 7 7 7 7 1 1
1 1 79 5 5 1 79 1 1 1 1 1 1 1 5 5
5 5 5 1 1 73 140 147 139 139 139 140 149 147 140 140
140 242 244 243 244 242 244 242 242 242 243 244 207 244 243 76
142 76 143 138 136 142 141 139 243 242 243 242 207 242 206 243
244 206 243 241 207 207 242 243 207 206 243 207 206 206 241 207
242 242 207 243 241 241 242 47 186 186 47 186 126 126 47 43
46 47 126 47 124 188 47 47 187 125 43 45 188 45 123 188
205 241 242 207 207 242 242 242 242 242 207 243 205 207 207 242
207 242 242 243 244 206 243 205 207 207 241 241 243 241 243 242
243 242 207 242 242 243 244 206 243 241 207 207 242 243 207 206
243 244 206 206 241 207 242 242 207 243 241 241 242 243 242 243
207 206 243 207 206 206 241 207 207 242 243 207 242 242 207 206
151 76 13 13 13 13 142 13 149 149 140 149 2 6 1 1
1 1 6 1 1 1 2 1 1 1 2 2 1 1 1 1
1 1 1 155 157 157 159 126 0 111 206 243 207 206 206 97
97 97 99 75 72 138 141 138 72 136 137 136 136 135 136 137
104 101 137 137 97 136 97 98 136 98 97 97 96 96 97 99
6 6 6 6 6 5 127 6 6 5 8 7 6 7 7 7
6 8 7 8 7 7 7 8 8 7 6 5 5 5 7 8
111 5 5 5 6 6 6 5 6 6 5 6 6 6 1 1
1 1 5 1 5 1 5 1 1 1 1 5 1 1 5 5
5 5 1 1 1 149 140 140 139 140 149 149 142 140 140 139
140 243 242 244 242 242 243 242 244 244 243 207 243 140 77 143
141 135 148 141 137 142 242 207 207 206 242 241 242 241 241 206
207 243 242 243 243 242 241 242 241 241 242 207 243 242 243 207
243 243 243 243 206 207 207 206 47 187 186 45 45 109 107 107
109 110 110 111 125 185 188 47 40 47 125 242 243 207 124 206
243 243 206 207 243 206 206 243 206 207 241 207 243 241 207 242
206 242 243 206 207 241 206 207 241 207 242 207 243 206 243 242
206 242 243 206 206 243 241 241 242 207 243 241 207 243 206 206
243 206 207 241 207 243 241 207 242 207 243 242 206 242 206 242
243 242 241 242 241 241 242 207 243 242 243 243 206 206 243 241
142 141 13 13 13 13 13 13 149 13 140 142 2 6 1 1
1 6 6 6 1 1 2 1 1 1 2 2 1 1 1 1
1 1 1 155 156 159 111 0 0 5 242 243 206 206 243 241
241 242 207 243 72 138 140 138 72 136 137 136 136 135 136 137
104 101 137 137 97 136 97 98 136 98 97 96 96 96 98 101
5 5 6 6 6 6 6 6 6 8 6 7 6 6 5 6
6 6 7 7 7 8 7 6 5 6 6 5 5 110 110 110
110 109 109 109 109 109 109 109 111 111 111 5 5 6 2 1
1 5 1 1 5 1 5 1 1 1 1 1 1 1 5 1
1 5 1 1 1 76 149 140 140 140 149 142 142 140 141 140
149 243 242 242 207 244 207 243 244 242 142 76 77 143 140 141
137 136 139 142 242 241 205 207 241 241 243 243 241 207 206 241
207 206 241 207 206 242 241 243 207 207 244 206 242 206 207 241
242 242 207 242 241 205 207 241 241 243 207 206 207 206 241 207
206 189 187 187 189 46 47 47 47 188 188 242 206 207 241 47
242 207 242 241 205 207 242 204 204 207 206 207 206 241 207 206
241 207 206 242 241 242 207 206 207 206 242 206 207 241 242 242
207 242 241 206 205 242 204 204 207 206 207 206 241 207 206 241
207 206 207 206 242 207 206 207 206 242 206 207 241 242 242 207
242 244 206 205 242 204 204 207 206 207 206 241 207 206 241 207
149 76 78 151 13 13 13 13 13 13 140 142 2 2 6 1
2 6 6 2 1 2 2 1 1 2 2 2 1 1 1 1
5 1 1 103 157 158 110 7 7 0 241 206 206 242 241 205
207 241 241 243 243 241 242 242 242 136 137 136 136 136 136 137
104 101 137 137 98 136 97 99 136 98 97 97 6 6 7 7
6 6 6 6 6 7 7 7 7 7 7 6 7 7 7 6
6 6 6 5 110 6 8 6 6 5 5 111 111 5 111 111
110 110 110 110 111 111 5 6 6 6 7 6 6 6 2 1
1 1 1 5 1 1 5 1 1 1 1 1 1 1 1 1
1 1 1 1 1 13 142 140 140 140 149 142 142 141 149 140
142 207 244 207 243 243 242 143 75 75 143 148 138 140 138 142
137 136 205 244 241 242 206 205 207 242 241 206 206 243 206 244
207 206 241 241 242 207 207 207 206 206 242 207 241 241 242 206
241 207 205 244 241 242 206 205 207 242 241 206 206 243 206 244
207 206 241 241 242 207 207 207 206 206 242 207 241 241 242 206
241 207 205 244 241 242 206 205 207 242 241 206 206 243 206 244
207 206 241 241 242 207 207 207 206 206 242 207 241 241 242 206
241 207 205 244 241 242 206 205 207 242 241 206 206 243 206 244
207 206 241 241 242 207 207 207 206 206 242 207 241 241 242 206
241 207 205 244 241 242 206 205 207 242 241 206 206 243 206 244
139 139 13 13 151 76 149 151 13 142 140 142 2 2 2 6
2 2 2 2 2 6 2 2 2 2 2 2 6 1 1 1
1 1 1 241 242 207 207 207 206 206 242 207 241 241 242 206
241 207 205 244 241 242 206 205 207 242 111 110 110 110 111 111
5 5 6 6 6 8 6 6 6 6 6 6 7 7 7 7
6 6 6 7 8 7 8 7 8 8 8 6 6 7 6 6
7 6 6 6 7 8 7 7 7 7 7 7 7 7 7 7
7 7 8 7 5 5 6 5 6 6 6 7 6 6 2 2
1 1 1 5 1 1 1 1 1 1 1 1 1 1 5 1
1 1 5 1 1 13 142 140 141 141 141 142 142 142 13 139
142 243 207 244 243 141 75 77 143 146 135 138 142 140 139 242
206 243 241 243 207 206 206 242 243 242 242 204 241 207 241 207
206 206 207 242 207 207 206 241 242 243 241 243 242 241 241 205
241 242 241 206 242 207 206 206 242 243 242 242 204 241 241 241
207 242 207 207 242 207 207 206 241 242 243 241 207 242 243 207
243 241 242 241 206 242 207 206 206 242 241 243 206 242 206 241
241 207 242 207 207 242 207 207 243 242 241 207 244 207 242 243
207 243 241 242 241 206 241 243 242 242 242 241 243 206 242 206
241 241 207 242 206 206 242 206 242 243 242 241 207 244 207 242
243 207 241 205 242 206 243 241 243 242 242 242 241 243 206 242
140 137 140 139 137 149 13 78 78 141 149 13 2 2 2 2
2 2 2 2 6 6 2 6 2 2 2 2 2 6 1 1
1 1 6 241 207 242 206 7 8 7 8 7 8 8 8 6
6 7 6 6 7 6 6 6 7 8 7 7 7 7 7 7
7 7 7 7 7 7 8 7 5 5 6 5 6 6 6 7
5 5 5 5 5 6 6 6 6 5 7 8 7 5 6 6
6 6 5 6 6 6 6 6 6 6 6 6 6 6 6 6
6 6 7 8 7 111 111 111 110 110 111 110 110 110 111 5
5 5 5 5 6 6 6 6 6 5 8 8 7 6 6 6
6 6 5 6 6 6 6 6 6 6 6 6 6 6 6 6
6 5 7 8 6 111 111 110 110 110 110 110 110 111 111 5
5 5 5 5 6 6 6 6 6 7 8 8 5 6 6 6
6 5 6 6 6 6 6 6 6 6 6 6 6 6 6 6
6 5 7 7 6 111 111 110 110 111 110 110 110 111 111 5
5 5 5 5 6 6 6 6 5 7 8 7 5 6 6 6
6 5 6 6 6 6 6 6 6 6 6 6 6 6 6 6
6 5 8 7 6 111 111 110 110 111 110 110 110 111 5 5
5 5 5 6 6 6 6 6 5 8 8 7 6 6 6 6
6 5 6 6 6 6 6 6 6 6 6 6 6 6 6 6
6 7 8 6 111 111 110 110 110 110 110 110 111 111 5 5
5 5 5 6 6 6 6 6 7 8 8 5 6 6 6 6
6 6 6 6 6 6 6 6 6 6 6 6 6 6 6 6
5 7 7 6 111 111 110 110 111 110 110 110 111 111 5 5
5 5 5 6 6 6 6 5 7 8 7 5 6 6 6 6
5 6 6 6 6 6 6 6 6 6 6 6 6 6 6 6
7 8 7 6 7 7 6 6 5 6 6 6 6 5 5 5
5 111 110 110 111 111 5 5 5 5 5 6 5 6 6 7
6 6 6 6 8 7 7 111 108 108 108 108 108 108 109 110
111 7 8 7 7 7 7 6 6 5 6 6 6 6 6 5
5 5 5 110 110 111 111 5 5 5 5 5 5 5 6 6
7 6 7 6 6 7 8 7 111 109 108 108 108 108 108 109
109 111 7 7 7 7 6 7 6 6 6 6 6 6 6 6
5 5 5 5 111 110 111 111 5 5 5 5 5 5 6 6
6 6 6 7 6 6 7 8 7 111 109 108 108 108 108 108
109 109 110 7 7 8 7 6 7 7 6 6 5 6 6 6
6 5 5 5 5 111 110 111 111 111 5 5 5 5 5 6
5 6 6 7 7 6 6 6 8 7 7 109 108 108 108 108
108 108 109 110 111 7 8 7 6 7 7 6 6 5 6 6
6 6 5 5 5 5 111 110 110 111 111 5 5 5 5 5
6 5 6 6 7 6 7 6 6 7 7 7 111 108 108 108
108 108 108 109 110 111 7 8 7 7 6 7 6 6 5 6
6 6 6 6 5 5 5 5 110 110 111 111 5 5 5 5
5 5 5 6 6 7 6 7 6 6 7 8 7 111 109 108
108 108 108 108 109 109 111 7 7 7 7 6 7 6 6 6
6 6 6 6 6 5 5 5 5 111 110 111 111 111 5 5
7 6 6 6 7 6 6 6 5 5 5 5 5 5 5 5
5 5 5 5 5 6 7 6 6 6 6 6 7 6 6 6
6 6 6 5 5 111 110 109 110 111 5 5 5 5 5 6
5 5 6 7 6 6 6 7 5 6 6 5 5 5 5 5
5 5 5 5 5 5 5 6 6 7 6 7 6 6 6 7
6 6 6 6 6 6 5 5 111 110 109 110 111 5 5 5
5 5 5 5 5 6 6 6 6 6 6 5 6 6 5 5
5 5 5 5 5 5 5 5 5 5 6 6 7 6 7 6
6 7 7 6 6 6 6 6 6 5 5 111 110 110 110 111
5 5 5 5 5 5 5 5 7 6 6 6 7 6 5 6
5 5 5 5 5 5 5 5 5 5 5 5 5 6 6 7
6 7 6 6 7 7 6 6 6 6 6 5 5 5 111 109
110 110 111 5 5 5 5 6 5 5 5 7 6 6 6 7
6 5 6 5 5 5 5 5 5 5 5 5 5 5 5 5
6 6 6 6 7 6 6 7 7 6 6 6 6 6 5 5
5 110 109 110 110 5 5 5 5 5 6 5 5 6 7 6
6 6 7 6 5 6 5 5 5 5 5 5 5 5 5 5
5 5 5 6 7 6 6 7 6 6 7 7 6 6 6 6
6 5 5 5 110 109 110 111 5 5 5 5 5 6 5 5
6 7 6 6 6 7 6 6 6 5 5 5 5 5 5 5
7 6 7 6 6 6 6 6 6 6 6 6 6 6 6 6
7 6 7 8 6 6 6 6 6 6 6 6 6 6 6 6
5 5 5 5 5 5 5 5 5 6 5 5 6 7 6 6
6 6 6 6 7 6 6 7 6 6 6 6 6 6 6 6
6 6 6 6 6 6 7 8 7 6 6 6 6 6 6 6
6 6 6 6 5 5 5 5 5 5 5 5 5 6 5 5
6 7 6 6 6 6 6 6 6 6 6 7 6 6 6 6
6 6 6 6 6 6 6 6 6 7 6 7 7 6 6 6
6 6 6 6 6 6 6 6 6 5 5 5 5 5 5 5
5 5 5 5 5 6 7 6 6 6 6 6 6 7 6 6
6 6 6 6 6 6 6 6 6 6 6 6 6 7 6 7
8 7 6 6 6 6 6 6 6 6 6 6 6 5 5 5
5 5 5 5 5 5 6 5 5 6 7 6 6 6 6 6
6 7 6 6 7 6 6 6 6 6 6 6 6 6 6 6
6 6 7 7 8 7 6 6 6 6 6 6 6 6 6 6
6 5 5 5 5 5 5 5 5 5 6 5 5 5 7 6
6 6 6 6 6 6 7 6 7 6 6 6 6 6 6 6
6 6 6 6 6 6 7 6 7 7 6 6 6 6 6 6
6 6 6 6 6 6 5 5 5 5 5 5 5 5 5 6
5 5 6 7 6 6 6 6 6 6 7 6 6 6 6 6
6 6 6 5 5 5 5 5 5 5 6 6 6 7 6 6
6 7 7 6 7 7 6 6 6 6 6 6 6 5 6 6
5 5 5 5 5 5 6 6 7 7 6 6 6 6 6 6
6 6 6 7 6 6 6 6 6 5 5 5 5 5 5 5
6 6 6 7 6 6 6 7 7 7 7 7 6 6 6 6
6 6 6 5 6 6 5 5 5 5 5 5 6 6 7 7
6 6 6 6 6 6 6 6 6 7 6 6 6 6 6 5
5 5 5 5 5 5 6 6 6 7 6 6 6 7 7 7
7 7 6 6 6 6 6 6 6 5 6 6 5 5 5 5
5 5 6 6 6 7 6 6 6 6 6 6 6 6 6 7
6 6 6 6 5 5 5 5 5 5 5 5 6 6 6 6
6 6 6 7 7 7 7 7 6 6 6 6 6 6 6 6
6 6 5 5 5 5 5 5 6 6 6 7 6 6 6 6
6 6 6 6 6 7 6 6 6 6 5 5 5 5 5 5
5 5 6 6 6 6 6 6 6 7 6 7 7 7 6 6
6 6 6 6 6 6 6 6 5 5 5 5 5 5 6 6
6 7 6 6 6 6 6 6 6 6 7 7 6 6 6 6
5 5 5 5 5 5 5 5 6 6 7 6 6 6 6 7
6 7 7 7 6 6 6 6 6 6 5 6 6 6 5 5
5 5 5 5 6 7 6 7 6 6 6 6 6 6 6 6
6 6 5 5 6 6 6 6 127 6 6 6 5 6 7 6
6 6 6 6 6 6 6 6 6 6 6 6 6 6 7 7
6 7 6 6 6 5 5 5 5 6 7 7 6 5 5 5
5 5 5 6 6 6 6 6 6 6 5 5 6 6 6 127
127 6 6 6 6 7 6 6 6 6 6 6 6 6 6 6
6 6 6 6 6 6 7 6 7 6 6 6 6 5 5 5
6 6 7 7 5 5 5 5 5 5 5 6 6 6 6 6
6 5 5 6 6 6 6 127 6 6 6 5 6 7 6 6
6 6 6 6 6 6 6 6 6 6 6 6 6 7 7 6
7 6 6 6 5 5 5 5 6 7 7 6 5 5 5 5
5 5 6 6 6 6 6 6 6 5 5 6 6 6 127 127
6 6 6 6 7 6 6 6 6 6 6 6 6 6 6 6
6 6 6 6 6 7 7 7 6 6 6 6 5 5 5 6
6 7 7 6 5 5 5 5 5 5 6 6 6 6 6 6
6 5 6 6 6 6 127 127 6 6 5 6 7 6 6 6
6 6 6 6 6 6 6 6 6 6 6 6 7 7 6 7
6 6 6 5 5 5 5 6 7 7 6 5 5 5 5 5
5 6 6 6 6 6 6 6 5 5 6 6 6 127 127 6
6 6 5 7 6 6 6 6 6 6 6 6 6 6 6 6
6 6 6 6 7 7 7 6 6 6 6 5 5 5 6 6
5 5 5 6 6 6 6 6 6 6 6 6 6 6 7 6
6 6 6 7 6 7 6 6 6 6 7 6 6 6 6 6
5 6 6 7 6 5 5 5 5 5 5 111 110 110 110 111
111 5 5 5 5 5 5 5 5 5 5 5 6 6 6 6
6 6 6 5 6 6 6 7 6 6 6 6 7 6 7 6
6 6 6 7 6 6 6 6 6 5 6 6 7 6 5 5
5 5 5 5 111 110 110 110 111 111 5 5 5 5 5 5
5 5 5 5 5 6 6 6 6 6 6 6 5 6 6 6
7 6 6 6 6 6 6 7 6 6 6 6 7 7 6 6
6 6 5 6 6 7 6 5 5 5 5 5 5 111 111 110
110 111 111 5 5 5 5 5 5 5 5 5 5 5 5 6
6 6 6 6 6 5 6 6 6 7 6 6 6 6 6 7
7 6 6 6 6 7 7 6 6 6 6 5 6 6 7 7
5 5 5 5 5 5 111 111 110 110 111 111 5 5 5 5
5 5 5 5 5 5 5 5 6 6 6 6 6 6 5 6
6 6 7 6 6 6 6 6 7 7 6 6 6 6 7 7
6 6 6 6 5 6 6 7 7 6 5 5 5 5 5 111
111 110 110 111 111 5 5 5 5 5 5 5 5 5 5 5
5 6 6 6 6 6 6 5 6 6 6 7 6 6 6 6
6 7 6 6 6 6 6 7 7 6 6 6 6 5 6 6
111 5 5 5 5 5 5 6 6 6 6 6 6 7 5 6
6 5 5 5 5 5 5 6 6 6 6 6 6 7 6 6
6 5 5 5 5 5 111 110 109 109 109 109 109 109 108 108
108 108 108 109 109 109 109 110 110 5 110 5 5 5 5 5
5 5 6 6 6 6 6 7 5 6 6 6 5 5 5 5
5 6 6 6 6 6 6 6 7 6 6 6 5 5 5 5
5 111 110 109 109 109 109 109 108 108 109 108 108 108 109 109
109 109 110 5 110 111 5 5 5 5 5 5 5 6 6 6
6 6 7 5 6 6 6 5 5 5 5 5 6 6 6 6
6 6 6 6 6 6 5 5 5 5 5 5 111 110 109 109
109 109 109 108 108 109 108 108 108 109 109 109 110 110 5 110
111 5 5 5 5 5 5 6 6 6 6 6 6 7 5 6
6 5 5 5 5 5 5 6 6 6 6 6 6 7 6 6
6 5 5 5 5 5 111 110 109 109 109 109 109 109 108 108
108 108 108 109 109 109 109 110 110 5 110 5 5 5 5 5
5 5 6 6 6 6 6 7 5 6 6 6 5 5 5 5
5 6 6 6 6 6 6 6 7 6 6 6 5 5 5 5
5 111 110 109 109 109 109 109 108 108 109 108 108 108 109 109
109 109 110 5 110 111 5 5 5 5 5 5 5 6 6 6
6 6 7 5 6 6 6 5 5 5 5 5 6 6 6 6
5 6 6 6 6 7 5 6 6 6 6 6 6 6 6 6
6 6 6 6 6 6 6 6 6 6 5 5 111 7 6 6
6 5 5 5 111 111 110 110 109 109 109 108 108 108 108 108
108 108 108 109 109 109 109 109 110 110 110 5 5 6 6 6
6 7 5 6 6 6 6 6 6 6 6 6 6 6 6 6
6 6 6 6 6 6 5 5 111 6 7 6 6 5 5 5
111 111 110 110 109 109 109 108 108 108 108 108 108 108 108 109
109 109 109 109 110 110 110 5 5 5 6 6 6 7 5 6
6 6 6 6 6 6 6 6 6 6 6 6 6 6 6 6
6 6 5 5 111 6 7 6 6 6 5 5 5 111 110 110
109 109 109 108 108 108 108 108 108 108 108 108 109 109 109 109
110 110 110 5 5 5 6 6 6 6 7 5 6 6 6 6
6 6 6 6 6 6 6 6 6 6 6 6 6 6 5 5
111 6 7 6 6 6 5 5 5 111 111 110 110 109 109 108
108 108 108 108 108 108 108 108 109 109 109 109 109 110 110 5
5 5 6 6 6 6 7 5 6 6 6 6 6 6 6 6
6 6 6 6 6 6 6 6 6 6 6 5 5 6 7 6
6 6 5 5 5 111 111 110 110 109 109 109 108 108 108 108
108 108 108 108 109 109 109 109 109 110 110 110 5 5 6 6
6 6 7 5 6 6 6 6 6 6 6 6 6 6 6 6
6 6 6 6 6 6 6 6 6 6 6 6 6 6 6 6
6 6 6 6 6 6 5 6 6 5 5 5 109 6 7 6
6 6 5 5 5 110 110 110 111 110 110 110 109 109 109 109
109 110 110 110 111 5 5 6 6 5 6 7 5 6 6 6
6 6 6 6 6 6 6 6 6 6 6 6 6 6 6 6
6 6 6 6 5 6 6 5 5 5 109 6 7 6 6 6
5 5 110 110 110 111 110 110 110 110 109 109 109 109 109 110
110 110 111 5 5 6 6 5 6 7 5 6 6 6 6 6
6 6 6 6 6 6 6 6 6 6 6 6 6 6 6 6
6 6 5 6 6 5 5 5 6 7 6 6 6 5 5 5
110 110 110 111 110 110 110 110 109 109 109 109 109 110 110 110
111 5 5 6 5 6 7 5 6 6 6 6 6 6 6 6
6 6 6 6 6 6 6 6 6 6 6 6 6 6 6 5
6 6 5 5 5 109 6 7 6 6 6 5 5 5 110 110
110 111 110 110 110 110 109 109 109 109 109 110 110 111 5 5
6 6 5 6 7 5 6 6 6 6 6 6 6 6 6 6
6 6 6 6 6 6 6 6 6 6 6 6 6 5 6 6
5 5 5 109 6 7 6 6 6 5 5 5 110 110 110 111
110 110 110 109 109 109 109 109 110 110 110 111 5 5 6 6
5 6 7 5 6 6 6 6 6 6 6 6 6 6 6 6
6 6 6 6 6 6 6 127 127 6 6 6 6 7 7 7
6 6 6 6 6 6 6 6 6 6 6 6 6 5 5 5
7 6 5 5 5 5 5 5 5 5 5 5 5 5 5 5
5 5 6 7 5 6 5 5 5 5 6 6 6 6 6 6
6 6 6 6 6 6 127 127 6 6 6 6 7 7 7 6
6 6 6 6 6 6 6 6 6 6 6 6 5 5 5 7
6 6 5 5 5 5 5 5 5 5 5 5 5 5 5 5
5 5 6 7 5 6 5 5 5 5 6 6 6 6 6 6
6 6 6 6 6 127 127 6 6 6 6 7 7 7 6 6
6 6 6 6 6 6 6 6 6 6 6 5 5 5 7 6
6 5 5 5 5 5 5 5 5 5 5 5 5 5 5 5
5 6 7 5 6 5 5 5 5 6 6 6 6 6 6 6
6 6 6 6 6 127 127 6 6 6 6 7 7 7 6 6
6 6 6 6 6 6 6 6 6 6 6 5 5 7 6 6
5 5 5 5 5 5 5 5 5 5 5 5 5 5 5 5
6 7 5 6 5 5 5 5 6 6 6 6 6 6 6 6
6 6 6 6 127 127 6 6 6 6 7 7 7 6 6 6
6 6 6 6 6 6 6 6 6 6 5 5 5 7 6 6
5 5 5 5 5 5 5 5 5 5 5 5 5 5 5 5
6 7 5 6 5 5 5 5 6 6 6 6 6 6 6 6
6 5 6 127 6 127 6 6 7 6 6 7 7 127 127 6
6 6 6 5 6 6 6 5 5 5 5 6 7 7 6 6
6 6 6 6 6 6 6 6 6 6 6 6 6 6 6 6
7 6 5 5 5 5 5 111 5 5 5 6 6 6 6 6
127 6 5 6 127 6 127 6 6 7 6 6 7 7 127 127
6 6 6 6 5 6 6 6 5 5 5 5 6 7 7 6
6 6 6 6 6 6 6 6 6 6 6 6 6 6 6 6
7 6 5 5 5 5 5 5 111 5 5 5 6 6 6 6
6 127 6 5 6 127 6 127 6 6 7 6 6 7 7 127
127 6 6 6 6 5 6 6 6 5 5 5 5 6 7 7
6 6 6 6 6 6 6 6 6 6 6 6 6 6 6 6
6 7 6 5 5 5 5 5 111 5 5 5 5 6 6 6
6 6 127 6 5 6 127 6 127 6 6 7 6 6 7 7
127 127 6 6 6 6 5 6 6 6 5 5 5 5 6 7
7 6 6 6 6 6 6 6 6 6 6 6 6 6 6 6
6 6 7 6 5 5 5 5 5 111 5 5 5 6 6 6
6 6 127 6 5 5 6 127 6 127 6 6 7 6 6 7
7 127 127 6 6 6 6 5 6 6 6 5 5 5 5 6
7 7 6 6 6 6 6 6 6 6 6 6 6 6 6 6
6 6 6 7 6 5 5 5 5 5 111 5 5 5 6 6
5 5 5 5 5 6 5 5 5 5 6 6 6 6 6 5
5 5 5 111 6 7 7 6 5 5 5 5 6 5 5 5
5 5 111 111 5 5 6 5 5 5 5 127 5 5 5 5
6 7 6 5 111 111 111 111 111 111 110 111 5 5 5 5
111 6 5 5 5 5 5 5 6 5 5 5 6 6 6 6
6 5 5 5 5 111 6 7 7 7 6 5 5 5 5 6
5 5 5 5 5 111 5 5 6 5 5 5 5 127 5 5
5 5 6 7 7 6 5 111 111 111 111 111 111 110 111 5
5 5 111 6 5 5 5 5 5 5 6 5 5 5 6 6
6 6 6 6 5 5 5 5 111 6 7 7 6 5 5 5
5 6 5 5 5 5 5 111 5 5 5 6 5 5 5 5
127 5 5 5 5 6 7 6 5 111 111 111 111 111 111 110
111 5 5 5 111 111 6 5 5 5 5 5 5 6 5 5
5 6 6 6 6 6 5 5 5 5 111 6 7 7 6 5
5 5 5 5 6 5 5 5 5 5 111 5 5 6 5 5
5 5 127 5 5 5 5 6 7 6 5 5 111 111 111 111
111 111 110 111 5 5 5 111 6 5 5 5 5 5 5 6
5 5 5 6 6 6 6 6 6 5 5 5 5 111 6 7
7 6 5 5 5 5 6 5 5 5 5 5 111 5 5 6
5 5 5 5 5 127 5 5 5 5 6 7 6 5 111 111
110 111 111 111 5 5 5 5 5 5 5 5 6 7 7 7
6 5 6 6 6 5 5 5 5 5 5 5 5 5 5 5
5 5 5 5 5 5 5 5 5 5 5 5 5 5 5 5
5 111 6 7 6 5 109 109 109 109 109 109 109 109 109 109
109 109 109 110 110 111 111 111 5 5 5 5 5 5 5 5
6 7 7 7 6 5 6 6 6 5 5 5 5 5 5 5
5 5 5 5 5 5 5 5 5 5 5 5 5 5 5 5
5 5 5 5 5 111 6 7 6 5 109 109 109 109 109 109
109 109 109 109 109 109 109 110 110 111 111 111 5 5 5 5
5 5 5 5 6 6 7 7 6 5 6 6 6 5 5 5
5 5 5 5 5 5 5 5 5 5 5 5 5 5 5 5
5 5 5 5 5 5 5 5 5 111 6 7 6 5 109 109
109 109 109 109 109 109 109 109 109 109 109 110 110 111 111 111
5 5 5 5 5 5 5 5 5 6 7 7 6 5 6 6
6 5 5 5 5 5 5 5 5 5 5 5 5 5 5 5
5 5 5 5 5 5 5 5 5 5 5 5 5 111 6 7
6 5 109 109 109 109 109 109 109 109 109 109 109 109 109 110
110 111 111 111 5 5 5 5 5 5 5 5 5 6 7 7
6 5 6 6 6 5 5 5 5 5 5 5 5 5 5 5
5 5 5 5 5 5 5 5 5 5 5 5 5 5 5 5
111 111 111 5 5 5 6 7 7 6 5 6 5 5 5 5
5 5 5 5 5 5 5 5 5 111 5 111 110 110 111 5
5 111 5 5 5 5 5 5 5 5 111 5 5 6 5 5
5 5 6 7 6 6 6 109 109 108 108 108 108 108 108 108
108 109 109 109 109 110 111 111 111 5 5 6 7 7 7 6
5 6 5 5 5 5 5 5 5 5 5 5 5 5 5 111
5 111 110 111 5 5 111 111 5 5 5 5 5 5 5 111
5 5 6 5 5 5 5 5 6 7 6 6 109 109 108 108
108 108 108 108 108 108 108 109 109 109 110 111 111 111 111 5
5 6 7 7 6 5 6 5 5 5 5 5 5 5 5 5
5 5 5 5 111 5 5 111 110 111 5 5 111 5 5 5
5 5 5 5 5 111 5 5 6 5 5 5 5 6 7 7
6 6 109 109 108 108 108 108 108 108 108 108 108 109 109 109
110 111 111 111 5 5 6 7 7 7 6 5 6 5 5 5
5 5 5 5 5 5 5 5 5 5 111 5 111 110 111 5
5 5 111 5 5 5 5 5 5 5 111 5 5 5 6 5
5 5 5 6 7 6 6 109 109 108 108 108 108 108 108 108
108 108 109 109 109 110 110 111 111 111 5 5 6 7 7 6
5 6 5 5 5 5 5 5 5 5 5 5 5 5 5 5
111 5 111 110 111 5 5 111 5 5 5 5 5 5 5 5
6 7 6 6 6 6 6 6 5 5 5 5 5 5 5 5
5 5 5 111 5 5 111 111 110 110 109 109 109 110 110 111
111 111 111 111 111 111 5 5 5 5 5 6 6 6 5 6
5 5 6 6 7 6 6 6 110 107 106 106 106 106 106 106
106 106 107 108 109 110 6 6 7 6 6 6 6 6 6 5
5 5 5 5 5 5 5 5 5 5 111 5 5 111 111 111
110 109 109 109 110 110 111 111 111 111 111 111 111 5 5 5
5 5 6 6 6 5 6 5 5 6 6 7 6 6 6 110
107 106 106 106 106 106 106 106 106 107 108 109 110 6 6 7
6 6 6 6 6 6 5 5 5 5 5 5 5 5 5 5
5 111 5 5 5 111 111 110 109 109 109 110 110 111 111 111
111 111 111 111 5 5 5 5 5 5 6 6 5 6 5 5
6 6 6 7 6 6 110 107 106 106 106 106 106 106 106 106
107 108 109 110 6 6 6 7 6 6 6 6 6 5 5 5
5 5 5 5 5 5 5 5 111 5 5 5 111 111 110 109
109 109 110 110 110 111 111 111 111 111 111 5 5 5 5 5
5 6 6 5 6 5 5 6 6 6 7 6 6 110 107 106
106 106 106 106 106 106 106 107 108 109 110 6 6 6 7 6
6 6 6 6 5 5 5 5 5 5 5 5 5 5 5 111
111 5 5 111 111 110 109 109 109 110 110 110 111 111 111 111
6 5 6 5 6 6 5 5 5 5 5 5 5 5 5 111
111 5 111 111 111 110 110 109 109 109 109 109 110 110 110 111
111 111 5 5 5 5 5 5 6 6 6 6 6 7 7 7
7 7 6 5 5 111 109 109 109 108 108 108 108 109 109 109
109 110 5 5 5 5 6 7 7 6 5 6 5 6 5 5
5 5 5 5 5 5 5 111 111 111 5 111 111 111 110 109
109 109 109 109 109 110 110 111 111 111 111 5 5 5 5 5
6 6 6 6 6 6 7 7 7 7 7 6 5 5 111 109
109 108 108 108 108 108 109 109 109 110 5 5 5 5 5 6
7 6 5 5 6 5 6 5 5 5 5 5 5 5 5 5
111 111 5 111 111 111 111 110 109 109 109 109 109 109 110 110
111 111 111 5 5 5 5 5 5 6 6 6 6 6 6 7
7 7 7 6 5 5 5 111 109 109 108 108 108 108 108 109
109 109 110 5 5 5 5 5 6 7 6 5 6 5 5 6
5 5 5 5 5 5 5 5 5 111 111 5 111 111 111 111
110 109 109 109 109 109 110 110 110 111 111 111 5 5 5 5
5 5 6 6 6 6 6 7 7 7 7 7 6 5 5 111
111 109 109 108 108 108 108 109 109 109 109 110 5 5 5 5
6 6 7 6 5 6 5 6 5 5 5 5 5 5 5 5
5 5 111 111 5 111 111 111 110 109 109 109 109 109 109 110
6 5 6 6 6 6 5 5 5 5 5 111 111 5 5 111
111 111 111 111 110 110 111 111 111 111 111 111 111 5 5 5
5 5 5 6 6 6 6 6 6 6 7 7 6 5 5 5
5 5 5 5 111 110 110 110 109 109 109 110 110 111 111 111
111 111 5 5 5 5 5 111 6 7 6 5 6 6 6 6
5 5 5 5 5 5 111 5 5 111 111 111 111 111 110 110
111 111 111 111 111 111 111 5 5 5 5 5 5 6 6 6
6 6 6 6 7 7 6 5 5 5 5 5 5 5 111 111
110 110 109 109 109 110 110 110 111 111 111 111 5 5 5 5
5 111 6 7 6 6 5 6 6 6 5 5 5 5 5 5
111 5 5 5 111 111 111 111 110 110 111 111 111 111 111 111
111 5 5 5 5 5 5 6 6 6 6 6 6 6 7 7
7 6 5 5 5 5 5 5 5 111 110 110 109 109 109 109
110 110 111 111 111 111 111 5 5 5 5 111 6 6 7 6
5 6 6 6 6 5 5 5 5 5 111 111 5 5 111 111
111 111 110 110 110 111 111 111 111 111 111 111 5 5 5 5
5 5 6 6 6 6 6 6 6 7 7 6 5 5 5 5
5 5 5 111 110 110 109 109 109 109 110 110 111 111 111 111
111 5 5 5 5 5 111 6 7 6 5 6 6 6 6 5
5 5 5 5 5 111 5 5 111 111 111 111 111 110 110 111
6 6 6 6 6 6 5 6 5 5 5 5 5 5 5 5
5 5 5 5 111 5 5 5 5 5 6 6 127 127 127 6
6 6 5 5 7 7 6 6 6 6 6 5 5 5 5 5
5 111 111 111 111 110 110 109 110 110 110 110 5 5 111 111
111 5 5 5 5 5 5 5 111 6 6 7 6 6 6 6
6 6 5 6 5 5 5 5 5 5 5 5 5 5 5 5
111 5 5 5 5 5 6 6 127 127 127 6 6 6 5 7
7 7 6 6 6 6 6 5 5 5 5 5 111 111 111 111
111 110 109 109 110 110 110 110 5 111 111 111 111 5 5 5
5 5 5 5 111 6 6 7 6 6 6 6 6 6 5 6
5 5 5 5 5 5 5 5 5 5 5 5 111 5 5 5
5 5 6 6 127 127 127 6 6 6 5 7 7 7 6 6
6 6 5 5 5 5 5 5 111 111 111 111 111 110 109 110
110 110 110 110 5 111 111 111 111 5 5 5 5 5 5 5
111 6 7 7 6 6 6 6 6 5 5 6 5 5 5 5
5 5 5 5 5 5 5 5 111 5 5 5 5 5 6 6
127 127 6 6 6 6 5 7 7 6 6 6 6 6 5 5
5 5 5 5 111 111 111 111 111 110 109 110 110 110 110 110
5 111 111 111 111 5 5 5 5 5 5 5 111 6 7 6
6 6 6 6 6 5 5 6 5 5 5 5 5 5 5 5
6 6 6 6 6 6 6 6 6 6 5 5 5 5 5 6
127 6 6 6 6 127 6 6 6 127 6 6 6 8 8 7
6 5 6 6 6 6 6 6 6 5 5 5 5 5 5 5
5 5 5 5 111 111 111 111 5 5 5 5 5 5 5 5
5 5 5 6 5 5 5 5 6 6 6 6 6 7 6 6
6 6 6 6 6 6 6 5 5 5 5 5 6 127 127 6
6 6 127 127 6 6 127 6 6 6 6 8 7 6 5 5
6 6 6 6 6 6 6 5 5 5 5 5 5 5 5 5
5 5 111 111 111 5 5 5 5 5 5 5 5 5 5 5
6 6 5 5 5 6 6 6 6 6 7 6 6 6 6 6
6 6 6 6 6 5 5 5 5 5 6 127 6 6 6 6
127 6 6 127 127 6 6 6 8 7 7 6 5 6 6 6
6 6 6 6 5 5 5 5 5 5 5 5 5 5 5 111
111 111 111 5 5 5 5 5 5 5 5 5 5 5 6 5
5 5 5 6 6 6 6 7 7 6 6 6 6 6 6 6
6 6 5 5 5 5 5 6 127 127 6 6 6 127 6 6
6 127 6 6 6 6 8 7 6 5 5 6 6 6 6 6
6 6 5 5 5 5 5 5 5 5 5 5 5 111 111 111
5 5 5 5 5 5 5 5 5 5 5 6 5 5 5 5
6 6 6 6 6 7 6 6 6 6 6 6 6 6 6 6
7 6 6 6 6 6 6 6 6 6 6 6 6 6 6 6
6 6 6 6 6 6 6 8 7 6 6 5 6 6 6 6
127 127 6 6 6 6 6 6 6 6 6 5 5 5 5 5
5 5 5 5 5 5 5 5 5 5 5 5 5 5 5 5
6 6 6 127 127 5 5 6 6 6 6 6 6 6 7 7
6 6 6 6 6 6 6 6 6 6 6 6 6 6 6 6
6 6 6 6 6 6 8 7 6 6 5 6 6 6 6 127
127 6 6 6 6 6 6 6 6 6 5 5 5 5 5 5
5 5 5 5 5 5 5 5 5 5 5 5 5 5 5 6
6 6 127 127 5 5 6 6 6 6 6 6 6 7 7 6
6 6 6 6 6 6 6 6 6 6 6 6 6 6 6 6
6 6 6 6 6 8 7 6 6 5 6 6 6 6 127 127
6 6 6 6 6 6 6 6 6 5 5 5 5 5 5 5
5 5 5 5 5 5 5 5 5 5 5 5 5 5 6 6
6 127 127 5 5 6 6 6 6 6 6 6 7 7 6 6
6 6 6 6 6 6 6 6 6 6 6 6 6 6 6 6
6 6 6 6 8 7 6 6 5 6 6 6 127 127 127 6
6 6 6 6 6 6 6 6 5 5 5 5 5 5 5 5
5 5 5 5 5 5 5 5 5 5 5 5 5 6 6 6
127 5 5 5 6 6 6 6 6 6 6 7 7 6 6 6
2 2 2 2 2 2 2 2 2 2 2 2 2 2 2 2
2 2 2 2 2 5 5 6 6 6 6 127 127 127 6 6
127 6 6 6 6 6 6 5 6 6 5 5 5 111 111 5
5 111 5 5 5 5 111 111 111 5 5 5 5 5 6 6
127 127 127 6 6 6 6 6 6 6 6 6 6 6 6 2
2 2 2 2 2 2 2 2 2 2 2 2 2 2 2 2
2 2 2 2 2 2 5 6 6 6 6 127 127 127 127 6
127 6 6 6 6 6 6 6 5 6 5 5 5 5 111 5
5 5 111 5 5 5 5 111 111 5 5 5 5 5 6 6
6 127 127 6 6 6 6 6 6 6 6 6 6 6 6 6
2 2 2 2 2 2 2 2 2 2 2 2 2 2 2 2
2 2 2 2 2 2 5 5 6 6 6 6 127 127 127 6
6 127 6 6 6 6 6 6 5 6 6 5 5 5 111 111
5 5 111 5 5 5 5 111 111 111 5 5 5 5 5 6
6 127 127 127 6 6 6 6 6 6 6 6 6 6 6 6
2 2 2 2 2 2 2 2 2 2 2 2 2 2 2 2
2 2 2 2 2 2 2 5 6 6 6 6 127 127 127 127
6 127 6 6 6 6 6 6 6 5 6 5 5 5 5 111
5 5 5 111 5 5 5 5 111 111 5 5 5 5 5 6
6 6 127 127 6 6 6 6 6 6 6 6 6 6 6 6
6 6 6 6 6 6 6 6 6 6 6 6 6 6 6 6
6 6 6 6 2 6 6 6 6 6 127 127 6 6 2 2
127 2 6 6 6 6 6 127 127 127 6 6 6 6 5 6
5 5 5 5 5 5 5 6 6 6 6 6 6 5 5 5
6 6 6 6 6 6 6 6 6 2 2 6 6 5 6 6
6 6 6 6 6 6 6 6 6 6 6 6 6 6 6 6
6 6 6 6 6 6 2 6 6 6 6 6 6 127 6 6
2 2 127 2 6 6 6 6 6 127 127 127 6 6 6 6
5 6 5 5 5 5 5 5 5 6 6 6 6 6 6 5
5 5 6 6 6 6 6 6 6 6 6 2 2 6 6 5
6 6 6 6 6 6 6 6 6 6 6 6 6 6 6 6
6 6 6 6 6 6 6 6 2 2 6 6 6 6 6 127
6 6 6 2 127 2 6 6 6 6 6 6 127 127 6 6
6 6 5 6 6 5 5 5 5 5 5 6 6 6 6 6
6 5 5 5 6 6 6 6 6 6 6 6 6 2 2 6
6 5 6 6 6 6 6 6 6 6 6 6 6 6 6 6
6 6 6 6 6 6 6 6 6 6 2 2 6 6 6 6
6 127 6 6 6 2 127 2 2 6 6 6 6 6 127 127
6 6 6 6 5 6 6 5 5 5 5 5 5 6 6 6
6 6 6 5 5 5 6 6 6 6 6 6 6 6 6 2
6 6 6 6 6 6 6 6 6 6 6 6 6 6 6 6
6 5 5 6 2 6 6 6 6 127 127 127 127 6 127 127
6 6 6 6 6 6 6 6 5 5 5 5 5 5 5 5
5 6 6 6 6 6 6 6 6 6 5 6 6 5 5 5
6 6 6 6 6 6 2 6 5 5 6 6 5 5 5 5
5 5 5 6 6 6 6 6 6 6 6 6 6 6 6 6
6 6 6 6 6 5 6 6 2 6 6 6 6 127 127 127
127 6 127 6 6 6 6 6 6 6 6 5 5 5 5 5
5 5 5 5 6 6 6 6 6 6 6 6 6 6 5 6
5 5 5 5 6 6 6 6 6 2 2 6 5 6 6 6
5 5 5 5 5 5 6 6 6 6 6 6 6 6 6 6
6 6 6 6 6 6 6 6 6 5 6 2 2 6 6 6
6 127 127 127 127 6 127 6 6 6 6 6 6 6 6 5
5 5 5 5 5 5 5 5 6 6 6 6 6 6 6 6
6 5 5 6 5 5 5 5 6 6 6 6 6 2 6 6
5 6 6 6 5 5 5 5 5 5 6 6 6 6 6 6
6 6 6 6 6 6 6 6 6 6 6 6 5 5 6 2
6 6 6 6 127 127 127 127 6 6 127 6 6 6 6 6
6 6 6 5 5 5 5 5 5 5 5 5 6 6 6 6
6 6 6 6 6 5 6 6 5 5 5 5 6 6 6 6
6 6 6 5 5 5 5 5 6 6 6 127 127 6 6 6
6 111 111 6 2 6 6 6 6 6 6 6 6 6 6 6
6 6 6 6 6 5 5 6 6 5 5 6 6 127 127 127
6 127 127 6 6 6 6 6 5 110 110 111 111 5 5 5
6 2 2 6 110 111 111 111 111 5 5 5 5 5 5 5
6 5 5 5 6 6 6 6 5 5 5 5 5 6 6 6
127 127 127 6 6 6 6 111 6 2 2 6 6 6 6 6
6 6 6 6 6 6 6 6 6 6 6 5 6 6 6 5
6 6 6 127 127 6 6 127 6 6 6 6 6 5 5 110
111 111 111 5 5 6 2 2 6 110 111 111 111 111 5 5
5 5 5 5 5 6 5 5 5 6 6 6 6 5 5 5
5 5 6 6 6 127 127 127 6 6 6 6 111 6 2 2
6 6 6 6 6 6 6 6 6 6 6 6 6 6 6 6
5 6 6 6 5 6 6 6 127 127 6 6 127 6 6 6
6 6 5 5 110 111 111 111 5 5 6 6 2 6 110 110
111 111 111 111 5 5 5 5 5 5 6 6 5 5 6 6
6 6 5 5 5 5 5 5 6 6 127 127 127 6 6 6
6 111 6 6 2 6 6 6 6 6 6 6 6 6 6 6
6 6 6 6 6 5 6 6 6 5 6 6 6 127 127 127
6 127 6 6 6 6 6 6 5 110 111 111 111 5 5 5
5 5 5 5 5 111 111 5 111 5 5 5 127 6 6 5
5 5 5 6 2 6 6 6 6 6 6 6 6 6 6 6
6 6 127 127 6 6 6 6 6 6 6 6 6 6 127 6
6 127 6 6 6 5 111 110 110 111 5 6 6 2 6 6
109 110 110 110 111 110 111 111 110 111 111 111 110 110 111 111
110 110 110 110 5 5 5 5 5 5 5 5 111 5 5 111
5 5 5 127 6 6 5 5 5 5 6 2 6 6 6 6
6 6 6 6 6 6 6 6 127 127 127 6 6 6 6 6
6 6 6 6 6 127 6 127 127 6 6 5 5 111 110 110
111 5 6 6 2 6 109 109 110 110 111 111 110 111 110 110
111 111 111 110 110 111 111 110 110 110 110 5 5 5 5 5
5 5 5 111 5 5 111 5 5 5 127 6 5 5 5 5
6 6 2 6 6 6 6 6 6 6 6 6 6 6 6 127
127 127 6 6 6 6 6 6 6 6 6 6 127 6 127 127
6 6 5 5 111 110 111 111 5 6 2 2 6 109 110 110
110 111 111 110 111 110 110 111 111 110 110 110 111 110 110 110
110 5 5 5 5 5 5 5 5 5 111 5 111 111 5 5
127 127 6 5 5 5 5 6 6 2 6 6 6 6 6 6
6 6 6 6 6 6 127 127 127 6 6 6 6 6 6 6
6 6 127 127 6 127 6 6 6 5 111 111 110 111 111 5
110 111 110 110 5 5 5 5 6 6 6 6 5 5 5 5
5 5 6 6 2 2 6 6 6 6 6 6 6 6 127 6
6 127 127 127 6 6 6 6 6 6 127 127 127 6 6 6
5 5 5 5 5 5 5 6 2 2 6 110 5 5 111 110
110 110 110 109 109 109 109 109 109 110 110 110 110 110 111 111
5 5 5 110 110 110 110 110 110 111 111 110 5 5 5 5
6 6 6 6 6 5 5 5 5 5 6 6 6 2 6 6
6 6 6 6 6 6 127 127 6 127 127 127 6 6 6 6
6 6 6 127 127 127 6 6 5 5 5 5 5 5 5 6
6 2 6 110 110 5 111 111 110 110 110 110 109 109 109 109
109 110 110 110 110 110 110 111 5 5 5 110 110 110 110 110
110 110 111 110 110 5 5 5 5 6 6 6 6 5 5 5
5 5 6 6 6 2 2 6 6 6 6 6 6 6 6 127
6 6 127 127 6 6 6 6 6 6 6 127 127 127 6 6
6 5 5 5 5 5 5 5 6 2 2 6 110 5 5 111
110 110 110 110 109 109 109 109 109 109 110 110 110 110 110 111
111 5 5 110 110 110 110 110 110 110 111 111 110 5 5 5
5 6 6 6 6 5 5 5 5 5 5 6 6 6 2 6
6 6 6 6 6 6 6 127 127 6 127 127 127 6 6 6
6 6 6 6 127 127 127 6 6 5 5 5 5 5 5 5
110 110 111 111 5 5 5 5 6 6 6 5 5 5 5 5
5 5 6 6 6 2 6 6 6 6 6 6 127 6 127 127
127 127 127 6 6 6 6 6 6 6 127 127 127 6 5 5
5 6 6 6 2 6 111 111 5 111 111 5 110 110 110 109
109 109 109 109 109 109 108 109 109 109 109 109 109 109 109 109
109 109 109 109 109 109 109 110 110 110 110 110 111 111 5 5
5 5 6 6 6 5 5 5 5 5 5 5 6 6 6 2
6 6 6 6 6 6 127 6 127 127 127 127 127 6 6 6
6 6 6 6 127 127 6 6 5 5 5 6 6 2 2 6
111 111 5 111 5 5 110 110 110 109 109 109 109 109 109 109
108 109 109 109 109 109 109 109 109 109 109 109 109 109 109 109
109 110 110 110 110 110 111 111 5 5 5 5 6 6 6 5
5 5 5 5 5 5 6 6 2 2 6 6 6 6 6 127
127 6 127 127 127 127 6 6 6 6 6 6 6 6 127 127
6 6 5 5 5 6 6 2 2 6 111 111 5 111 5 5
110 110 110 109 109 109 109 109 109 109 108 109 109 109 109 109
109 109 109 109 109 109 109 109 109 109 110 110 110 110 110 110
111 5 5 5 5 5 6 6 6 5 5 5 5 5 5 5
6 6 2 2 6 6 6 6 6 127 127 6 127 127 127 127
6 6 6 6 6 6 6 127 127 127 6 6 5 5 6 6
110 111 111 111 5 5 5 5 6 6 6 6 6 6 6 6
6 6 6 6 6 2 2 6 6 6 6 6 6 6 6 6
6 6 6 6 6 6 6 6 6 6 6 6 6 6 6 2
6 6 5 5 5 111 5 111 111 111 110 110 110 109 109 109
108 108 108 108 108 108 108 108 108 108 108 108 108 108 108 108
108 108 108 108 109 109 109 109 110 110 110 110 110 111 111 5
5 5 5 5 6 6 6 6 6 6 6 6 6 6 6 6
6 2 6 6 6 6 6 6 6 6 6 6 6 6 6 6
6 6 6 6 6 6 6 6 6 6 2 2 6 5 5 5
111 111 5 111 111 111 110 110 110 109 109 109 108 108 108 108
108 108 108 108 108 108 108 108 108 108 108 108 108 108 108 108
109 109 109 109 110 110 110 110 111 111 111 5 5 5 5 6
6 6 6 6 6 6 6 6 6 6 6 6 2 2 6 6
6 6 6 6 6 6 6 6 6 6 6 6 6 6 6 6
6 6 6 6 6 6 2 6 6 5 5 5 111 5 111 111
111 110 110 110 109 109 109 108 108 108 108 108 108 108 108 108
108 108 108 108 108 108 108 108 108 108 108 109 109 109 109 110
110 110 110 110 111 111 111 5 5 5 5 6 6 6 6 6
6 6 6 6 6 6 6 6 2 6 6 6 6 6 6 6
6 6 6 6 6 6 6 6 6 6 6 6 6 6 6 6
110 110 110 111 111 111 111 111 111 111 5 5 5 5 5 5
5 6 6 2 111 111 5 6 6 5 111 111 111 111 111 111
111 111 111 5 5 5 6 6 6 6 6 6 6 2 6 6
5 5 5 111 111 111 111 111 111 111 110 110 110 109 108 108
107 108 108 107 107 107 106 106 106 106 106 105 105 106 106 106
106 106 106 106 106 106 108 108 108 110 109 110 110 110 110 110
111 111 111 111 111 111 111 5 5 5 5 5 5 5 6 6
2 111 111 5 6 6 5 111 111 111 111 111 111 111 111 111
5 5 5 6 6 6 6 6 6 6 2 6 6 5 5 5
111 111 111 111 111 111 111 110 110 110 109 108 108 107 108 108
107 107 107 106 106 106 106 106 106 105 106 106 106 106 106 106
106 106 106 108 108 108 110 109 109 110 110 110 110 111 111 111
111 111 111 111 5 5 5 5 5 5 5 6 6 2 111 111
5 6 6 5 111 111 111 111 111 111 111 111 111 5 5 5
6 6 6 6 6 6 6 2 2 6 5 5 5 111 111 111
111 111 111 111 110 110 110 109 109 108 107 108 108 107 107 107
106 106 106 106 106 106 105 106 106 106 106 106 106 106 106 106
108 108 108 110 109 109 110 110 110 110 111 111 111 111 111 111
111 5 5 5 5 5 5 5 5 6 2 111 111 5 6 6
5 111 111 111 111 111 111 111 111 111 5 5 5 6 6 6
111 111 111 111 111 111 111 5 5 5 5 5 6 2 2 111
5 5 5 5 5 6 5 5 6 6 6 6 6 6 6 6
6 6 6 6 6 6 6 6 5 6 6 6 5 5 2 5
5 5 5 5 5 111 111 111 110 110 110 109 109 109 108 108
107 107 107 106 106 106 106 106 106 106 106 106 106 105 105 105
105 106 106 106 106 106 108 107 107 109 108 108 109 110 110 111
111 111 111 111 111 111 5 5 5 5 5 6 2 2 111 5
5 5 5 6 6 5 6 6 6 6 6 6 6 6 6 6
6 6 6 6 6 6 6 5 6 6 6 5 5 2 5 5
5 5 5 5 111 111 111 110 110 110 109 109 109 108 107 107
107 106 106 106 106 106 106 106 106 106 106 106 105 105 105 105
106 106 106 106 106 108 107 107 109 108 109 109 110 111 111 111
111 111 111 111 111 5 5 5 5 6 6 2 111 111 5 5
5 5 6 6 5 6 6 6 6 6 6 6 6 6 6 6
6 6 6 6 6 5 5 6 6 6 5 2 2 5 5 5
5 5 5 111 111 111 110 110 110 109 109 109 108 107 107 107
106 106 106 106 106 106 106 106 106 106 105 105 105 105 105 106
106 106 106 108 108 107 109 109 108 109 109 110 111 111 111 111
111 111 111 111 5 5 5 5 6 2 2 111 5 5 5 5
5 6 5 5 6 6 6 6 6 6 6 6 6 6 6 6
111 111 5 5 5 5 6 6 2 111 111 5 5 5 5 5
5 5 5 5 6 6 6 6 6 6 6 6 6 6 6 6
6 6 6 5 5 5 5 5 5 111 111 111 110 5 5 2
6 6 5 5 5 111 111 111 110 110 110 110 110 109 108 108
107 107 107 106 106 106 106 105 105 106 105 105 105 105 105 106
106 106 106 106 106 106 107 107 108 109 109 109 109 109 110 111
111 111 5 5 5 5 5 6 2 2 111 5 5 5 5 5
5 5 5 5 6 6 6 6 6 6 6 6 6 6 6 6
6 6 6 5 5 5 5 5 5 111 111 111 110 110 5 2
2 6 5 5 5 111 111 111 110 110 110 110 110 109 108 108
107 107 107 106 106 106 106 105 105 106 105 105 105 105 105 106
106 106 106 106 106 106 107 107 108 109 109 109 109 109 110 111
111 111 5 5 5 5 5 6 2 2 111 5 5 5 5 5
5 5 5 5 6 6 6 6 6 6 6 6 6 6 6 6
6 6 6 5 5 5 5 5 5 111 111 111 110 110 5 2
2 6 5 5 5 111 111 111 110 110 110 110 110 109 108 108
107 107 107 106 106 106 106 106 105 106 106 105 105 105 105 106
106 106 106 106 106 106 106 107 108 108 109 109 109 109 110 110
111 111 111 5 5 5 5 6 6 2 111 111 5 5 5 5
5 5 5 5 5 6 6 6 6 6 6 6 6 6 6 6
5 6 2 2 111 5 5 5 5 5 5 5 5 6 6 5
5 5 6 6 6 6 6 6 6 6 6 6 6 6 6 5
5 6 5 5 5 111 111 5 5 111 111 111 111 108 108 5
2 2 6 5 5 5 111 111 111 110 110 110 110 110 109 108
108 108 108 108 107 107 106 107 107 106 106 106 106 107 107 107
107 107 107 107 107 108 109 109 109 110 110 111 111 111 5 5
5 5 5 6 2 2 111 5 5 5 5 5 5 5 5 6
5 5 5 6 6 6 6 6 6 6 6 6 6 6 6 6
6 5 5 6 5 5 5 111 111 5 111 111 111 111 111 108
5 5 2 2 6 5 5 5 111 111 111 110 110 110 110 110
109 108 108 108 108 108 107 106 106 107 106 106 106 106 106 107
107 107 107 107 107 107 107 108 109 109 109 110 110 111 111 111
5 5 5 5 6 6 2 111 111 5 5 5 5 5 5 5
5 6 5 5 5 6 6 6 6 6 6 6 6 6 6 6
6 6 6 5 5 6 5 5 5 111 111 5 111 111 111 111
111 108 5 5 2 6 6 5 5 5 111 111 111 110 110 110
110 110 109 108 108 108 108 108 107 106 106 107 106 106 106 106
106 107 107 107 107 107 107 107 108 108 109 109 109 110 110 111
111 111 5 5 5 5 6 6 2 111 111 5 5 5 5 5
5 5 6 6 5 5 5 6 6 6 6 6 6 6 6 6
111 5 5 5 5 5 5 5 5 6 6 5 127 127 6 6
6 6 6 6 6 6 6 6 6 6 5 5 5 5 5 6
5 5 5 111 111 5 5 111 111 111 111 111 111 108 5 5
2 6 6 5 5 5 111 111 111 110 110 110 110 110 109 108
108 109 109 108 108 108 108 108 108 107 107 107 107 107 107 108
108 108 108 108 109 109 109 110 111 111 111 5 5 5 111 111
6 6 2 111 111 5 5 5 5 5 5 5 6 6 5 5
127 6 6 6 6 6 6 6 6 6 6 6 6 5 5 5
5 5 6 6 5 5 5 111 5 5 111 111 111 111 111 111
108 108 5 2 2 6 5 5 5 111 111 111 110 110 110 110
110 109 109 108 109 109 108 108 108 108 108 108 107 107 107 107
107 107 108 108 108 108 108 109 109 109 110 110 111 111 111 5
5 5 111 6 6 2 111 111 5 5 5 5 5 5 5 5
6 5 5 127 6 6 6 6 6 6 6 6 6 6 6 6
6 5 5 5 5 6 6 5 5 5 111 111 5 111 111 111
111 111 111 108 108 5 2 2 6 6 5 5 5 111 111 111
110 110 110 110 109 109 108 108 109 108 108 108 108 108 108 107
107 107 107 107 107 107 108 108 108 108 109 109 109 110 110 111
111 111 5 5 5 111 111 6 2 2 111 5 5 5 5 5
5 5 5 6 6 5 127 127 6 6 6 6 6 6 6 6
5 5 5 5 5 5 5 5 6 6 6 6 6 6 6 5
6 6 6 6 6 6 6 6 6 6 6 5 5 5 6 6
5 5 5 5 5 5 5 5 111 111 111 111 111 110 108 108
5 2 2 6 5 5 5 5 110 110 110 110 110 110 110 110
110 110 110 110 110 110 110 110 110 109 109 108 110 110 109 109
109 110 110 110 110 110 111 111 111 5 111 111 6 2 2 111
111 5 5 5 6 5 5 5 5 5 5 5 5 6 6 6
6 6 6 6 5 6 6 6 6 6 6 6 6 6 6 6
5 5 5 6 6 5 5 5 5 5 5 5 5 111 111 111
111 111 110 108 108 5 2 2 6 5 5 5 5 110 110 110
110 110 110 110 110 110 110 110 110 110 110 110 110 110 109 109
108 110 110 109 109 109 110 110 110 110 110 111 111 111 5 111
111 6 2 2 111 111 5 5 5 6 5 5 5 5 5 5
5 5 6 6 6 6 6 6 6 5 6 6 6 6 6 6
6 6 6 6 6 5 5 5 6 6 5 5 5 5 5 5
5 5 111 111 111 111 111 110 108 108 5 2 2 6 5 5
5 5 110 110 110 110 110 110 110 110 110 110 110 110 110 110
110 110 110 109 109 108 110 110 109 109 109 110 110 110 110 110
111 111 111 5 111 111 6 2 2 111 111 5 5 5 6 5
5 5 5 5 5 5 5 6 6 6 6 6 6 6 5 6
6 5 5 6 6 6 6 6 6 6 6 5 6 6 6 6
6 127 127 6 6 6 6 6 6 6 6 5 5 5 6 6
5 5 5 5 5 5 111 111 111 111 111 111 110 110 109 109
5 2 2 6 111 111 110 110 110 110 110 110 110 110 110 110
110 110 110 110 110 110 110 110 110 110 110 109 110 110 109 109
110 111 111 110 110 110 111 111 111 6 6 2 111 111 5 5
5 5 5 5 5 5 6 6 5 6 6 6 6 6 6 6
6 5 5 6 6 6 6 6 127 6 6 6 6 6 6 6
6 5 5 5 6 6 5 5 5 5 5 5 111 111 111 111
111 111 111 110 109 109 5 5 2 6 6 111 110 110 110 110
110 110 110 110 110 110 110 110 110 110 110 110 110 110 110 110
110 109 109 110 109 109 110 110 111 110 110 110 111 111 111 111
6 2 2 111 5 5 5 5 5 5 5 5 6 6 5 5
6 6 6 6 6 6 6 6 5 6 6 6 6 6 127 127
6 6 6 6 6 6 6 6 5 5 5 6 5 5 5 5
5 5 5 111 111 111 111 111 111 110 110 109 5 5 2 2
6 111 111 110 110 110 110 110 110 110 110 110 110 110 110 110
110 110 110 110 110 110 110 110 109 110 110 109 110 110 111 111
110 110 110 111 111 111 6 6 2 111 111 5 5 5 5 5
5 5 5 6 5 5 6 6 6 6 6 6 6 6 5 5
6 6 6 6 6 6 6 5 6 6 127 127 127 127 127 6
6 127 6 6 6 6 6 6 6 6 6 6 6 6 5 5
5 5 5 5 5 5 5 5 5 111 111 5 111 111 5 110
110 111 111 2 6 6 111 111 111 110 110 110 111 111 111 111
111 111 111 111 111 111 111 111 111 110 110 110 110 110 111 111
111 111 111 111 111 5 2 2 111 111 5 111 111 111 111 5
5 5 6 6 6 5 5 6 6 6 6 6 6 6 6 5
6 6 127 127 127 127 127 6 6 127 6 6 6 6 6 6
6 6 6 6 6 6 5 5 5 5 5 5 5 5 5 5
5 111 111 5 111 111 5 110 110 111 111 2 6 6 111 111
111 110 110 110 111 111 111 111 111 111 111 111 111 111 111 111
111 110 110 110 110 110 111 111 111 111 111 111 111 5 2 2
111 111 5 111 111 111 111 5 5 5 6 6 6 5 5 6
6 6 6 6 6 6 6 5 6 6 127 127 127 127 127 6
6 127 6 6 6 6 6 6 6 6 6 6 6 6 5 5
5 5 5 5 5 5 5 5 5 111 111 5 111 111 5 110
110 111 111 2 6 6 111 111 111 110 110 110 111 111 111 111
111 111 111 111 111 111 111 111 111 110 110 110 110 110 111 111
111 111 111 111 111 5 2 2 111 111 5 111 111 111 111 5
5 5 6 6 6 5 5 6 6 6 6 6 6 6 6 5
6 6 6 6 5 5 5 5 6 127 127 127 127 6 6 6
6 6 6 6 6 6 6 6 6 6 6 6 6 5 5 5
5 5 6 6 6 5 5 5 5 5 5 5 5 5 111 110
110 111 111 2 6 6 5 5 111 111 111 111 111 111 111 111
111 110 110 111 111 111 111 111 111 111 111 111 111 111 111 111
111 111 5 5 2 111 111 5 5 111 111 111 111 111 111 5
5 5 6 6 6 6 6 6 6 6 6 6 6 6 5 5
5 6 6 127 127 127 6 6 6 6 6 6 6 6 6 6
6 6 6 6 6 6 6 5 5 5 5 5 6 6 6 5
5 5 5 5 5 5 5 111 111 110 110 111 2 2 6 5
5 111 111 111 111 111 111 111 111 111 111 110 110 111 111 111
111 111 111 111 111 111 111 111 111 111 111 111 5 2 2 111
5 5 111 111 111 111 111 111 111 5 5 5 6 6 6 6
6 6 6 6 6 6 6 6 5 5 5 6 127 127 127 127
6 6 6 6 6 6 6 6 6 6 6 6 6 6 6 6
5 5 5 5 5 6 6 6 6 5 5 5 5 5 5 5
5 111 110 110 111 111 2 6 6 5 5 111 111 111 111 111
111 111 111 111 111 110 111 111 111 111 111 111 111 111 111 111
111 111 111 111 111 5 5 2 111 111 5 5 111 111 111 111
111 111 5 5 5 5 6 6 6 6 6 6 6 6 6 6
5 5 5 5 5 5 5 5 5 127 127 2 2 2 5 5
2 5 5 127 127 2 5 5 2 2 2 127 127 127 127 5
5 5 5 5 5 5 5 5 5 111 111 111 111 111 111 111
111 5 5 2 2 2 2 2 2 2 2 2 2 2 2 2
2 2 2 2 2 2 2 2 2 2 2 2 2 2 2 2
2 5 110 110 111 111 110 111 111 111 111 110 110 111 111 111
111 111 5 5 5 5 5 5 127 127 127 127 5 5 5 5
5 5 5 5 127 127 2 2 2 5 5 2 5 5 127 127
2 5 5 2 2 2 127 127 127 127 5 5 5 5 5 5
5 5 5 5 111 111 111 111 111 111 111 111 5 5 2 2
2 2 2 2 2 2 2 2 2 2 2 2 2 2 2 2
2 2 2 2 2 2 2 2 2 2 2 2 5 5 110 111
111 110 110 111 111 111 110 110 111 111 111 111 111 5 5 5
5 5 5 127 127 127 127 5 5 5 5 5 5 5 5 127
127 2 2 2 5 5 2 5 5 127 127 2 5 5 2 2
2 127 127 127 127 5 5 5 5 5 5 5 5 5 5 111
111 111 111 111 111 111 111 5 5 2 2 2 2 2 2 2
2 2 2 2 2 2 2 2 2 2 2 2 2 2 2 2
2 2 2 2 2 2 2 5 5 110 111 111 110 110 111 111
111 110 110 111 111 111 111 111 5 5 5 5 5 5 127 127
5 5 5 5 5 127 127 5 127 127 5 5 5 2 2 5
5 5 5 2 2 2 127 127 127 5 5 5 5 5 5 5
5 5 5 5 5 5 5 5 5 111 111 111 5 5 5 2
2 2 2 5 5 5 5 5 5 5 5 5 5 5 5 5
5 5 5 5 5 5 5 5 5 5 5 5 5 5 5 5
2 5 5 5 5 110 110 110 111 111 111 111 109 111 111 111
111 5 5 5 5 5 5 5 5 5 5 127 127 5 5 5
5 5 127 5 5 127 127 5 5 5 2 2 5 5 5 2
2 2 2 127 127 127 5 5 5 5 5 5 5 5 5 5
5 5 5 5 5 111 111 111 111 5 5 5 2 2 2 5
5 5 5 5 5 5 5 5 5 5 5 5 5 5 5 5
5 5 5 5 5 5 5 5 5 5 5 5 2 2 5 5
5 110 110 110 110 111 111 111 109 109 111 111 111 5 5 5
5 5 5 5 5 5 5 127 127 5 5 5 5 5 127 127
5 5 127 5 5 5 5 2 5 5 5 5 2 2 2 127
127 127 127 5 5 5 5 5 5 5 5 5 5 5 5 5
5 5 111 111 111 5 5 5 5 2 2 2 5 5 5 5
5 5 5 5 5 5 5 5 5 5 5 5 5 5 5 5
5 5 5 5 5 5 5 5 5 2 2 5 5 5 110 110
110 110 111 111 111 109 109 111 111 111 5 5 5 5 5 5
5 5 5 5 127 127 5 5 127 127 127 5 5 5 5 5
5 5 5 5 5 5 126 5 5 5 5 5 5 5 5 5
5 5 5 5 5 111 111 111 111 5 5 5 2 2 2 2
5 5 5 111 111 111 111 111 110 110 109 109 109 107 107 107
107 107 107 107 109 109 109 109 111 111 111 126 126 5 5 5
2 2 5 5 5 110 110 110 110 110 110 110 109 109 110 110
5 5 5 5 5 5 5 5 5 5 5 5 5 5 5 5
5 5 5 127 5 5 127 127 127 127 5 5 5 5 5 5
5 5 5 5 126 126 5 5 5 5 5 5 5 5 5 5
5 5 5 111 111 111 111 5 5 5 2 2 2 2 5 5
5 111 111 111 111 111 110 110 109 109 109 109 107 107 107 107
107 107 107 109 109 109 111 111 111 126 126 5 5 5 5 2
5 5 5 5 110 110 110 110 110 110 110 109 110 110 5 5
5 5 5 5 5 5 5 5 5 5 5 5 5 5 5 5
5 127 127 5 5 127 127 127 5 5 5 5 5 5 5 5
5 5 126 126 5 5 5 5 5 5 5 5 5 5 5 5
5 5 111 111 111 5 5 5 5 2 2 2 5 5 5 5
111 111 111 111 111 110 110 109 109 109 107 107 107 107 107 107
107 109 109 109 111 111 111 111 126 5 5 5 5 2 2 5
5 5 110 110 110 110 110 110 110 109 109 110 5 5 5 5
5 5 5 5 5 5 5 110 110 5 5 5 5 5 5 5
5 5 5 5 5 5 5 5 5 5 5 5 5 5 111 111
111 111 111 110 110 5 5 2 2 2 5 5 5 5 111 111
5 126 126 5 5 5 5 111 110 110 110 110 110 110 110 110
110 111 111 5 5 111 111 111 111 111 5 5 5 5 5 111
111 5 5 2 5 5 5 5 109 109 109 109 109 109 109 111
111 111 111 111 111 111 111 111 111 5 5 5 5 111 111 5
5 5 5 5 5 5 5 110 110 5 5 5 5 5 5 5
5 5 5 5 5 5 5 5 5 5 5 5 5 5 111 111
111 111 111 110 110 5 5 2 2 2 5 5 5 5 111 5
5 126 126 5 5 5 111 111 110 110 110 110 110 110 110 110
110 111 111 5 111 111 111 111 111 111 5 5 5 5 5 111
111 5 2 2 5 5 5 5 109 109 109 109 109 109 109 111
111 111 111 111 111 111 111 111 111 5 5 5 5 111 5 5
5 5 5 5 5 5 5 110 110 5 5 5 5 5 5 5
5 5 5 5 5 5 5 5 5 5 5 5 5 5 111 111
111 111 111 110 110 5 5 2 2 2 5 5 5 5 111 5
5 126 126 5 5 5 111 111 110 110 110 110 110 110 110 110
110 111 111 5 111 111 111 111 111 5 5 5 5 5 5 111
5 5 2 2 5 5 5 109 109 109 109 109 109 109 111 111
111 111 111 111 111 5 5 5 5 5 5 5 5 5 5 5
5 5 5 5 5 5 5 5 5 5 5 111 110 110 110 110
109 109 5 2 2 2 2 5 5 111 5 5 5 5 5 5
5 5 111 111 111 111 111 110 110 110 109 109 110 110 5 5
5 5 111 111 111 5 5 111 111 126 5 5 111 111 5 5
110 5 5 2 2 5 5 5 5 109 109 109 109 109 109 109
109 109 109 108 108 109 109 110 110 110 110 110 109 109 5 5
111 111 111 111 111 111 111 5 5 5 5 5 5 5 5 5
5 5 5 5 5 5 5 5 5 5 5 5 111 111 110 110
110 109 109 5 5 2 2 2 5 5 111 111 5 5 5 5
5 5 5 111 111 111 111 111 110 110 110 110 109 109 110 5
5 5 5 111 111 111 5 5 111 111 126 126 5 5 111 5
5 110 110 5 5 2 5 5 5 5 109 109 109 109 109 109
109 109 109 109 109 108 109 109 110 110 110 110 110 109 109 5
5 111 111 111 111 111 111 111 5 5 5 5 5 5 5 5
5 5 5 5 5 5 5 5 5 5 5 5 5 111 111 110
110 110 110 109 5 5 2 2 2 2 5 111 111 5 5 5
5 5 5 5 111 111 111 111 111 111 110 110 110 109 109 110
110 5 5 5 111 111 111 111 5 5 111 126 126 5 5 111
111 5 110 110 5 5 2 2 5 5 5 109 109 109 109 109
109 110 110 110 110 110 110 111 111 5 5 5 111 111 5 5
5 5 5 5 5 5 5 5 5 111 110 110 109 109 5 5
2 2 2 5 5 110 110 5 5 5 5 5 111 111 111 111
111 111 111 111 111 5 5 110 110 109 109 109 109 110 5 5
111 111 111 111 111 111 5 111 111 111 111 5 5 111 111 111
110 110 5 5 2 2 5 5 5 109 109 109 109 109 109 109
109 109 107 107 109 109 109 109 109 109 109 109 109 109 109 111
111 109 109 109 110 110 110 110 110 110 111 5 5 5 5 111
111 5 5 5 5 5 5 5 5 5 5 5 111 110 110 109
109 5 5 2 2 2 5 5 110 110 5 5 5 5 5 111
111 111 111 111 111 111 111 111 5 5 110 110 109 109 109 109
110 5 5 111 111 111 111 111 111 5 111 111 111 111 5 5
111 111 111 110 110 5 5 2 2 5 5 5 109 109 109 109
109 109 109 109 109 107 107 109 109 109 109 109 109 109 109 109
109 109 111 111 109 109 109 110 110 110 110 110 110 111 5 5
5 5 111 111 5 5 5 5 5 5 5 5 5 5 5 111
110 110 109 109 5 5 2 2 2 5 5 110 110 5 5 5
5 5 111 111 111 111 111 111 111 111 111 5 5 110 110 109
109 109 109 110 5 5 111 111 111 111 111 111 5 111 111 111
111 5 5 111 111 111 110 110 5 5 2 2 5 5 5 109
109 109 109 110 110 110 5 5 5 5 111 111 5 5 5 5
5 5 5 5 5 111 111 110 110 109 5 5 2 2 2 2
5 5 109 109 5 5 5 5 5 5 5 5 5 111 111 5
5 5 111 111 110 110 110 110 110 111 111 5 5 5 5 5
5 5 5 111 126 126 111 111 111 111 5 5 5 5 5 5
5 109 109 5 5 2 2 5 5 5 109 109 109 109 107 107
109 109 107 107 107 107 107 107 107 108 108 107 109 109 109 109
108 108 108 108 109 109 109 110 110 110 110 5 5 5 5 111
111 5 5 5 5 5 5 5 5 5 111 110 110 109 109 5
5 2 2 2 2 5 109 109 5 5 5 5 5 5 5 5
5 111 111 5 5 5 5 111 111 110 110 110 110 110 111 111
5 5 5 5 5 5 5 111 111 126 126 111 111 111 5 5
5 5 5 5 5 5 109 109 5 2 2 5 5 5 5 109
109 109 109 107 109 109 107 107 107 107 107 107 107 108 108 107
107 109 109 109 109 108 108 108 109 109 109 109 110 110 110 110
5 5 5 111 111 5 5 5 5 5 5 5 5 5 111 111
110 110 109 109 5 5 2 2 2 5 5 109 109 5 5 5
5 5 5 5 5 5 111 111 5 5 5 111 111 110 110 110
110 110 110 111 5 5 5 5 5 5 5 5 111 111 126 111
111 111 111 5 5 5 5 5 5 5 109 109 5 5 2 2
108 109 109 109 109 109 110 110 111 111 110 110 111 111 111 111
111 110 110 110 110 5 5 2 2 2 5 5 110 110 5 5
5 5 5 5 5 5 111 111 111 111 111 110 110 110 110 110
110 111 5 5 5 5 110 110 111 111 111 111 5 5 111 111
111 5 5 5 5 111 111 5 5 5 5 5 5 5 111 111
5 5 111 111 109 109 5 2 2 5 5 5 5 107 107 107
107 107 106 106 106 106 107 107 107 107 107 107 107 107 107 107
107 107 107 108 108 108 108 109 109 109 109 109 110 110 111 111
110 110 111 111 111 111 111 110 110 110 110 5 5 2 2 2
2 5 110 110 5 5 5 5 5 5 5 5 111 111 111 111
111 110 110 110 110 110 110 111 111 5 5 5 110 110 111 111
111 111 5 5 111 111 111 5 5 5 5 111 111 5 5 5
5 5 5 5 111 111 5 5 111 111 109 109 5 2 2 5
5 5 5 107 107 107 107 107 107 106 106 106 107 107 107 107
107 107 107 107 107 107 107 107 107 108 108 108 108 109 109 109
109 109 110 110 111 111 110 110 111 111 111 111 111 110 110 110
110 5 5 2 2 2 2 5 5 110 5 5 5 5 5 5
5 5 111 111 111 111 111 110 110 110 110 110 110 111 111 5
5 5 110 110 111 111 111 111 5 5 111 111 111 5 5 5
5 111 111 5 5 5 5 5 5 5 111 111 5 5 111 111
109 109 109 109 109 109 110 110 110 110 111 111 111 111 111 111
111 5 5 2 2 2 2 5 5 111 111 5 5 5 5 5
111 111 111 111 111 111 110 110 110 110 110 110 110 109 109 110
110 110 110 110 110 5 5 110 111 111 111 111 110 110 111 111
111 111 5 5 111 111 111 5 5 111 111 111 111 5 5 5
5 5 5 111 110 110 5 5 2 2 5 5 5 5 106 106
106 106 107 107 107 107 107 106 106 106 106 105 105 106 106 106
106 107 106 106 108 108 108 108 109 109 109 109 109 109 110 110
110 111 111 111 111 111 111 111 111 5 5 2 2 2 5 5
111 111 5 5 5 5 5 5 111 111 111 111 111 110 110 110
110 110 110 110 110 109 109 110 110 110 110 110 5 5 110 110
111 111 111 111 110 110 111 111 111 5 5 111 111 111 111 5
5 111 111 111 111 5 5 5 5 5 111 111 110 110 5 5
2 2 5 5 5 106 106 106 106 107 107 107 107 107 107 106
106 106 106 105 106 106 106 106 107 107 106 106 108 108 108 108
109 109 109 109 109 110 110 110 110 111 111 111 111 111 111 111
5 5 2 2 2 2 5 5 111 111 5 5 5 5 5 111
111 111 111 111 111 110 110 110 110 110 110 110 109 109 110 110
110 110 110 110 5 5 110 110 111 111 111 110 110 111 111 111
111 5 5 111 111 111 111 5 111 111 111 111 5 5 5 5
108 108 109 109 109 109 110 110 111 111 111 111 5 5 5 2
2 2 2 5 5 5 5 5 5 5 5 5 5 111 111 111
5 5 111 111 110 110 111 111 110 110 110 110 110 110 109 109
110 110 109 109 109 111 111 110 110 111 111 110 110 110 110 110
110 110 110 111 111 111 110 110 110 110 110 110 111 111 5 5
5 5 5 5 111 111 111 5 5 2 2 5 5 5 5 107
107 107 107 106 106 106 106 105 105 105 105 105 106 106 105 105
106 106 106 106 107 107 108 108 108 108 108 109 109 109 109 110
110 111 111 111 111 5 5 5 5 2 2 2 2 5 5 5
5 5 5 5 5 5 111 111 111 111 5 5 111 111 110 111
111 110 110 110 110 110 110 109 109 110 110 109 109 109 109 111
111 110 111 111 110 110 110 110 110 110 110 110 111 111 111 111
110 110 110 110 110 111 111 5 5 5 5 5 5 111 111 111
111 5 5 2 2 5 5 5 107 107 107 107 106 106 106 106
105 105 105 105 105 105 106 106 105 106 106 106 106 107 107 108
108 108 108 108 108 109 109 109 109 110 110 111 111 111 5 5
5 5 2 2 2 2 5 5 5 5 5 5 5 5 5 111
111 111 111 5 5 111 111 110 110 111 111 110 110 110 110 110
109 109 110 110 109 109 109 109 111 111 110 110 111 111 110 110
110 110 110 110 110 111 111 111 111 110 110 110 110 110 110 111
109 109 109 109 109 109 111 111 5 5 5 5 2 2 2 5
5 5 5 5 5 5 5 5 5 111 111 110 110 5 5 5
5 5 5 111 5 5 110 110 111 111 110 110 109 109 110 110
109 109 108 108 109 109 110 110 110 110 109 110 110 110 110 110
110 110 110 110 110 111 111 110 110 109 109 110 110 110 110 5
5 5 5 5 111 111 111 111 5 5 2 2 5 5 5 5
107 107 106 106 3 3 3 3 3 3 3 105 105 105 105 105
105 105 105 106 106 106 106 107 107 108 108 109 109 109 109 109
109 111 5 5 5 5 2 2 2 2 5 5 5 5 5 5
5 5 5 5 111 111 110 110 5 5 5 5 5 111 111 5
5 110 110 111 111 110 110 109 109 110 110 109 109 108 108 109
110 110 110 110 109 109 110 110 110 110 110 110 110 110 110 110
111 111 110 110 109 109 110 110 110 5 5 5 5 5 5 111
111 111 111 5 5 2 2 5 5 5 5 107 107 106 3 3
3 3 3 3 3 3 105 105 105 105 105 105 105 105 106 106
106 106 107 107 108 109 109 109 109 109 109 111 111 5 5 5
5 2 2 2 2 5 5 5 5 5 5 5 5 5 111 111
110 110 5 5 5 5 5 5 111 111 5 5 110 110 111 111
110 110 109 109 110 109 109 108 108 109 109 110 110 110 110 109
109 110 110 110 110 110 110 110 110 110 110 111 110 110 109 109
109 109 109 109 111 111 5 5 2 2 2 2 5 5 5 5
5 5 5 5 5 111 111 111 111 5 5 5 5 5 5 5
5 5 5 111 111 109 109 110 110 110 110 109 109 109 109 109
109 108 109 109 108 108 109 109 109 109 109 109 110 110 109 109
110 110 110 110 111 111 110 110 109 109 110 110 110 110 5 5
5 5 5 5 5 5 5 111 111 5 5 2 2 5 5 5
5 107 107 3 3 3 3 3 3 103 103 3 3 3 3 105
105 105 105 106 106 106 107 107 107 107 108 108 109 109 109 109
111 111 5 5 2 2 2 2 5 5 5 5 5 5 5 5
5 5 111 111 111 111 5 5 5 5 5 5 5 5 5 111
111 109 109 110 110 110 110 109 109 109 109 109 109 108 108 109
109 108 108 109 109 109 109 109 109 110 109 109 110 110 110 110
111 111 110 110 109 109 110 110 110 110 5 5 5 5 5 5
5 5 5 5 111 111 5 5 2 2 5 5 5 107 107 3
3 3 3 3 3 103 103 3 3 3 3 105 105 105 105 106
106 106 106 107 107 107 107 108 108 109 109 109 109 111 5 5
2 2 2 2 5 5 5 5 5 5 5 5 5 5 111 111
111 111 5 5 5 5 5 5 5 5 5 5 111 111 109 109
110 110 110 109 109 109 109 109 109 108 108 109 109 108 108 109
109 109 109 109 109 110 110 109 109 110 110 110 110 111 111 110
109 109 5 5 2 2 2 2 5 5 5 5 5 5 5 5
5 5 111 111 5 5 111 5 5 5 5 111 111 5 5 5
5 111 111 109 109 109 109 110 110 109 109 109 109 108 108 107
107 107 107 107 107 108 108 109 109 109 109 109 109 109 109 109
109 109 109 111 111 111 111 110 110 110 110 110 110 5 5 5
5 5 5 5 5 5 5 5 111 111 5 5 2 2 5 5
5 5 108 108 104 104 104 104 103 103 103 103 103 103 3 3
3 3 105 105 106 106 106 106 107 107 107 107 108 108 109 109
5 5 2 2 2 2 5 5 5 5 5 5 5 5 5 5
111 111 5 5 111 111 5 5 5 111 111 5 5 5 5 111
111 109 109 109 109 110 110 109 109 109 109 108 108 107 107 107
107 107 107 108 108 109 109 109 109 109 109 109 109 109 109 109
109 111 111 111 111 110 110 110 110 110 110 5 5 5 5 5
5 5 5 5 5 5 5 111 5 5 2 2 5 5 5 5
108 108 104 104 104 104 103 103 103 103 103 103 3 3 3 3
105 105 106 106 106 106 107 107 107 107 108 108 109 109 5 5
2 2 2 2 5 5 5 5 5 5 5 5 5 5 111 111
5 5 111 111 5 5 5 111 111 5 5 5 5 111 111 109
109 109 109 110 110 109 109 109 109 108 108 107 107 107 107 107
107 108 108 109 109 109 109 109 109 109 109 109 109 109 109 111
5 5 2 2 5 5 5 5 5 5 5 5 5 5 5 5
111 111 111 111 110 110 111 111 111 111 111 111 111 111 111 111
111 111 109 109 110 110 110 110 109 109 109 109 108 108 107 107
107 107 107 107 108 108 108 108 109 109 109 109 109 109 109 109
109 109 109 109 110 110 111 111 110 110 111 111 5 5 5 5
5 5 5 5 5 5 5 5 5 5 5 5 5 2 2 5
5 5 5 108 108 104 104 103 103 103 103 103 103 103 103 103
103 103 103 103 103 104 104 3 3 106 106 108 108 5 5 5
5 2 2 5 5 5 5 5 5 5 5 5 5 5 5 111
111 111 111 110 110 111 111 111 111 111 111 111 111 111 111 111
111 109 109 110 110 110 110 109 109 109 109 108 108 107 107 107
107 107 107 108 108 108 108 109 109 109 109 109 109 109 109 109
109 109 109 110 110 111 111 110 110 111 111 5 5 5 5 5
5 5 5 5 5 5 5 5 5 5 5 5 5 2 2 5
5 5 5 108 108 104 104 103 103 103 103 103 103 103 103 103
103 103 103 103 103 104 104 3 3 106 106 108 108 5 5 5
5 2 2 5 5 5 5 5 5 5 5 5 5 5 5 111
111 111 111 110 110 111 111 111 111 111 111 111 111 111 111 111
111 109 109 110 110 110 110 109 109 109 109 108 108 107 107 107
107 107 107 108 108 108 108 109 109 109 109 109 109 109 109 109
2 2 5 5 5 5 5 5 5 5 111 111 111 111 5 5
110 110 110 110 110 110 111 111 110 110 110 110 110 110 109 109
109 109 109 109 109 109 109 109 107 107 107 107 106 106 106 106
106 106 106 106 107 107 107 107 107 107 107 107 108 108 109 109
109 109 109 109 109 109 110 110 111 111 5 5 5 5 5 5
5 111 111 111 111 111 111 5 5 5 5 5 5 5 5 2
2 2 2 2 2 2 2 2 2 2 2 2 2 2 2 2
2 2 2 2 2 2 2 2 2 2 2 2 2 2 2 2
2 2 2 5 5 5 5 5 5 5 5 111 111 111 111 5
5 110 110 110 110 110 110 111 111 110 110 110 110 110 110 109
109 109 109 109 109 109 109 109 109 107 107 107 107 106 106 106
106 106 106 106 106 107 107 107 107 107 107 107 107 108 108 109
109 109 109 109 109 109 109 110 110 111 111 5 5 5 5 5
5 5 111 111 111 111 111 111 5 5 5 5 5 5 5 5
2 2 2 2 2 2 2 2 2 2 2 2 2 2 2 2
2 2 2 2 2 2 2 2 2 2 2 2 2 2 2 2
2 2 2 2 5 5 5 5 5 5 5 5 111 111 111 111
5 5 110 110 110 110 110 110 111 111 110 110 110 110 110 110
109 109 109 109 109 109 109 109 109 109 107 107 107 107 106 106
106 106 106 106 106 106 107 107 107 107 107 107 107 107 108 108
5 5 111 111 5 5 111 111 111 111 5 5 5 5 111 111
111 111 110 110 110 110 110 110 110 110 111 111 111 109 109 109
109 109 109 109 109 108 108 107 107 107 107 106 106 106 106 106
106 106 106 107 107 106 106 107 107 108 108 109 109 109 109 109
109 109 109 109 109 5 5 111 111 111 111 111 111 5 5 5
5 5 5 5 5 5 2 2 5 5 2 2 2 2 5 5
5 5 5 5 5 5 5 5 5 5 5 5 5 5 5 5
5 5 5 5 5 5 5 5 5 5 5 5 5 5 5 5
2 2 2 5 5 111 111 5 5 111 111 111 111 5 5 5
5 111 111 111 111 110 110 110 110 110 110 110 110 111 111 109
109 109 109 109 109 109 109 108 108 107 107 107 107 106 106 106
106 106 106 106 106 106 107 107 106 106 107 107 108 108 109 109
109 109 109 109 109 109 109 109 5 5 111 111 111 111 111 111
5 5 5 5 5 5 5 5 2 2 5 5 2 2 2 2
5 5 5 5 5 5 5 5 5 5 5 5 5 5 5 5
5 5 5 5 5 5 5 5 5 5 5 5 5 5 5 5
5 5 5 2 2 5 5 111 111 5 5 111 111 111 111 5
5 5 5 111 111 111 111 110 110 110 110 110 110 110 110 110
111 111 109 109 109 109 109 109 109 109 108 108 107 107 107 107
106 106 106 106 106 106 106 106 107 107 106 106 107 107 108 108
93 96 97 99 97 98 98 99 100 100 100 100 101 100 99 99
97 99 100 100 100 97 101 100 95 96 97 97 98 98 98 98
99 98 99 98 96 96 97 96 95 96 97 99 97 98 107 102
94 100 100 100 99 98 98 98 99 98 99 100 98 98 99 99
100 100 97 98 99 100 100 97 97 97 101 100 100 100 98 100
99 101 97 99 96 98 98 100 100 100 99 97 98 98 100 100
99 99 99 98 96 96 97 96 109 98 88 93 97 98 98 99
100 100 100 100 101 100 99 99 97 99 100 100 100 97 101 100
99 99 98 98 100 101 100 102 101 100 99 99 101 98 92 93
93 91 91 91 91 91 91 91 91 91 91 91 91 91 91 91
91 91 91 91 91 91 91 91 91 91 91 91 91 91 91 93
91 91 92 94 94 96 97 97 95 96 97 97 98 98 98 98
99 98 99 98 96 96 97 96 95 96 97 99 97 98 98 99
100 100 100 100 99 98 98 98 99 98 99 100 98 98 99 99
100 100 97 98 99 99 100 100 97 97 97 109 104 108 104 101
101 104 100 103 101 101 103 106 105 94 99 97 98 98 100 100
99 99 99 98 96 96 97 96 95 96 97 99 97 98 98 99
100 100 100 100 101 100 99 99 97 99 100 100 100 97 101 100
99 99 98 98 100 101 100 102 101 106 104 99 101 98 100 99
98 99 100 99 100 100 101 95 97 98 98 98 96 98 97 104
96 98 103 103 103 103 103 105 104 106 105 104 105 105 105 104
104 101 106 104 105 101 107 106 99 99 100 104 105 103 103 103
103 104 102 101 102 100 101 101 99 98 103 103 103 103 111 105
96 106 104 105 103 103 103 103 103 103 103 102 103 103 103 105
104 106 101 103 102 104 104 99 104 104 104 107 105 104 101 105
104 104 104 106 100 104 101 110 106 106 105 103 104 105 105 105
105 104 102 101 102 100 101 101 109 98 93 103 100 103 103 105
105 108 106 104 104 101 103 103 101 101 103 101 108 103 101 105
105 104 102 102 104 105 105 105 104 105 109 105 106 102 98 0
7 7 7 7 7 7 7 7 7 7 7 7 7 7 7 7
7 7 7 7 7 7 7 7 7 7 7 7 7 7 7 7
7 7 94 103 103 99 99 100 99 99 100 104 105 103 103 103
103 104 102 101 102 100 101 101 99 98 103 103 103 103 103 105
104 106 104 105 103 103 103 103 103 103 103 102 103 103 103 105
104 106 101 103 102 102 104 104 99 104 104 5 104 105 104 101
105 104 104 106 100 104 101 110 106 96 105 103 104 105 105 105
105 104 102 101 102 100 101 101 99 98 103 103 103 103 103 105
104 106 105 104 105 105 105 104 104 101 106 104 105 101 107 106
105 104 103 103 105 109 106 107 106 108 109 109 105 104 102 102
102 106 106 105 103 102 104 100 102 103 104 104 102 102 102 106
96 98 101 101 101 103 103 104 105 105 104 105 105 106 105 103
103 103 104 104 105 104 102 105 98 99 100 100 105 103 103 103
103 103 103 102 102 102 98 99 100 98 101 101 101 103 111 104
96 105 105 105 105 101 103 104 103 103 102 102 103 103 101 104
105 105 103 102 102 104 105 104 104 104 104 104 105 105 104 106
104 104 103 104 100 101 103 108 106 106 105 104 104 104 103 101
104 104 103 102 102 102 98 99 110 98 95 96 100 99 100 99
98 99 96 97 98 107 103 96 100 99 100 99 98 99 96 97
98 107 102 96 100 99 100 99 98 99 96 97 98 107 98 0
5 5 5 5 5 5 5 5 5 76 74 74 74 73 72 72
72 72 72 73 74 74 76 5 5 5 5 5 5 5 5 5
5 7 95 102 101 97 99 99 98 99 100 100 105 103 103 103
103 103 103 102 102 102 98 99 100 98 101 101 101 103 103 104
105 105 105 105 105 101 103 104 103 103 102 102 103 103 101 104
105 105 103 102 102 102 104 105 104 104 104 5 104 96 100 99
100 99 98 99 96 97 98 107 106 96 105 104 104 104 103 101
104 104 103 102 102 102 98 99 100 98 101 101 101 103 103 104
105 105 104 105 105 106 105 103 103 103 104 104 105 104 102 105
106 104 103 103 104 109 108 109 106 109 109 106 102 102 102 104
102 102 105 105 101 104 104 102 102 103 104 106 103 104 101 106
97 100 101 98 103 103 103 104 105 107 104 107 102 105 107 105
191 191 191 191 191 191 191 191 191 191 191 191 104 103 103 103
103 105 191 191 191 191 191 101 101 100 101 98 103 103 111 104
96 107 105 104 191 191 191 191 191 191 191 102 103 103 105 104
105 107 191 191 191 191 191 104 103 102 105 103 105 105 105 108
191 191 191 191 191 103 104 106 106 109 105 191 191 191 104 104
104 101 103 103 103 191 191 101 111 100 93 100 105 105 108 104
101 104 101 103 104 110 104 100 105 105 108 104 101 104 101 103
104 110 103 100 105 105 108 104 101 104 101 103 104 110 98 0
5 5 5 5 5 5 5 78 74 75 71 69 66 64 62 62
62 64 66 68 72 74 75 74 78 5 5 5 5 5 5 5
5 7 96 104 103 101 97 99 102 103 100 100 104 103 103 103
103 105 103 103 103 101 98 101 101 100 101 98 103 103 103 104
105 107 105 191 191 191 191 191 103 104 102 102 103 103 191 191
191 107 102 103 102 102 104 108 191 191 102 5 103 100 105 105
108 104 101 104 101 103 104 110 106 98 105 102 104 105 104 104
104 101 103 103 103 101 98 101 101 100 101 98 103 103 103 104
105 107 104 107 102 105 107 105 101 103 104 102 105 102 104 105
105 104 103 105 105 106 109 109 109 106 108 104 105 104 104 105
102 102 104 104 103 104 105 103 102 104 104 106 104 104 101 108
97 98 101 98 103 104 103 103 105 105 105 104 105 105 106 105
191 187 181 183 182 180 179 179 179 183 185 191 109 104 103 103
191 191 186 184 182 185 184 191 191 98 101 98 103 104 111 103
96 105 104 191 183 182 180 180 179 183 191 109 103 103 105 104
191 191 186 184 182 185 184 191 191 104 105 103 105 105 191 191
186 184 182 185 184 191 191 106 105 110 191 183 179 184 191 105
105 104 104 104 191 180 191 101 111 98 95 100 105 105 103 160
160 160 103 100 103 110 103 100 105 105 103 96 96 96 103 100
103 110 102 100 105 105 103 96 101 96 103 100 103 110 99 0
5 5 5 5 5 5 78 74 72 69 66 64 63 62 64 65
68 68 68 69 69 72 72 75 76 78 5 5 5 5 5 5
5 7 96 104 102 99 97 97 101 100 98 101 104 104 103 103
103 103 104 104 103 99 100 101 101 98 101 98 103 104 103 103
105 191 191 186 184 182 185 184 191 191 101 103 103 191 183 179
184 191 103 103 102 102 103 191 180 191 104 5 103 100 105 105
103 102 101 103 103 100 103 110 105 98 106 103 104 105 105 105
105 104 104 104 103 99 100 101 101 98 101 98 103 104 103 103
105 105 105 104 105 105 106 105 104 101 104 105 105 104 102 105
105 105 104 105 105 107 106 106 106 106 105 105 105 105 105 105
102 101 105 104 104 105 104 101 102 103 102 104 104 101 101 108
96 98 100 101 101 104 103 103 104 106 104 104 105 105 106 106
191 187 181 186 184 184 186 185 183 185 186 191 109 104 103 191
189 184 187 185 184 189 187 183 189 191 100 101 101 104 111 103
96 106 191 185 183 184 181 181 182 185 191 109 105 104 104 191
189 184 187 185 184 189 187 183 189 191 104 109 108 191 189 184
187 185 184 189 187 183 189 191 105 103 191 186 184 185 191 109
105 103 104 191 185 183 191 109 109 98 94 100 105 105 103 102
191 160 191 100 103 110 105 100 105 105 103 102 191 96 191 100
103 110 103 100 105 105 103 96 191 96 191 100 103 110 99 0
5 5 5 5 5 5 78 72 70 72 69 68 65 70 66 69
67 72 72 72 72 74 75 78 78 79 5 5 5 5 5 5
5 7 96 101 104 98 97 97 103 103 101 103 101 104 103 103
104 104 104 103 103 101 101 101 99 98 100 101 101 104 103 103
191 189 184 187 185 184 189 187 183 189 191 101 105 191 186 184
185 191 109 102 101 101 191 185 183 191 109 5 105 100 105 105
103 102 101 103 103 100 103 110 105 95 105 104 101 104 95 96
96 111 104 96 111 101 95 111 96 109 100 101 96 111 103 103
104 106 104 104 105 105 106 106 160 160 160 104 160 160 160 105
104 104 104 105 105 109 106 106 96 5 105 105 105 106 160 160
160 104 160 160 160 106 160 160 160 105 101 104 103 101 102 109
96 100 103 103 101 103 104 103 104 104 104 104 107 105 102 106
191 186 181 184 187 186 187 187 187 185 187 191 109 103 103 191
183 183 186 185 185 188 188 181 184 191 109 103 101 103 5 103
96 191 185 185 183 183 180 180 181 185 191 109 105 105 104 191
183 183 186 185 185 188 188 181 184 191 109 108 104 191 183 183
186 185 185 188 188 181 184 191 109 99 191 186 184 185 191 109
104 101 191 183 184 184 191 109 110 100 95 101 104 105 105 104
160 103 191 101 103 110 104 101 104 105 101 104 96 96 191 101
103 110 101 101 104 105 105 96 96 96 191 101 103 110 99 0
5 5 5 5 5 79 77 74 72 74 69 68 69 69 69 69
76 69 74 76 74 76 78 79 79 79 79 5 5 5 5 5
5 7 96 101 103 101 98 101 101 101 104 101 103 103 103 103
104 103 101 101 102 100 101 99 100 100 103 103 101 103 104 103
191 183 183 186 185 185 188 188 181 184 191 109 105 191 186 184
185 191 109 102 103 191 183 184 184 191 109 5 105 101 104 98
101 104 100 103 101 101 103 110 105 94 105 103 101 104 94 111
104 94 111 94 111 100 94 109 94 109 103 103 94 111 104 103
104 104 104 104 107 105 102 106 160 191 191 191 160 191 160 191
105 104 103 105 159 109 106 94 6 105 106 106 105 105 104 191
160 191 160 191 160 191 160 191 160 191 100 104 105 101 102 109
96 104 101 103 103 101 104 103 106 104 104 104 104 108 105 103
191 184 181 186 191 191 191 191 191 191 191 191 109 103 191 186
183 183 186 188 191 45 189 181 184 186 191 103 103 101 5 103
96 191 191 191 191 182 180 180 181 185 191 109 103 105 191 186
183 183 186 188 191 45 189 181 184 186 191 105 191 186 183 183
186 188 191 45 189 181 184 186 191 104 104 191 191 191 109 109
104 191 181 183 183 186 191 109 110 104 95 99 104 105 105 160
100 191 100 100 103 110 103 99 104 105 105 104 100 96 191 100
103 110 102 99 104 105 105 104 191 96 191 100 103 110 99 0
5 5 5 5 5 79 77 76 75 74 69 75 68 73 73 69
73 76 73 76 77 74 79 78 78 77 79 5 5 5 5 5
5 7 95 101 100 98 101 103 102 103 110 104 101 103 104 103
104 103 102 102 103 101 101 98 100 104 101 103 103 101 104 191
186 183 183 186 188 191 45 189 181 184 186 191 103 105 191 191
191 109 109 103 191 181 183 183 186 191 109 111 105 99 104 105
108 104 100 106 100 100 103 110 105 96 104 104 102 102 92 92
92 111 102 92 111 101 92 109 92 111 101 103 92 111 104 103
106 104 104 104 104 108 105 103 160 160 160 105 160 191 160 191
106 104 103 104 110 108 92 6 108 106 105 105 105 104 104 160
106 191 160 191 160 191 160 191 160 191 101 105 107 104 101 109
97 100 100 101 104 101 103 103 106 105 105 104 105 104 101 104
191 184 180 186 191 191 191 191 191 191 109 109 109 103 191 187
183 185 186 191 109 191 188 181 184 185 191 109 104 101 111 103
96 105 109 109 191 183 180 180 180 185 191 109 103 103 191 187
183 185 186 191 109 191 188 181 184 185 191 109 191 187 183 185
186 191 109 191 188 181 184 185 191 109 104 105 109 109 109 102
191 180 181 182 186 191 109 98 111 100 94 100 108 107 105 160
160 160 101 103 103 111 104 100 105 107 105 96 96 96 191 103
103 111 102 100 105 105 105 104 101 96 191 103 103 111 99 0
5 5 5 5 5 79 76 76 72 72 75 69 75 73 72 73
73 69 69 69 70 70 73 76 77 76 79 5 5 5 5 5
5 7 95 102 105 98 99 99 98 96 101 101 104 103 103 103
104 103 102 103 103 101 101 98 101 100 100 101 104 101 103 191
187 183 185 186 191 109 191 188 181 184 185 191 109 103 104 109
109 109 103 191 180 181 182 186 191 109 104 5 104 100 108 107
105 104 101 103 101 103 103 111 105 96 104 105 101 102 90 111
104 90 111 90 111 101 90 109 90 109 100 101 90 111 103 103
106 105 105 104 105 104 101 104 105 191 160 191 160 191 160 191
108 102 102 105 107 90 6 109 109 107 106 105 105 104 160 101
191 104 160 191 160 191 160 191 160 191 104 105 105 102 101 109
96 99 100 101 103 100 103 103 103 102 106 104 104 106 105 104
191 186 182 181 180 179 178 179 181 186 191 106 102 100 191 189
183 185 186 191 101 191 187 182 184 186 191 109 103 100 111 103
95 102 105 104 191 183 181 180 180 185 191 109 104 105 191 189
183 185 186 191 103 191 187 182 184 186 191 109 191 189 183 185
186 191 101 191 187 182 184 186 191 109 104 104 103 102 102 191
182 181 181 186 191 109 100 100 110 99 94 100 106 105 105 106
191 191 191 101 104 111 104 100 106 105 105 106 191 191 191 101
104 111 103 100 106 105 105 106 101 103 191 101 104 111 98 0
5 5 5 5 5 79 76 75 72 69 72 75 67 75 72 69
67 65 68 67 69 69 69 73 76 76 79 5 5 5 5 5
5 7 96 104 102 100 100 98 96 98 98 106 102 100 103 103
103 101 102 103 101 101 100 100 100 99 100 101 103 100 103 191
189 183 185 186 191 104 191 187 182 184 186 191 109 105 104 103
103 102 191 182 181 181 186 191 109 105 104 5 105 100 106 105
105 106 101 106 100 101 104 111 107 96 104 104 103 102 88 88
88 111 102 103 88 88 109 100 88 88 88 111 88 88 88 111
103 102 106 104 104 106 105 104 160 160 160 191 160 160 160 191
106 104 104 105 88 6 109 109 109 107 106 104 102 104 160 160
160 106 160 160 160 191 160 160 160 191 104 106 105 103 104 109
96 100 101 103 103 103 104 103 105 104 105 104 106 105 106 104
191 187 181 181 182 183 185 183 182 184 186 191 100 103 191 189
184 185 185 191 103 191 187 181 185 186 191 109 103 103 5 103
96 104 105 105 191 184 181 181 181 185 191 109 102 104 191 189
184 185 185 191 103 191 187 181 185 186 191 109 191 189 184 185
185 191 106 191 187 181 185 186 191 109 105 104 101 105 191 178
183 181 186 191 109 100 98 98 110 100 95 102 109 5 5 5
111 111 110 111 5 5 103 102 109 5 5 5 111 111 110 111
5 5 103 102 109 5 5 5 111 111 110 111 5 5 99 0
5 5 5 5 5 79 76 74 69 66 65 67 67 65 65 65
65 65 65 67 67 65 66 69 75 76 79 5 5 5 5 5
5 7 96 101 104 102 101 98 98 101 100 102 100 103 103 103
103 103 101 104 103 100 98 98 100 100 101 103 103 103 104 191
189 184 185 185 191 104 191 187 181 185 186 191 109 104 104 103
105 191 178 183 181 186 191 109 105 104 104 5 105 102 109 5
5 5 111 111 110 111 5 5 106 96 105 104 101 105 102 104
102 104 101 104 103 100 98 98 100 100 101 103 103 103 104 103
105 104 105 104 106 105 106 104 103 191 191 191 105 191 191 191
105 105 103 104 105 109 109 109 107 107 108 107 105 105 105 191
191 191 105 191 191 191 105 191 191 191 104 106 105 105 104 109
97 100 103 103 103 103 104 104 104 104 104 104 106 105 105 104
191 187 187 185 185 186 187 185 182 183 184 186 191 103 191 189
184 185 185 191 104 191 186 180 184 185 191 109 103 103 5 104
96 104 104 105 191 184 181 181 181 185 191 109 102 106 191 189
184 185 185 191 103 191 186 180 184 185 191 109 191 189 184 185
185 191 104 191 186 180 184 185 191 109 104 105 102 191 178 179
182 186 191 109 104 98 99 100 111 100 95 101 101 103 103 104
106 104 106 104 104 106 106 104 104 105 102 101 105 105 105 101
102 105 104 102 105 109 109 105 102 102 105 102 106 106 99 0
5 5 5 5 5 79 76 72 68 62 63 63 65 67 66 66
66 66 67 65 63 63 62 68 74 76 79 5 5 5 5 5
5 7 96 103 101 101 100 99 101 98 99 100 99 103 103 103
103 103 103 104 104 98 99 100 101 100 103 103 103 103 104 191
189 184 185 185 191 104 191 186 180 184 185 191 109 106 104 104
191 178 179 182 186 191 109 106 104 104 101 5 105 105 105 106
106 106 104 104 104 108 106 108 105 96 104 105 102 102 104 96
96 96 111 96 111 98 95 109 96 96 95 111 96 111 104 104
104 104 104 104 106 105 105 104 104 101 104 105 160 160 160 102
106 104 103 107 105 110 108 109 96 6 108 106 105 105 105 106
104 102 160 160 160 106 160 160 160 104 105 105 105 105 104 109
98 101 101 103 103 103 103 102 106 105 105 105 107 105 105 105
104 109 109 191 191 191 191 191 186 184 184 182 191 109 191 187
183 182 185 191 103 191 186 181 184 185 191 109 103 103 111 102
96 105 105 105 191 184 181 181 181 185 191 109 102 106 191 187
183 182 185 191 104 191 186 181 184 185 191 109 191 187 183 182
185 191 101 191 186 181 184 185 191 109 101 104 191 179 178 179
186 191 109 103 103 99 98 100 111 101 95 96 100 100 100 99
97 99 96 99 98 110 103 102 101 101 101 99 99 98 98 97
100 6 102 96 100 99 100 99 98 99 96 97 98 107 99 0
5 5 5 5 5 79 76 72 68 62 58 59 62 64 67 69
69 67 64 62 59 58 62 68 72 76 79 5 5 5 5 5
5 7 96 100 102 100 100 100 98 98 98 99 99 103 103 103
104 103 105 103 103 99 98 100 103 101 101 103 103 103 103 191
187 183 182 185 191 103 191 186 181 184 185 191 109 106 102 191
179 178 179 186 191 109 107 105 102 103 101 5 105 96 100 100
100 99 97 99 96 99 98 110 105 96 101 104 104 104 94 111
101 104 105 94 111 99 94 109 94 111 101 103 94 111 103 102
106 105 105 105 107 105 105 105 104 104 101 106 160 191 160 191
106 105 104 105 107 108 110 94 6 106 106 105 105 106 105 105
104 106 160 191 191 191 160 191 160 191 105 105 105 101 104 110
97 103 103 103 103 103 103 103 105 107 105 105 105 105 106 105
191 191 191 191 191 191 191 191 186 183 183 182 191 109 191 186
183 182 185 184 191 182 185 181 184 186 191 109 103 103 111 103
96 107 105 104 191 184 181 181 181 186 191 109 102 106 191 186
183 182 185 184 191 182 185 181 184 186 191 109 191 186 183 182
185 184 191 182 185 181 184 186 191 109 107 191 183 179 178 186
191 109 104 191 191 191 98 99 111 103 95 100 106 106 105 104
104 103 100 101 103 5 104 101 108 107 107 104 104 103 102 100
3 6 103 100 105 105 108 104 101 104 101 103 104 110 99 0
5 5 5 5 5 79 76 72 77 0 75 68 59 59 62 61
61 62 59 59 55 55 59 65 72 76 79 5 5 5 5 5
5 7 96 102 102 98 98 98 98 100 99 98 100 103 101 103
103 105 104 104 104 100 98 99 101 103 103 103 103 103 103 191
186 183 182 185 184 191 182 185 181 184 186 191 109 106 191 183
179 178 186 191 109 103 191 191 191 104 105 5 106 100 106 106
105 104 104 103 100 101 103 5 105 96 107 101 104 103 105 92
92 5 104 92 92 92 92 109 92 92 111 103 92 111 103 103
105 107 105 105 105 105 106 105 103 103 103 104 160 191 160 191
105 106 104 105 107 109 92 6 106 103 108 107 106 105 106 105
106 104 160 160 160 104 160 191 160 191 105 105 106 104 101 109
97 101 103 103 103 103 103 102 106 105 105 101 106 108 105 107
191 182 177 177 177 177 180 185 183 182 184 186 191 109 103 191
186 182 186 185 183 183 186 181 183 191 109 109 103 103 111 102
96 105 105 105 191 184 182 182 182 186 191 109 102 106 102 191
186 182 186 185 183 183 186 181 183 191 109 109 106 191 186 182
186 185 183 183 186 181 183 191 109 109 191 181 182 180 186 191
109 103 191 183 179 179 191 99 111 101 95 100 107 107 107 96
96 96 100 103 103 5 103 102 106 109 107 96 96 96 103 103
106 6 102 100 105 105 103 96 96 96 103 100 103 110 99 0
5 5 5 5 65 73 76 72 70 72 77 0 68 55 64 57
57 64 55 60 67 75 77 77 72 76 73 65 5 5 5 5
5 7 96 103 104 98 103 101 100 99 98 100 99 103 103 101
104 103 104 105 102 101 100 99 101 101 103 103 103 103 103 102
191 186 182 186 185 183 183 186 181 183 191 109 109 191 181 182
180 186 191 109 104 191 183 179 179 191 104 5 105 100 107 107
107 104 103 103 100 103 103 5 101 95 108 104 104 104 105 105
105 90 111 90 111 101 90 109 90 111 103 103 90 111 103 102
106 105 105 101 106 108 105 107 105 101 103 104 160 191 160 191
105 105 104 105 105 90 6 109 102 101 106 105 106 105 105 106
104 104 105 191 160 191 160 191 160 191 105 105 106 104 103 110
96 104 101 103 103 104 104 101 106 105 104 104 106 104 105 106
191 184 178 179 181 181 184 184 183 181 186 191 109 109 103 191
45 188 187 188 184 183 186 186 189 191 109 103 103 104 5 101
96 105 104 105 191 184 182 181 181 186 191 109 101 105 102 191
45 188 187 188 184 183 186 186 189 191 109 105 106 191 45 188
187 188 184 183 186 186 189 191 109 101 191 182 183 186 191 109
105 101 191 186 183 184 191 109 110 104 95 100 108 107 106 96
191 191 191 104 103 5 105 102 108 109 107 96 191 191 191 104
106 5 103 100 105 105 103 102 191 96 191 100 103 110 99 0
5 5 5 5 65 73 14 69 65 74 77 0 0 0 74 66
66 74 0 77 77 77 74 70 65 14 73 65 5 5 5 5
5 7 96 101 104 103 103 98 99 103 100 101 101 103 103 100
104 103 104 104 103 100 98 99 100 104 101 103 103 104 104 101
191 45 188 187 188 184 183 186 186 189 191 109 101 191 182 183
186 191 109 103 103 191 186 183 184 191 109 5 105 100 108 107
106 104 103 101 103 104 103 5 103 95 101 103 105 104 88 88
88 111 104 88 111 100 88 109 88 88 88 111 88 88 88 111
106 105 104 104 106 104 105 106 105 104 101 104 160 160 160 191
105 105 104 104 88 6 106 109 109 108 108 108 105 105 105 105
104 106 160 160 160 191 160 160 160 191 105 105 105 105 105 109
96 101 103 103 101 103 103 102 104 106 104 105 104 106 105 106
191 185 183 183 184 185 185 186 187 186 191 109 109 103 103 101
191 191 188 189 185 188 189 191 191 109 109 103 101 103 111 102
96 106 105 104 191 185 184 185 185 187 191 109 102 102 101 102
191 191 188 189 185 188 189 191 191 109 109 108 105 108 191 191
188 189 185 188 189 191 191 109 109 108 191 185 186 191 109 105
104 104 191 186 184 184 191 109 110 101 95 101 108 106 107 96
96 96 103 100 103 111 104 102 109 110 108 96 96 96 103 104
104 5 101 101 104 105 103 103 96 103 191 101 103 110 99 0
5 5 5 5 69 73 148 65 72 0 0 92 103 0 76 75
75 76 0 0 0 92 97 72 65 148 73 69 5 5 5 5
5 7 95 103 103 107 99 100 98 101 98 98 101 103 103 101
103 104 104 104 103 100 99 98 100 101 103 103 101 103 103 102
104 191 191 188 189 185 188 189 191 191 109 109 102 191 185 186
191 109 102 104 105 191 186 184 184 191 109 5 108 100 108 106
107 104 103 101 103 100 103 111 104 97 105 98 107 103 104 104
101 104 104 102 105 101 100 100 101 98 101 103 101 101 103 105
105 107 105 105 104 106 105 106 106 104 103 103 104 191 191 191
105 104 104 157 105 106 106 106 109 108 106 106 104 108 108 107
104 104 105 191 191 191 109 191 191 191 105 105 105 105 105 109
96 99 103 103 103 103 103 102 104 105 103 104 104 106 105 102
191 191 191 191 191 191 191 191 191 109 109 109 104 103 103 101
103 109 191 191 191 191 191 109 109 109 103 103 103 103 111 102
96 105 105 104 191 191 191 191 191 191 191 109 101 104 101 102
104 109 191 191 191 191 191 109 109 109 107 108 108 107 106 109
191 191 191 191 191 109 109 109 103 105 191 191 191 109 104 101
105 104 105 191 191 191 109 109 109 99 95 99 107 106 109 106
191 96 191 103 104 5 103 102 109 109 107 96 191 96 191 103
106 5 102 99 104 105 103 96 100 191 100 100 103 110 99 0
5 5 5 5 73 74 70 65 69 66 58 66 73 74 69 62
62 69 74 73 66 58 66 69 65 70 74 73 5 5 5 5
5 7 95 104 99 105 100 100 101 100 100 100 104 103 103 101
103 103 105 104 104 98 100 98 99 99 103 103 103 103 103 102
104 105 109 191 191 191 191 191 109 109 109 100 101 191 191 191
109 105 103 104 105 105 191 191 191 109 109 6 108 101 107 106
109 106 101 101 101 103 104 5 103 96 101 98 103 103 95 95
95 107 101 104 96 95 111 96 111 98 96 111 93 96 96 110
106 105 106 104 104 106 105 102 106 104 102 105 160 160 160 103
106 105 104 105 103 107 109 109 96 6 107 107 105 109 108 107
104 104 160 160 160 105 160 160 160 105 106 104 105 105 105 109
96 101 103 103 103 103 101 103 104 105 104 102 103 104 105 102
106 109 109 109 109 109 109 109 109 109 101 101 102 103 100 103
103 103 104 109 109 109 109 109 99 101 103 103 103 103 111 103
96 105 103 103 103 109 109 109 109 109 109 109 101 105 101 103
104 105 103 109 109 109 109 109 105 105 108 108 106 107 106 109
104 109 109 109 109 109 106 105 104 104 104 109 109 101 102 105
103 101 104 103 109 109 109 100 109 101 95 100 107 106 109 96
96 96 191 104 106 5 104 101 109 109 107 96 96 96 191 103
104 5 102 100 108 107 103 96 191 103 101 103 103 111 100 0
5 5 5 5 70 74 70 61 61 64 66 69 66 62 66 57
57 66 62 66 69 66 64 61 61 70 74 70 5 5 5 5
5 7 96 103 101 105 100 101 97 97 101 101 102 103 100 103
103 103 104 103 103 99 101 100 99 101 103 103 103 103 101 103
104 105 103 103 109 109 109 109 109 101 100 100 101 105 109 109
104 105 103 104 105 105 105 109 109 109 105 6 108 100 107 106
109 106 104 101 100 104 106 5 104 96 104 104 105 101 94 111
101 94 110 94 5 101 98 94 111 94 111 101 100 94 110 106
105 105 105 102 103 104 105 102 106 104 102 105 160 191 160 191
106 105 104 105 105 107 109 94 6 107 107 105 109 110 107 107
104 104 160 191 191 191 160 191 160 191 105 105 105 105 105 109
95 103 101 103 101 103 103 101 103 106 101 101 105 102 105 102
106 104 102 105 104 106 104 103 97 99 101 101 103 103 103 100
103 104 107 104 104 100 101 98 98 103 101 103 101 103 111 101
95 106 103 105 103 103 103 101 100 101 98 100 101 101 104 101
103 106 102 104 103 105 108 107 104 107 109 108 106 106 106 109
104 106 104 100 103 103 106 104 106 103 104 105 105 101 104 101
106 105 107 104 104 100 101 98 109 103 95 100 106 106 109 106
191 191 191 103 106 5 104 101 109 106 109 102 191 191 191 103
104 5 103 100 106 105 103 106 191 106 100 101 104 111 100 0
5 5 5 5 69 74 69 62 60 58 60 63 59 55 59 55
55 59 55 59 63 60 58 60 62 69 74 69 5 5 5 5
5 7 97 105 102 103 98 101 97 99 101 101 103 103 103 100
103 104 107 104 104 100 101 98 98 103 101 103 101 103 103 101
103 106 103 105 103 103 103 101 100 101 98 100 101 101 104 101
103 106 102 104 103 103 105 108 107 104 107 6 108 100 106 106
109 106 104 100 103 103 106 5 106 95 104 105 103 103 92 92
92 109 104 92 111 101 99 92 92 111 101 101 101 92 110 105
105 108 105 101 105 102 105 102 106 104 102 105 160 191 160 191
106 105 103 104 107 109 92 6 109 108 107 107 108 105 107 107
106 104 160 160 160 107 160 191 160 191 106 106 105 106 106 109
95 96 101 103 101 103 101 101 103 104 104 101 105 104 104 101
101 108 104 102 103 104 107 103 99 99 100 104 105 103 101 100
103 103 104 105 102 101 99 98 97 96 101 103 101 103 111 101
95 104 103 104 103 104 103 101 103 101 101 102 101 101 101 101
103 104 104 105 101 108 109 108 107 109 108 105 106 108 105 108
106 104 104 104 100 106 106 105 105 104 104 104 104 102 104 101
106 106 104 105 102 101 99 98 109 96 95 102 111 109 111 109
109 109 109 110 110 109 103 102 109 5 5 5 111 111 110 111
5 5 103 102 109 5 5 5 111 111 110 111 5 5 99 0
5 5 5 5 5 74 70 67 66 64 61 58 56 60 61 212
210 61 60 56 58 61 64 66 67 70 74 5 5 5 5 5
5 7 96 103 103 100 100 100 99 99 100 104 105 103 101 100
103 103 104 105 102 101 99 98 97 96 101 103 101 103 101 101
103 104 103 104 103 104 103 101 103 101 101 102 101 101 101 101
103 104 104 105 101 101 108 109 108 107 109 6 105 110 111 109
111 109 109 109 106 110 110 109 105 96 104 104 105 104 90 111
101 90 111 90 111 100 100 90 111 90 111 101 103 90 110 105
105 105 105 101 105 104 104 101 101 108 104 102 160 191 160 191
106 107 103 104 104 90 6 110 109 107 107 107 105 105 108 108
104 106 106 191 160 191 160 191 160 191 109 105 106 106 106 109
97 98 101 103 103 103 103 101 102 106 102 102 106 104 104 104
101 105 104 104 108 105 106 104 98 99 100 100 105 103 103 100
103 104 105 104 103 100 100 100 101 98 101 103 103 103 111 101
95 106 103 104 103 104 103 103 103 105 101 101 101 104 102 101
102 106 108 105 103 108 108 108 109 109 107 108 108 106 107 109
106 106 101 103 101 106 106 104 105 101 104 105 104 104 104 104
101 103 105 104 103 100 100 100 111 98 95 101 101 103 103 103
105 105 106 107 104 105 104 104 101 101 104 102 106 104 104 106
104 104 104 103 103 106 105 102 104 107 105 106 105 105 100 0
5 5 5 5 5 74 72 68 67 64 58 54 61 66 68 144
144 68 66 61 54 58 64 67 68 72 74 5 5 5 5 5
5 7 95 102 101 103 100 99 98 99 100 100 105 103 103 100
103 104 105 104 103 100 100 100 101 98 101 103 103 103 103 101
102 106 103 104 103 104 103 103 103 105 101 101 101 104 102 101
102 106 108 105 103 103 108 108 108 109 109 6 108 108 106 107
109 106 101 103 101 106 106 104 105 95 104 105 105 102 88 111
102 88 111 104 88 88 111 88 111 98 88 111 101 88 110 103
105 105 106 102 106 104 104 104 101 105 104 104 160 160 160 191
106 105 105 107 88 6 109 110 109 105 108 108 108 105 108 110
104 106 160 160 160 191 160 160 160 191 106 106 107 107 106 109
96 100 101 103 103 103 103 102 104 106 102 102 106 104 104 104
104 102 105 105 108 108 108 101 102 103 100 100 104 103 103 103
103 104 106 101 104 101 100 104 100 100 101 103 103 103 111 102
96 106 103 104 103 103 103 103 103 102 102 102 101 105 102 102
104 106 107 105 101 107 106 108 108 109 109 106 109 108 107 108
104 104 104 103 103 101 106 107 105 106 104 106 104 104 102 101
104 101 106 101 104 101 100 104 110 100 95 101 100 103 103 105
106 104 105 108 104 105 104 105 104 104 103 105 103 105 104 102
104 104 104 104 103 106 106 103 105 107 105 105 105 104 99 0
5 5 5 5 5 5 72 65 68 61 55 59 67 75 72 70
70 72 75 67 59 55 61 68 65 72 5 5 5 5 5 5
5 7 96 104 103 101 96 99 102 103 100 100 104 103 103 103
103 104 106 101 104 101 100 104 100 100 101 103 103 103 103 102
104 106 103 104 103 103 103 103 103 102 102 102 101 105 102 102
104 106 107 105 101 101 107 106 108 108 109 6 106 102 101 101
101 99 99 98 98 97 100 6 105 96 104 106 103 104 105 103
104 101 104 101 104 100 100 100 101 98 101 101 103 103 103 105
106 104 105 102 106 104 104 104 104 102 105 105 108 191 191 191
106 106 107 105 105 108 110 110 106 104 106 108 105 105 109 109
104 106 106 191 191 191 107 191 191 191 106 106 106 106 105 109
97 103 101 103 103 101 103 104 106 104 96 96 96 104 104 103
96 101 104 107 96 108 105 104 96 100 98 101 96 103 103 104
96 95 96 96 96 101 101 102 101 103 101 103 103 101 111 104
96 104 103 104 103 103 103 96 96 103 102 99 96 95 102 104
96 95 96 96 96 109 105 109 96 95 96 106 107 95 96 107
104 95 96 96 96 95 96 109 96 95 105 105 105 95 96 99
103 103 108 105 104 101 101 102 111 103 95 101 100 103 104 104
96 96 95 104 104 96 96 95 96 96 104 106 101 96 103 101
103 96 106 104 102 96 95 96 96 96 103 105 105 105 99 0
5 5 5 5 5 5 74 63 68 59 57 64 62 60 64 67
67 64 60 62 64 57 59 68 63 74 5 5 5 5 5 5
5 7 96 104 102 99 97 99 101 100 98 101 104 103 96 96
95 103 108 96 95 96 96 96 101 103 101 96 103 101 103 96
106 104 103 96 95 96 96 96 101 103 96 96 95 96 96 104
106 104 107 107 105 105 109 105 109 109 109 5 106 101 108 107
107 104 104 103 102 100 3 6 109 96 105 105 105 102 104 96
96 95 5 96 96 95 109 96 109 99 103 96 111 103 103 105
106 104 104 101 104 104 104 103 106 101 104 107 160 160 160 104
105 107 107 107 103 108 109 109 95 5 108 108 104 105 160 160
160 106 160 160 160 108 160 160 160 106 105 106 107 105 105 109
97 100 100 101 103 103 103 103 104 94 94 111 94 94 111 94
94 94 103 94 94 94 108 94 94 94 101 94 94 94 103 94
94 111 6 111 94 94 101 101 101 100 100 101 103 103 111 103
96 105 103 103 103 103 103 94 94 111 101 101 94 94 111 94
94 5 6 5 6 6 106 94 94 6 94 94 109 94 94 6
106 106 111 94 94 111 5 6 94 94 5 104 104 94 94 111
103 102 107 102 105 101 101 101 111 100 94 100 100 103 104 94
94 111 94 94 104 104 111 111 111 94 94 104 94 94 94 103
94 94 94 105 94 94 5 111 5 5 5 104 104 105 99 0
5 5 5 5 5 5 75 66 67 61 59 62 61 57 54 61
61 54 57 61 62 59 61 67 66 75 5 5 5 5 5 5
5 7 96 101 104 98 97 97 103 103 101 103 101 94 94 111
94 94 107 102 5 111 111 94 94 100 94 94 94 103 94 94
94 105 94 94 111 111 111 94 94 103 101 111 111 111 94 94
104 105 107 105 107 107 110 106 108 109 109 5 106 102 106 109
107 106 103 103 103 103 106 6 104 96 105 104 104 104 94 5
103 101 104 94 111 99 101 94 109 101 103 94 111 103 101 104
104 105 104 101 104 105 103 99 107 103 103 109 160 191 160 191
104 108 107 107 105 110 110 94 6 107 109 109 105 105 108 191
160 191 160 191 160 191 160 191 160 191 105 105 107 104 105 111
97 102 100 103 103 103 101 104 92 92 92 92 92 92 111 92
92 92 92 92 92 92 6 92 92 92 92 92 92 92 111 92
92 111 105 104 92 92 111 101 101 102 100 103 103 103 111 104
95 106 105 104 104 103 103 92 92 92 92 92 92 92 111 92
92 92 92 92 92 108 92 92 92 92 92 92 6 92 92 6
109 106 103 92 92 111 106 105 92 92 92 92 92 92 92 111
101 105 105 104 105 104 101 101 111 102 94 103 100 101 92 92
92 92 92 92 109 92 92 92 92 92 111 111 92 92 92 92
92 92 92 5 99 92 92 92 92 103 105 107 105 105 99 0
5 5 5 5 5 5 5 70 66 63 61 69 72 165 165 165
165 165 165 72 69 61 63 66 70 5 5 5 5 5 5 5
5 7 96 101 103 101 98 101 101 101 104 104 92 92 92 92
92 92 5 92 92 92 92 92 111 111 92 92 92 92 92 92
92 5 92 92 111 103 103 92 92 111 92 92 92 92 92 111
111 106 105 105 105 105 108 109 109 109 109 5 108 102 108 109
107 106 103 103 104 104 106 5 106 96 101 104 104 105 92 111
106 105 107 92 92 109 101 92 109 103 101 92 111 103 103 105
103 106 105 104 105 106 104 103 105 101 107 107 160 191 160 191
105 105 107 107 107 110 92 6 109 108 109 110 107 106 109 160
160 191 160 191 160 191 160 191 160 191 105 106 105 106 105 110
97 101 103 103 103 103 103 104 90 90 111 5 90 90 111 90
90 111 90 5 90 90 5 90 90 111 90 111 90 90 111 90
90 5 105 105 90 90 109 100 101 101 103 103 103 103 111 104
96 108 107 104 104 103 103 90 90 111 111 111 90 90 111 90
90 6 5 5 6 6 90 90 6 5 90 90 6 90 90 6
109 106 104 90 90 111 104 105 90 90 111 111 111 90 90 111
104 105 105 105 105 104 100 100 111 101 95 103 100 103 90 90
111 109 90 90 111 90 90 111 111 90 90 105 90 90 111 90
111 90 90 6 98 100 109 5 90 90 103 106 105 105 100 0
5 5 5 5 5 5 5 75 69 65 63 63 63 61 59 213
213 59 61 63 63 63 65 69 75 5 5 5 5 5 5 5
5 7 95 101 100 98 101 103 102 103 110 101 90 90 111 111
90 90 5 90 90 111 109 90 90 101 90 90 111 90 111 90
90 6 90 90 111 103 103 90 90 111 90 90 111 111 90 90
105 108 105 105 107 107 109 108 108 108 106 5 108 102 109 110
108 106 104 104 103 104 104 5 106 96 102 104 104 103 90 111
106 106 104 90 111 101 99 90 109 96 101 90 111 103 101 106
105 108 103 105 104 107 104 104 106 103 108 105 160 191 160 191
105 106 105 107 107 90 6 109 110 110 109 109 109 109 110 110
160 191 160 191 160 191 160 191 160 191 106 106 106 106 107 109
98 102 103 101 104 101 103 101 88 88 111 104 88 88 111 88
88 111 108 6 88 88 5 88 88 5 110 111 88 88 111 101
88 88 88 88 88 111 109 101 102 102 103 101 104 101 111 101
96 108 104 103 103 103 104 88 88 111 103 101 88 88 111 101
88 88 88 88 88 109 88 88 6 105 88 88 6 88 88 88
88 106 103 88 88 111 106 105 88 88 111 102 102 88 88 111
103 104 107 105 105 101 100 101 111 102 95 103 100 103 88 88
5 104 88 88 5 88 88 111 104 88 88 111 88 88 111 101
111 88 88 6 88 88 88 88 88 5 5 106 105 105 101 0
5 5 5 5 5 5 5 5 73 68 62 60 63 66 69 71
71 69 66 63 60 62 68 73 5 5 5 5 5 5 5 5
5 7 94 101 102 101 102 101 105 105 110 104 88 88 111 101
88 88 6 88 88 111 100 88 88 111 88 88 111 101 111 88
88 6 104 88 88 88 88 88 111 111 88 88 111 104 88 88
111 108 105 104 107 107 109 109 108 108 105 6 110 102 109 109
107 106 103 103 103 103 106 5 105 96 102 102 102 102 104 88
88 88 5 88 88 88 109 88 88 88 111 88 88 88 111 105
104 108 104 104 104 105 103 105 105 102 108 108 160 160 160 191
106 106 107 109 88 127 109 109 110 110 109 106 110 108 160 160
160 191 160 160 160 191 160 160 160 191 106 108 106 106 106 111
98 102 101 103 103 103 103 102 104 5 5 104 105 6 5 105
5 111 109 108 104 111 5 107 111 5 102 101 101 111 111 101
103 111 6 5 111 111 100 100 102 102 101 103 103 103 111 102
96 106 105 105 105 103 104 101 111 111 102 102 102 5 111 102
104 5 5 111 5 6 109 6 6 105 108 6 6 109 6 6
111 111 103 103 111 111 104 106 105 111 5 104 104 105 111 111
104 104 108 106 102 101 100 100 111 102 95 103 100 103 104 111
5 104 104 5 5 102 111 111 105 102 111 111 101 111 111 103
104 104 111 5 101 111 5 5 5 5 104 105 105 105 100 0
5 5 5 5 5 5 5 5 5 73 67 62 60 63 63 59
59 63 63 60 62 67 73 5 5 5 5 5 5 5 5 5
5 7 96 103 103 104 104 98 104 105 102 101 101 111 111 101
103 111 6 106 111 111 100 100 111 111 101 111 111 103 103 102
111 5 105 105 5 111 111 111 111 104 102 111 111 105 102 111
111 106 105 102 105 105 110 109 108 107 105 6 110 101 109 109
107 104 103 103 103 103 104 5 105 96 105 104 104 105 104 104
104 104 108 106 102 101 100 100 102 102 101 103 103 103 103 102
104 106 105 104 105 107 105 105 105 103 109 108 104 191 191 191
105 105 159 107 107 109 109 109 109 109 109 109 109 109 110 191
191 191 107 191 191 191 107 191 191 191 106 108 106 106 107 111
97 101 101 103 103 103 103 104 104 104 108 105 104 106 104 107
105 103 110 108 102 105 107 107 100 98 98 103 99 103 103 103
103 103 108 105 103 102 100 100 101 101 101 103 103 103 111 104
96 104 105 104 105 103 104 103 103 101 102 105 103 102 103 104
104 104 104 104 105 108 108 108 107 107 110 109 107 109 106 109
106 102 101 103 101 103 104 106 105 105 105 104 105 104 104 104
104 104 108 105 103 102 100 100 111 101 95 103 100 103 104 105
105 105 105 106 104 104 104 105 104 101 105 104 105 104 106 108
104 105 101 101 105 108 105 106 105 106 106 107 106 105 100 0
5 5 5 5 5 5 5 5 5 5 75 70 65 61 59 54
54 59 61 65 70 75 5 5 5 5 5 5 5 5 5 5
5 7 96 104 104 104 104 103 100 98 98 103 99 103 103 103
103 103 108 105 103 102 100 100 101 101 101 103 103 103 103 104
104 104 105 104 105 103 104 103 103 101 102 105 103 102 103 104
104 104 104 104 105 105 108 108 108 107 107 6 109 101 109 106
109 102 101 103 101 103 104 5 105 96 105 104 105 104 104 104
104 104 108 105 103 102 100 100 101 101 101 103 103 103 103 104
104 104 108 105 104 106 104 107 105 103 110 108 102 105 107 107
105 105 107 107 105 110 110 110 109 109 110 107 109 110 109 109
104 104 106 107 107 109 108 109 109 108 106 104 108 107 105 111
97 101 101 103 101 103 104 102 104 104 107 105 104 105 108 107
105 104 110 107 105 105 105 105 104 102 101 97 103 103 104 101
103 103 105 105 105 101 99 100 101 101 101 103 101 103 5 102
96 104 105 105 105 103 104 104 104 102 101 101 99 102 102 102
104 104 107 105 105 110 108 108 107 108 109 107 108 109 108 108
106 104 101 103 101 101 104 105 106 106 105 105 105 104 105 105
104 102 105 105 105 101 99 100 111 101 95 100 100 103 104 104
105 105 106 105 104 105 104 104 101 101 104 102 106 104 104 106
104 106 101 103 104 106 105 108 108 107 106 105 106 105 101 0
5 5 5 5 5 5 5 5 5 5 5 5 73 69 67 67
67 67 69 73 5 5 5 5 5 5 5 5 5 5 5 5
5 7 96 104 101 104 101 103 104 102 101 97 103 103 104 101
103 103 105 105 105 101 99 100 101 101 101 103 101 103 104 102
104 104 105 105 105 103 104 104 104 102 101 101 99 102 102 102
104 104 107 105 105 105 110 108 108 107 108 6 107 111 5 111
111 109 107 108 107 107 109 5 106 96 105 105 105 104 105 105
104 102 105 105 105 101 99 100 101 101 101 103 101 103 104 102
104 104 107 105 104 105 108 107 105 104 110 107 105 105 105 105
104 109 105 158 107 109 109 110 110 110 110 109 110 110 110 110
106 104 109 109 107 108 109 108 109 108 107 108 109 106 107 110
101 108 107 108 109 108 109 109 111 109 109 109 111 111 109 109
5 111 109 109 109 109 109 5 107 104 108 108 109 107 108 108
109 109 109 107 105 106 107 107 107 108 107 108 109 108 109 109
109 109 109 108 109 109 109 108 107 107 105 108 108 108 109 109
111 109 109 5 111 111 111 111 5 111 111 5 111 111 110 109
107 108 107 107 109 109 110 110 109 109 109 109 109 109 109 108
109 109 109 107 105 106 107 107 107 108 107 108 109 108 109 109
109 109 109 109 109 110 109 108 108 109 109 109 109 107 109 109
109 109 109 108 109 110 110 5 111 5 5 5 5 5 5 0
5 5 5 5 5 5 5 5 5 5 5 5 5 5 5 5
5 5 5 5 5 5 5 5 5 5 5 5 5 5 5 5
5 7 107 109 107 108 109 108 107 104 108 108 109 107 108 108
109 109 109 107 105 106 107 107 107 108 107 108 109 108 109 109
109 109 109 108 109 109 109 108 107 107 105 108 108 108 109 109
111 109 109 5 111 111 111 111 111 5 111 6 5 111 111 110
109 108 107 107 109 109 110 110 109 109 109 109 109 109 109 108
109 109 109 107 105 106 107 107 107 108 107 108 109 108 109 109
111 109 109 109 111 111 109 109 5 111 109 109 109 109 109 5
109 10 111 5 5 5 5 5 5 5 5 5 5 5 110 109
5 5 111 111 5 111 5 111 111 111 5 110 111 110 109 109
